;FLAVOR:Marlin
;TIME:16163
;Filament used: 17.2739m
;Layer height: 0.28
;MINX:56.519
;MINY:56.53
;MINZ:0.28
;MAXX:178.481
;MAXY:178.47
;MAXZ:64.96
;Generated with Cura_SteamEngine master
M140 S50
M105
M190 S50
M104 S210
M105
M109 S210
M82 ;absolute extrusion mode
; Ender 3 Custom Start G-code
G92 E0 ; Reset Extruder
G28 ; Home all axes
G1 Z2.0 F3000 ; Move Z Axis up little to prevent scratching of Heat Bed
G1 X0.1 Y20 Z0.3 F5000.0 ; Move to start position
G1 X0.1 Y200.0 Z0.3 F1500.0 E15 ; Draw the first line
G1 X0.4 Y200.0 Z0.3 F5000.0 ; Move to side a little
G1 X0.4 Y20 Z0.3 F1500.0 E30 ; Draw the second line
G92 E0 ; Reset Extruder
G1 Z2.0 F3000 ; Move Z Axis up little to prevent scratching of Heat Bed
G1 X5 Y20 Z0.3 F5000.0 ; Move over to prevent blob squish
G92 E0
G92 E0
G1 F2700 E-5
;LAYER_COUNT:232
;LAYER:0
M107
G0 F6000 X119.407 Y57.347 Z0.28
;TYPE:SKIRT
G1 F2700 E0
G1 F1200 X120.792 Y57.415 E0.06457
G1 X121.006 Y57.428 E0.07455
G1 X122.913 Y57.563 E0.16357
G1 X123.276 Y57.594 E0.18054
G1 X123.616 Y57.629 E0.19645
G1 X125.139 Y57.813 E0.26789
G1 X127.422 Y58.14 E0.37528
G1 X127.787 Y58.203 E0.39252
G1 X129.283 Y58.491 E0.46346
G1 X131.196 Y58.898 E0.55453
G1 X131.541 Y58.977 E0.57101
G1 X131.875 Y59.06 E0.58704
G1 X133.407 Y59.468 E0.66086
G1 X135.202 Y59.982 E0.7478
G1 X135.582 Y60.097 E0.76629
G1 X135.919 Y60.206 E0.78278
G1 X137.431 Y60.724 E0.85721
G1 X139.15 Y61.35 E0.94239
G1 X139.543 Y61.499 E0.96196
G1 X139.883 Y61.635 E0.97901
G1 X141.356 Y62.258 E1.05349
G1 X143.275 Y63.117 E1.15139
G1 X143.708 Y63.323 E1.17371
G1 X145.133 Y64.046 E1.24812
G1 X146.781 Y64.924 E1.33507
G1 X147.146 Y65.125 E1.35447
G1 X147.456 Y65.303 E1.37112
G1 X148.759 Y66.083 E1.44183
G1 X150.373 Y67.092 E1.53046
G1 X150.696 Y67.3 E1.54835
G1 X150.991 Y67.498 E1.56489
G1 X152.303 Y68.411 E1.63932
G1 X153.813 Y69.51 E1.72629
G1 X154.12 Y69.74 E1.74415
G1 X154.395 Y69.954 E1.76037
G1 X155.647 Y70.963 E1.83525
G1 X157.103 Y72.186 E1.92379
G1 X157.379 Y72.425 E1.94079
G1 X157.63 Y72.649 E1.95645
G1 X158.796 Y73.733 E2.03059
G1 X160.316 Y75.208 E2.12921
G1 X160.652 Y75.55 E2.15154
G1 X161.744 Y76.716 E2.22592
G1 X163.002 Y78.115 E2.31353
G1 X163.26 Y78.411 E2.33181
G1 X163.478 Y78.669 E2.34754
G1 X164.477 Y79.899 E2.42133
G1 X165.78 Y81.572 E2.52007
G1 X166.071 Y81.965 E2.54284
G1 X166.972 Y83.247 E2.6158
G1 X168.011 Y84.788 E2.70234
G1 X168.234 Y85.128 E2.72128
G1 X168.43 Y85.439 E2.73839
G1 X169.26 Y86.815 E2.81322
G1 X170.309 Y88.64 E2.91124
G1 X170.538 Y89.06 E2.93351
G1 X171.254 Y90.458 E3.00665
G1 X172.111 Y92.216 E3.09772
G1 X172.254 Y92.521 E3.1134
G1 X172.396 Y92.837 E3.12954
G1 X173.007 Y94.268 E3.20199
G1 X173.714 Y96.019 E3.28992
G1 X173.863 Y96.403 E3.3091
G1 X173.986 Y96.738 E3.32572
G1 X174.494 Y98.203 E3.39792
G1 X175.086 Y100.025 E3.48712
G1 X175.199 Y100.391 E3.50496
G1 X175.294 Y100.717 E3.52077
G1 X175.707 Y102.245 E3.59447
G1 X176.216 Y104.306 E3.69333
G1 X176.317 Y104.759 E3.71494
G1 X176.633 Y106.361 E3.79097
G1 X176.995 Y108.444 E3.88942
G1 X177.065 Y108.909 E3.91131
G1 X177.263 Y110.488 E3.98541
G1 X177.464 Y112.409 E4.07535
G1 X177.495 Y112.754 E4.09148
G1 X177.52 Y113.092 E4.10726
G1 X177.606 Y114.657 E4.18025
G1 X177.671 Y116.545 E4.26821
G1 X177.68 Y116.977 E4.28833
G1 X177.681 Y117.323 E4.30444
G1 X177.659 Y118.836 E4.3749
G1 X177.591 Y120.756 E4.46436
G1 X177.571 Y121.159 E4.48315
G1 X177.548 Y121.506 E4.49934
G1 X177.417 Y123.05 E4.5715
G1 X177.214 Y124.97 E4.6614
G1 X177.124 Y125.68 E4.69472
G1 X176.885 Y127.21 E4.76683
G1 X176.545 Y129.138 E4.85799
G1 X176.481 Y129.471 E4.87378
G1 X176.411 Y129.805 E4.88967
G1 X176.059 Y131.344 E4.96318
G1 X175.602 Y133.175 E5.05106
G1 X175.502 Y133.555 E5.06936
G1 X175.404 Y133.904 E5.08624
G1 X174.954 Y135.386 E5.15835
G1 X174.362 Y137.207 E5.24752
G1 X174.122 Y137.893 E5.28136
G1 X173.552 Y139.387 E5.35582
G1 X172.757 Y141.341 E5.45404
G1 X172.57 Y141.773 E5.47596
G1 X171.893 Y143.232 E5.55086
G1 X170.902 Y145.253 E5.65567
G1 X170.734 Y145.571 E5.67242
G1 X169.969 Y146.958 E5.74617
G1 X169.036 Y148.573 E5.83302
G1 X168.828 Y148.923 E5.85198
G1 X168.633 Y149.238 E5.86923
G1 X167.797 Y150.53 E5.94089
G1 X166.6 Y152.298 E6.04031
G1 X166.322 Y152.69 E6.06268
G1 X165.353 Y153.982 E6.13789
G1 X163.968 Y155.744 E6.24224
G1 X163.735 Y156.025 E6.25924
G1 X162.702 Y157.218 E6.33272
G1 X161.407 Y158.656 E6.42283
G1 X161.184 Y158.896 E6.43809
G1 X160.953 Y159.137 E6.45363
G1 X159.775 Y160.32 E6.53137
G1 X158.261 Y161.776 E6.62918
G1 X157.905 Y162.103 E6.65169
G1 X156.706 Y163.148 E6.72575
G1 X155.081 Y164.506 E6.82436
G1 X154.704 Y164.806 E6.84679
G1 X153.443 Y165.759 E6.92039
G1 X151.901 Y166.879 E7.00913
G1 X151.604 Y167.088 E7.02605
G1 X151.317 Y167.282 E7.04218
G1 X149.954 Y168.171 E7.11795
G1 X148.149 Y169.293 E7.21691
G1 X147.733 Y169.538 E7.23939
G1 X146.395 Y170.282 E7.31068
G1 X144.734 Y171.165 E7.39827
G1 X144.377 Y171.349 E7.41697
G1 X144.043 Y171.513 E7.4343
G1 X142.619 Y172.18 E7.50752
G1 X140.863 Y172.96 E7.59699
G1 X140.523 Y173.105 E7.6142
G1 X140.217 Y173.23 E7.62959
G1 X138.755 Y173.796 E7.7026
G1 X136.955 Y174.449 E7.79176
G1 X136.615 Y174.567 E7.80851
G1 X136.283 Y174.676 E7.82479
G1 X134.753 Y175.147 E7.89933
G1 X132.952 Y175.663 E7.98656
G1 X132.563 Y175.768 E8.00533
G1 X132.237 Y175.85 E8.02098
G1 X130.695 Y176.209 E8.0947
G1 X128.6 Y176.649 E8.19438
G1 X128.132 Y176.736 E8.21655
G1 X126.599 Y176.982 E8.28884
G1 X124.715 Y177.245 E8.37742
G1 X124.325 Y177.294 E8.39572
G1 X123.978 Y177.332 E8.41198
G1 X122.385 Y177.475 E8.48645
G1 X120.546 Y177.603 E8.57229
G1 X120.135 Y177.626 E8.59146
G1 X119.776 Y177.64 E8.60819
G1 X118.188 Y177.67 E8.68215
G1 X116.069 Y177.665 E8.78081
G1 X115.593 Y177.653 E8.80299
G1 X113.994 Y177.572 E8.87754
G1 X112.087 Y177.437 E8.96656
G1 X111.724 Y177.406 E8.98352
G1 X111.384 Y177.371 E8.99944
G1 X109.861 Y177.187 E9.07087
G1 X107.578 Y176.86 E9.17826
G1 X107.213 Y176.797 E9.19551
G1 X105.717 Y176.509 E9.26645
G1 X103.804 Y176.102 E9.35752
G1 X103.459 Y176.023 E9.374
G1 X103.125 Y175.94 E9.39003
G1 X101.593 Y175.532 E9.46385
G1 X99.798 Y175.018 E9.55079
G1 X99.418 Y174.903 E9.56928
G1 X99.081 Y174.794 E9.58577
G1 X97.569 Y174.276 E9.66019
G1 X95.85 Y173.65 E9.74538
G1 X95.457 Y173.501 E9.76495
G1 X95.117 Y173.365 E9.782
G1 X93.644 Y172.742 E9.85647
G1 X91.725 Y171.883 E9.95437
G1 X91.292 Y171.677 E9.9767
G1 X89.867 Y170.954 E10.05111
G1 X88.219 Y170.076 E10.13805
G1 X87.854 Y169.875 E10.15746
G1 X87.545 Y169.698 E10.17404
G1 X86.238 Y168.915 E10.24498
G1 X84.627 Y167.908 E10.33345
G1 X84.304 Y167.7 E10.35134
G1 X84.007 Y167.501 E10.36798
G1 X82.697 Y166.589 E10.44231
G1 X81.187 Y165.49 E10.52927
G1 X80.88 Y165.26 E10.54713
G1 X80.604 Y165.045 E10.56343
G1 X79.353 Y164.037 E10.63823
G1 X77.897 Y162.814 E10.72678
G1 X77.621 Y162.575 E10.74378
G1 X77.37 Y162.35 E10.75947
G1 X76.203 Y161.266 E10.83364
G1 X74.684 Y159.792 E10.9322
G1 X74.348 Y159.45 E10.95452
G1 X73.255 Y158.282 E11.02901
G1 X71.998 Y156.885 E11.11651
G1 X71.74 Y156.589 E11.1348
G1 X71.523 Y156.332 E11.15046
G1 X70.521 Y155.099 E11.22444
G1 X69.219 Y153.427 E11.32312
G1 X68.93 Y153.037 E11.34572
G1 X68.026 Y151.751 E11.41892
G1 X66.989 Y150.212 E11.50533
G1 X66.766 Y149.872 E11.52426
G1 X66.57 Y149.561 E11.54138
G1 X65.74 Y148.185 E11.61621
G1 X64.691 Y146.36 E11.71422
G1 X64.462 Y145.94 E11.7365
G1 X63.746 Y144.542 E11.80964
G1 X62.889 Y142.784 E11.90071
G1 X62.746 Y142.479 E11.91639
G1 X62.604 Y142.163 E11.93252
G1 X61.993 Y140.732 E12.00498
G1 X61.286 Y138.981 E12.09291
G1 X61.137 Y138.597 E12.11208
G1 X61.014 Y138.262 E12.1287
G1 X60.506 Y136.797 E12.2009
G1 X59.914 Y134.975 E12.29011
G1 X59.801 Y134.609 E12.30795
G1 X59.706 Y134.281 E12.32385
G1 X59.293 Y132.755 E12.39746
G1 X58.784 Y130.695 E12.49627
G1 X58.683 Y130.241 E12.51792
G1 X58.367 Y128.639 E12.59396
G1 X58.005 Y126.556 E12.6924
G1 X57.935 Y126.09 E12.71435
G1 X57.737 Y124.512 E12.7884
G1 X57.536 Y122.591 E12.87834
G1 X57.505 Y122.246 E12.89447
G1 X57.48 Y121.907 E12.9103
G1 X57.394 Y120.341 E12.98333
G1 X57.328 Y118.415 E13.07306
G1 X57.32 Y118.015 E13.09169
G1 X57.319 Y117.677 E13.10743
G1 X57.341 Y116.164 E13.17789
G1 X57.409 Y114.244 E13.26735
G1 X57.429 Y113.841 E13.28614
G1 X57.452 Y113.494 E13.30233
G1 X57.583 Y111.95 E13.37448
G1 X57.786 Y110.03 E13.46438
G1 X57.876 Y109.32 E13.49771
G1 X58.115 Y107.79 E13.56982
G1 X58.455 Y105.862 E13.66098
G1 X58.519 Y105.529 E13.67677
G1 X58.589 Y105.195 E13.69266
G1 X58.941 Y103.656 E13.76617
G1 X59.398 Y101.825 E13.85404
G1 X59.498 Y101.445 E13.87234
G1 X59.596 Y101.096 E13.88922
G1 X60.046 Y99.614 E13.96134
G1 X60.638 Y97.793 E14.0505
G1 X60.878 Y97.107 E14.08434
G1 X61.448 Y95.613 E14.1588
G1 X62.243 Y93.659 E14.25703
G1 X62.43 Y93.227 E14.27895
G1 X63.107 Y91.768 E14.35384
G1 X64.098 Y89.747 E14.45866
G1 X64.265 Y89.43 E14.47534
G1 X65.034 Y88.036 E14.54947
G1 X66.172 Y86.077 E14.65497
G1 X66.367 Y85.762 E14.67222
G1 X67.203 Y84.47 E14.74387
G1 X68.4 Y82.702 E14.84329
G1 X68.678 Y82.31 E14.86567
G1 X69.647 Y81.018 E14.94087
G1 X71.032 Y79.256 E15.04523
G1 X71.265 Y78.975 E15.06223
G1 X72.298 Y77.782 E15.13571
G1 X73.593 Y76.344 E15.22582
G1 X73.816 Y76.104 E15.24107
G1 X74.047 Y75.863 E15.25662
G1 X75.225 Y74.68 E15.33436
G1 X76.739 Y73.224 E15.43216
G1 X77.095 Y72.897 E15.45467
G1 X78.294 Y71.852 E15.52873
G1 X79.919 Y70.494 E15.62734
G1 X80.296 Y70.194 E15.64978
G1 X81.557 Y69.241 E15.72338
G1 X83.099 Y68.121 E15.81212
G1 X83.396 Y67.912 E15.82903
G1 X83.681 Y67.719 E15.84506
G1 X85.052 Y66.825 E15.92127
G1 X86.853 Y65.706 E16.02
G1 X87.267 Y65.462 E16.04238
G1 X88.605 Y64.718 E16.11367
G1 X90.266 Y63.835 E16.20126
G1 X90.623 Y63.651 E16.21996
G1 X90.957 Y63.487 E16.23729
G1 X92.381 Y62.82 E16.31051
G1 X94.137 Y62.04 E16.39998
G1 X94.477 Y61.895 E16.41719
G1 X94.783 Y61.77 E16.43258
G1 X96.245 Y61.204 E16.50558
G1 X98.045 Y60.551 E16.59474
G1 X98.385 Y60.433 E16.6115
G1 X98.717 Y60.324 E16.62777
G1 X100.247 Y59.853 E16.70231
G1 X102.048 Y59.337 E16.78955
G1 X102.437 Y59.232 E16.80831
G1 X102.763 Y59.15 E16.82396
G1 X104.305 Y58.791 E16.89769
G1 X106.4 Y58.351 E16.99737
G1 X106.868 Y58.264 E17.01953
G1 X108.401 Y58.018 E17.09183
G1 X110.285 Y57.755 E17.18041
G1 X110.675 Y57.706 E17.19871
G1 X111.022 Y57.668 E17.21496
G1 X112.615 Y57.525 E17.28944
G1 X114.454 Y57.397 E17.37528
G1 X114.865 Y57.374 E17.39444
G1 X115.224 Y57.36 E17.41117
G1 X116.812 Y57.33 E17.48513
G1 X118.931 Y57.335 E17.5838
G1 X119.407 Y57.347 E17.60597
G0 F6000 X119.427 Y56.948
G1 F1200 X120.812 Y57.016 E17.67054
G1 X121.034 Y57.029 E17.6809
G1 X122.947 Y57.164 E17.77019
G1 X123.31 Y57.195 E17.78716
G1 X123.663 Y57.232 E17.80369
G1 X125.195 Y57.417 E17.87554
G1 X127.483 Y57.745 E17.98317
G1 X127.862 Y57.81 E18.00107
G1 X129.366 Y58.1 E18.0724
G1 X131.285 Y58.508 E18.16375
G1 X131.63 Y58.587 E18.18023
G1 X131.977 Y58.673 E18.19688
G1 X133.517 Y59.083 E18.27108
G1 X135.317 Y59.599 E18.35828
G1 X135.697 Y59.714 E18.37676
G1 X136.048 Y59.827 E18.39393
G1 X137.567 Y60.348 E18.46871
G1 X139.292 Y60.976 E18.55419
G1 X139.685 Y61.125 E18.57376
G1 X140.038 Y61.267 E18.59148
G1 X141.52 Y61.893 E18.66639
G1 X143.439 Y62.752 E18.76429
G1 X143.888 Y62.966 E18.78745
G1 X145.321 Y63.693 E18.86227
G1 X146.974 Y64.574 E18.94949
G1 X147.339 Y64.775 E18.9689
G1 X147.661 Y64.959 E18.98616
G1 X148.971 Y65.744 E19.05728
G1 X150.59 Y66.756 E19.14618
G1 X150.913 Y66.964 E19.16407
G1 X151.22 Y67.169 E19.18126
G1 X152.538 Y68.088 E19.25608
G1 X154.053 Y69.19 E19.34331
G1 X154.36 Y69.42 E19.36117
G1 X154.646 Y69.642 E19.37803
G1 X155.904 Y70.656 E19.45327
G1 X157.365 Y71.884 E19.54214
G1 X157.641 Y72.123 E19.55914
G1 X157.901 Y72.356 E19.57539
G1 X159.075 Y73.446 E19.64999
G1 X160.595 Y74.921 E19.74861
G1 X160.944 Y75.276 E19.77179
G1 X162.041 Y76.449 E19.84658
G1 X163.304 Y77.852 E19.93448
G1 X163.562 Y78.148 E19.95276
G1 X163.788 Y78.416 E19.96909
G1 X164.793 Y79.654 E20.04334
G1 X166.096 Y81.327 E20.14208
G1 X166.398 Y81.734 E20.16568
G1 X167.304 Y83.023 E20.23904
G1 X168.346 Y84.569 E20.32586
G1 X168.569 Y84.909 E20.34479
G1 X168.773 Y85.232 E20.36258
G1 X169.607 Y86.616 E20.43782
G1 X170.656 Y88.441 E20.53584
G1 X170.893 Y88.877 E20.55894
G1 X171.613 Y90.282 E20.63246
G1 X172.473 Y92.046 E20.72384
G1 X172.616 Y92.351 E20.73952
G1 X172.764 Y92.679 E20.75628
G1 X173.377 Y94.118 E20.82911
G1 X174.087 Y95.875 E20.91735
G1 X174.236 Y96.259 E20.93653
G1 X174.364 Y96.606 E20.95375
G1 X174.875 Y98.079 E21.02635
G1 X175.468 Y99.907 E21.11584
G1 X175.581 Y100.273 E21.13368
G1 X175.68 Y100.612 E21.15012
G1 X176.096 Y102.15 E21.22431
G1 X176.605 Y104.211 E21.32316
G1 X176.71 Y104.681 E21.34559
G1 X177.027 Y106.292 E21.42204
G1 X177.389 Y108.375 E21.52049
G1 X177.462 Y108.859 E21.54328
G1 X177.661 Y110.446 E21.61775
G1 X177.893 Y112.718 E21.7241
G1 X177.919 Y113.07 E21.74053
G1 X178.006 Y114.643 E21.81389
G1 X178.071 Y116.536 E21.90209
G1 X178.08 Y116.968 E21.92221
G1 X178.081 Y117.328 E21.93897
G1 X178.059 Y118.85 E22.00985
G1 X177.991 Y120.775 E22.09954
G1 X177.971 Y121.178 E22.11833
G1 X177.947 Y121.539 E22.13518
G1 X177.814 Y123.091 E22.20771
G1 X177.612 Y125.018 E22.29793
G1 X177.568 Y125.385 E22.31514
G1 X177.519 Y125.741 E22.33188
G1 X177.279 Y127.279 E22.40436
G1 X176.937 Y129.214 E22.49586
G1 X176.873 Y129.547 E22.51165
G1 X176.801 Y129.894 E22.52815
G1 X176.447 Y131.441 E22.60204
G1 X175.989 Y133.277 E22.69016
G1 X175.889 Y133.657 E22.70845
G1 X175.787 Y134.019 E22.72597
G1 X175.335 Y135.509 E22.79847
G1 X174.741 Y137.337 E22.88797
G1 X174.614 Y137.708 E22.90623
G1 X174.496 Y138.035 E22.92242
G1 X173.922 Y139.538 E22.99733
G1 X173.127 Y141.492 E23.09556
G1 X172.933 Y141.94 E23.11829
G1 X172.253 Y143.407 E23.19358
G1 X171.259 Y145.433 E23.29867
G1 X171.085 Y145.764 E23.31608
G1 X170.315 Y147.158 E23.39023
G1 X169.38 Y148.777 E23.47729
G1 X169.172 Y149.127 E23.49625
G1 X168.97 Y149.455 E23.51418
G1 X168.128 Y150.755 E23.58631
G1 X166.931 Y152.523 E23.68573
G1 X166.642 Y152.929 E23.70893
G1 X165.668 Y154.228 E23.78453
G1 X164.28 Y155.995 E23.88916
G1 X164.038 Y156.286 E23.90678
G1 X163 Y157.486 E23.98066
G1 X161.477 Y159.168 E24.08632
G1 X161.237 Y159.419 E24.10249
G1 X160.053 Y160.608 E24.18063
G1 X158.539 Y162.064 E24.27843
G1 X158.168 Y162.404 E24.30187
G1 X156.962 Y163.455 E24.37636
G1 X155.337 Y164.813 E24.47497
G1 X154.946 Y165.125 E24.49826
G1 X153.678 Y166.083 E24.57226
G1 X152.131 Y167.206 E24.66127
G1 X151.834 Y167.415 E24.67818
G1 X151.536 Y167.617 E24.69495
G1 X150.165 Y168.51 E24.77113
G1 X148.36 Y169.632 E24.8701
G1 X147.927 Y169.887 E24.8935
G1 X146.583 Y170.635 E24.96512
G1 X144.56 Y171.704 E25.07166
G1 X144.213 Y171.875 E25.08967
G1 X142.782 Y172.545 E25.16325
G1 X141.02 Y173.328 E25.25303
G1 X140.68 Y173.473 E25.27024
G1 X140.362 Y173.603 E25.28624
G1 X138.892 Y174.172 E25.35964
G1 X136.746 Y174.945 E25.46585
G1 X136.401 Y175.058 E25.48275
G1 X134.863 Y175.531 E25.55768
G1 X133.056 Y176.049 E25.64521
G1 X132.667 Y176.154 E25.66397
G1 X132.329 Y176.239 E25.6802
G1 X130.777 Y176.601 E25.75441
G1 X128.682 Y177.041 E25.85409
G1 X128.196 Y177.131 E25.8771
G1 X126.655 Y177.378 E25.94977
G1 X124.764 Y177.642 E26.03868
G1 X124.374 Y177.691 E26.05698
G1 X124.015 Y177.73 E26.0738
G1 X122.413 Y177.874 E26.1487
G1 X120.568 Y178.002 E26.23481
G1 X120.157 Y178.025 E26.25398
G1 X119.784 Y178.04 E26.27136
G1 X118.187 Y178.07 E26.34574
G1 X116.068 Y178.065 E26.44441
G1 X115.573 Y178.052 E26.46747
G1 X113.966 Y177.971 E26.54239
G1 X112.053 Y177.836 E26.63169
G1 X111.69 Y177.805 E26.64865
G1 X111.337 Y177.768 E26.66518
G1 X109.805 Y177.583 E26.73703
G1 X107.517 Y177.255 E26.84466
G1 X107.138 Y177.19 E26.86257
G1 X105.634 Y176.9 E26.93389
G1 X103.715 Y176.492 E27.02524
G1 X103.37 Y176.413 E27.04173
G1 X103.023 Y176.327 E27.05837
G1 X101.483 Y175.917 E27.13258
G1 X99.683 Y175.401 E27.21977
G1 X99.303 Y175.286 E27.23826
G1 X98.952 Y175.173 E27.25543
G1 X97.433 Y174.652 E27.3302
G1 X95.708 Y174.024 E27.41568
G1 X95.315 Y173.875 E27.43525
G1 X94.962 Y173.733 E27.45297
G1 X93.48 Y173.107 E27.52788
G1 X91.561 Y172.248 E27.62578
G1 X91.112 Y172.034 E27.64894
G1 X89.679 Y171.307 E27.72377
