;FLAVOR:Marlin
;TIME:1303
;Filament used: 1.04463m
;Layer height: 0.28
;MINX:86.501
;MINY:101.371
;MINZ:0.28
;MAXX:148.499
;MAXY:133.629
;MAXZ:9.52
;Generated with Cura_SteamEngine master
M140 S50
M105
M190 S50
M104 S210
M105
M109 S210
M82 ;absolute extrusion mode
; Ender 3 Custom Start G-code
G92 E0 ; Reset Extruder
G28 ; Home all axes
G1 Z2.0 F3000 ; Move Z Axis up little to prevent scratching of Heat Bed
G1 X0.1 Y20 Z0.3 F5000.0 ; Move to start position
G1 X0.1 Y200.0 Z0.3 F1500.0 E15 ; Draw the first line
G1 X0.4 Y200.0 Z0.3 F5000.0 ; Move to side a little
G1 X0.4 Y20 Z0.3 F1500.0 E30 ; Draw the second line
G92 E0 ; Reset Extruder
G1 Z2.0 F3000 ; Move Z Axis up little to prevent scratching of Heat Bed
G1 X5 Y20 Z0.3 F5000.0 ; Move over to prevent blob squish
G92 E0
G92 E0
G1 F2700 E-5
;LAYER_COUNT:34
;LAYER:0
M107
G0 F6000 X137.638 Y102.181 Z0.28
;TYPE:SKIRT
G1 F2700 E0
G1 F1200 X138.539 Y102.234 E0.04203
G1 X139.433 Y102.366 E0.08411
G1 X140.311 Y102.577 E0.12615
G1 X141.167 Y102.865 E0.16821
G1 X141.994 Y103.227 E0.21024
G1 X142.786 Y103.661 E0.2523
G1 X143.536 Y104.164 E0.29435
G1 X144.239 Y104.731 E0.3364
G1 X144.89 Y105.357 E0.37846
G1 X145.482 Y106.039 E0.42051
G1 X146.011 Y106.771 E0.46256
G1 X146.474 Y107.546 E0.5046
G1 X146.866 Y108.36 E0.54667
G1 X147.185 Y109.205 E0.58873
G1 X147.428 Y110.075 E0.63079
G1 X147.593 Y110.963 E0.67284
G1 X147.689 Y112.137 E0.72769
G1 X147.699 Y112.673 E0.75266
G1 X147.699 Y122.019 E1.18784
G1 X147.69 Y122.746 E1.2217
G1 X147.639 Y123.648 E1.26377
G1 X147.508 Y124.542 E1.30584
G1 X147.299 Y125.42 E1.34787
G1 X147.013 Y126.277 E1.38994
G1 X146.652 Y127.105 E1.432
G1 X146.22 Y127.897 E1.474
G1 X145.719 Y128.649 E1.51608
G1 X145.153 Y129.353 E1.55814
G1 X144.528 Y130.004 E1.60016
G1 X143.847 Y130.598 E1.64224
G1 X143.116 Y131.129 E1.68431
G1 X142.342 Y131.593 E1.72633
G1 X141.529 Y131.987 E1.7684
G1 X140.685 Y132.307 E1.81043
G1 X139.815 Y132.552 E1.85252
G1 X138.928 Y132.718 E1.89454
G1 X137.777 Y132.816 E1.94833
G1 X137.17 Y132.829 E1.9766
G1 X98.058 Y132.829 E3.79782
G1 X97.377 Y132.819 E3.82953
G1 X96.476 Y132.766 E3.87156
G1 X95.582 Y132.633 E3.91364
G1 X94.704 Y132.422 E3.95569
G1 X93.848 Y132.134 E3.99775
G1 X93.021 Y131.771 E4.0398
G1 X92.23 Y131.336 E4.08183
G1 X91.479 Y130.834 E4.1239
G1 X90.777 Y130.267 E4.16592
G1 X90.127 Y129.64 E4.20797
G1 X89.535 Y128.957 E4.25006
G1 X89.005 Y128.226 E4.2921
G1 X88.543 Y127.45 E4.33415
G1 X88.151 Y126.636 E4.37622
G1 X87.833 Y125.791 E4.41826
G1 X87.59 Y124.921 E4.46032
G1 X87.425 Y124.033 E4.50238
G1 X87.362 Y123.462 E4.52913
G1 X87.336 Y123.148 E4.5438
G1 X87.301 Y122.307 E4.583
G1 X87.301 Y112.921 E5.02005
G1 X87.31 Y112.244 E5.05157
G1 X87.362 Y111.343 E5.0936
G1 X87.493 Y110.449 E5.13567
G1 X87.703 Y109.571 E5.17771
G1 X87.99 Y108.715 E5.21975
G1 X88.352 Y107.887 E5.26183
G1 X88.785 Y107.095 E5.30386
G1 X89.287 Y106.344 E5.34592
G1 X89.853 Y105.64 E5.38798
G1 X90.479 Y104.989 E5.43004
G1 X91.16 Y104.397 E5.47205
G1 X91.891 Y103.866 E5.51412
G1 X92.667 Y103.403 E5.5562
G1 X93.48 Y103.01 E5.59825
G1 X94.324 Y102.69 E5.64028
G1 X95.194 Y102.446 E5.68235
G1 X96.082 Y102.28 E5.72442
G1 X97.207 Y102.184 E5.77699
G1 X97.813 Y102.171 E5.80522
G1 X136.938 Y102.171 E7.62704
G1 X137.638 Y102.181 E7.65964
G0 F6000 X137.643 Y101.781
G1 F1200 X138.563 Y101.834 E7.70255
G1 X139.474 Y101.967 E7.74542
G1 X140.37 Y102.178 E7.78828
G1 X141.244 Y102.466 E7.83113
G1 X142.09 Y102.829 E7.874
G1 X142.902 Y103.264 E7.91689
G1 X143.672 Y103.768 E7.95974
G1 X144.396 Y104.337 E8.00262
G1 X145.068 Y104.966 E8.04548
G1 X145.683 Y105.652 E8.08838
G1 X146.236 Y106.388 E8.13125
G1 X146.723 Y107.169 E8.17411
G1 X147.14 Y107.99 E8.21698
G1 X147.485 Y108.843 E8.25983
G1 X147.754 Y109.724 E8.30272
G1 X147.946 Y110.624 E8.34557
G1 X148.058 Y111.538 E8.38845
G1 X148.089 Y112.128 E8.41596
G1 X148.099 Y112.673 E8.44134
G1 X148.099 Y122.024 E8.87677
G1 X148.09 Y122.751 E8.91062
G1 X148.039 Y123.67 E8.95348
G1 X147.908 Y124.582 E8.99638
G1 X147.698 Y125.478 E9.03923
G1 X147.412 Y126.353 E9.0821
G1 X147.051 Y127.2 E9.12497
G1 X146.617 Y128.012 E9.16784
G1 X146.115 Y128.784 E9.21072
G1 X145.547 Y129.509 E9.25361
G1 X144.919 Y130.182 E9.29647
G1 X144.235 Y130.798 E9.33933
G1 X143.5 Y131.352 E9.38219
G1 X142.72 Y131.841 E9.42506
G1 X141.9 Y132.26 E9.46794
G1 X141.047 Y132.606 E9.5108
G1 X140.167 Y132.877 E9.55367
G1 X139.267 Y133.07 E9.59653
G1 X138.353 Y133.185 E9.63943
G1 X137.788 Y133.216 E9.66578
G1 X137.17 Y133.229 E9.69456
G1 X98.052 Y133.229 E11.51606
G1 X97.371 Y133.219 E11.54777
G1 X96.452 Y133.165 E11.59064
G1 X95.541 Y133.032 E11.63351
G1 X94.645 Y132.821 E11.67637
G1 X93.771 Y132.532 E11.71924
G1 X92.925 Y132.169 E11.7621
G1 X92.114 Y131.734 E11.80495
G1 X91.343 Y131.23 E11.84785
G1 X90.62 Y130.66 E11.89072
G1 X89.948 Y130.031 E11.93358
G1 X89.334 Y129.345 E11.97645
G1 X88.781 Y128.609 E12.01931
G1 X88.294 Y127.827 E12.06221
G1 X87.877 Y127.007 E12.10505
G1 X87.533 Y126.153 E12.14792
G1 X87.264 Y125.272 E12.19081
G1 X87.073 Y124.372 E12.23365
G1 X86.963 Y123.495 E12.27481
G1 X86.937 Y123.181 E12.28948
G1 X86.901 Y122.307 E12.33021
G1 X86.901 Y112.916 E12.76749
G1 X86.91 Y112.239 E12.79902
G1 X86.962 Y111.32 E12.84188
G1 X87.094 Y110.409 E12.88474
G1 X87.304 Y109.512 E12.92764
G1 X87.592 Y108.638 E12.97049
G1 X87.954 Y107.791 E13.01338
G1 X88.388 Y106.98 E13.05621
G1 X88.891 Y106.208 E13.09912
G1 X89.459 Y105.484 E13.14197
G1 X90.088 Y104.811 E13.18486
G1 X90.772 Y104.196 E13.22769
G1 X91.508 Y103.642 E13.27059
G1 X92.289 Y103.155 E13.31344
G1 X93.109 Y102.736 E13.35632
G1 X93.962 Y102.391 E13.39917
G1 X94.843 Y102.121 E13.44207
G1 X95.743 Y101.928 E13.48494
G1 X96.656 Y101.814 E13.52778
G1 X97.195 Y101.785 E13.55291
G1 X97.813 Y101.771 E13.5817
G1 X136.943 Y101.771 E15.40375
G1 X137.643 Y101.781 E15.43635
G0 F6000 X137.649 Y101.381
G1 F1200 X138.585 Y101.434 E15.48001
G1 X139.514 Y101.567 E15.5237
G1 X140.428 Y101.779 E15.56739
G1 X141.32 Y102.068 E15.61106
G1 X142.184 Y102.431 E15.65469
G1 X143.015 Y102.867 E15.69839
G1 X143.805 Y103.372 E15.74205
G1 X144.55 Y103.943 E15.78576
G1 X145.243 Y104.574 E15.8294
G1 X145.879 Y105.263 E15.87306
G1 X146.455 Y106.003 E15.91673
G1 X146.966 Y106.79 E15.96042
G1 X147.407 Y107.617 E16.00406
G1 X147.777 Y108.479 E16.04774
G1 X148.072 Y109.37 E16.09144
G1 X148.29 Y110.282 E16.13511
G1 X148.43 Y111.209 E16.17876
G1 X148.489 Y112.118 E16.22118
G1 X148.499 Y112.673 E16.24703
G1 X148.499 Y122.029 E16.68268
G1 X148.49 Y122.756 E16.71653
G1 X148.439 Y123.693 E16.76023
G1 X148.307 Y124.621 E16.80388
G1 X148.098 Y125.535 E16.84753
G1 X147.811 Y126.428 E16.89121
G1 X147.449 Y127.294 E16.93492
G1 X147.015 Y128.125 E16.97857
G1 X146.511 Y128.916 E17.02224
G1 X145.942 Y129.661 E17.0659
G1 X145.311 Y130.356 E17.10961
G1 X144.624 Y130.994 E17.15326
G1 X143.885 Y131.571 E17.19692
G1 X143.099 Y132.083 E17.2406
G1 X142.273 Y132.526 E17.28424
G1 X141.411 Y132.898 E17.32796
G1 X140.522 Y133.194 E17.37159
G1 X139.61 Y133.414 E17.41528
G1 X138.683 Y133.555 E17.45894
G1 X137.799 Y133.616 E17.5002
G1 X137.17 Y133.629 E17.52949
G1 X98.046 Y133.629 E19.35127
G1 X97.365 Y133.619 E19.38298
G1 X96.429 Y133.565 E19.42664
G1 X95.501 Y133.432 E19.47029
G1 X94.587 Y133.22 E19.51398
G1 X93.695 Y132.931 E19.55764
G1 X92.831 Y132.567 E19.6013
G1 X92 Y132.131 E19.645
G1 X91.21 Y131.625 E19.68868
G1 X90.466 Y131.055 E19.73232
G1 X89.773 Y130.423 E19.776
G1 X89.137 Y129.734 E19.81966
G1 X88.561 Y128.993 E19.86336
G1 X88.051 Y128.206 E19.90703
G1 X87.61 Y127.379 E19.95067
G1 X87.24 Y126.517 E19.99435
G1 X86.946 Y125.626 E20.03804
G1 X86.728 Y124.714 E20.0817
G1 X86.565 Y123.528 E20.13745
G1 X86.539 Y123.214 E20.15212
G1 X86.501 Y122.307 E20.19439
G1 X86.501 Y112.911 E20.6319
G1 X86.51 Y112.234 E20.66343
G1 X86.562 Y111.297 E20.70713
G1 X86.694 Y110.369 E20.75078
G1 X86.905 Y109.455 E20.79445
G1 X87.193 Y108.562 E20.83815
G1 X87.555 Y107.697 E20.88181
G1 X87.991 Y106.867 E20.92546
G1 X88.495 Y106.076 E20.96914
G1 X89.065 Y105.331 E21.01282
G1 X89.696 Y104.637 E21.05649
G1 X90.384 Y104 E21.10015
G1 X91.123 Y103.423 E21.14381
G1 X91.91 Y102.912 E21.1875
G1 X92.737 Y102.469 E21.23119
G1 X93.598 Y102.099 E21.27483
G1 X94.488 Y101.803 E21.3185
G1 X95.4 Y101.584 E21.36217
G1 X96.327 Y101.444 E21.40583
G1 X97.183 Y101.385 E21.44578
G1 X97.813 Y101.371 E21.47512
G1 X136.949 Y101.371 E23.29746
G1 X137.649 Y101.381 E23.33006
G1 F2700 E18.33006
;MESH:aluminimMount.stl
G0 F6000 X137.185 Y111.706
G0 X137.186 Y112.684
G0 X136.718 Y121.847
G0 X117.255 Y122.028
;TYPE:WALL-INNER
G1 F2700 E23.33006
G1 F1200 X116.798 Y122.028 E23.35134
G1 X116.55 Y122.028 E23.36289
G1 X116.178 Y122.028 E23.38021
G1 X115.935 Y122.028 E23.39152
G1 X115.66 Y122.028 E23.40433
G1 X115.632 Y122.028 E23.40563
G1 X98.299 Y122.03 E24.21273
G1 X98.1 Y122.03 E24.222
G1 X98.1 Y121.831 E24.22799
G1 X98.1 Y112.971 E24.64055
G1 X136.701 Y112.97 E26.43797
G1 X136.9 Y112.97 E26.44724
G1 X136.9 Y113.169 E26.45324
G1 X136.9 Y122.029 E26.86579
G1 X119.302 Y122.029 E27.68523
G1 X119.163 Y122.029 E27.6917
G1 X118.917 Y122.029 E27.70316
G1 X118.653 Y122.029 E27.71545
G1 X118.409 Y122.029 E27.72681
G1 X118.166 Y122.029 E27.73813
G1 X117.974 Y122.029 E27.74707
G1 X117.738 Y122.028 E27.75806
G1 X117.974 Y122.008 E27.75835
G1 X118.166 Y121.984 E27.75914
G1 X118.409 Y121.94 E27.76116
G1 X118.653 Y121.884 E27.76473
G1 X118.917 Y121.807 E27.77083
G1 X119.163 Y121.699 E27.77972
G1 X119.286 Y121.635 E27.78564
G1 X119.378 Y121.586 E27.79049
G1 X119.579 Y121.467 E27.80137
G1 X119.775 Y121.338 E27.81229
G1 X119.963 Y121.198 E27.82321
G1 X120.14 Y121.051 E27.83392
G1 X120.311 Y120.895 E27.8447
G1 X120.474 Y120.728 E27.85557
G1 X120.624 Y120.557 E27.86616
G1 X120.767 Y120.377 E27.87686
G1 X120.9 Y120.188 E27.88762
G1 X121.054 Y119.943 E27.9011
G1 X121.302 Y119.453 E27.92667
G1 X121.312 Y119.267 E27.93534
G1 X121.338 Y119.194 E27.93895
G1 X121.339 Y119.038 E27.94622
G1 X121.363 Y118.955 E27.95024
G1 X121.355 Y118.809 E27.95705
G1 X121.374 Y118.724 E27.9611
G1 X121.361 Y118.595 E27.96714
G1 X121.379 Y118.497 E27.97178
G1 X121.36 Y118.38 E27.9773
G1 X121.374 Y118.278 E27.98209
G1 X121.349 Y118.168 E27.98735
G1 X121.358 Y118.057 E27.99253
G1 X121.333 Y117.965 E27.99697
G1 X121.345 Y117.866 E28.00161
G1 X121.312 Y117.769 E28.00639
G1 X121.318 Y117.704 E28.00943
G1 X121.323 Y117.5 E28.01893
G1 X121.318 Y117.299 E28.02829
G1 X121.302 Y117.101 E28.03754
G1 X121.276 Y116.903 E28.04684
G1 X121.239 Y116.704 E28.05626
G1 X121.192 Y116.51 E28.06556
G1 X121.133 Y116.309 E28.07531
G1 X120.968 Y115.89 E28.09628
G1 X120.778 Y115.533 E28.11511
G1 X120.557 Y115.207 E28.13345
G1 X120.423 Y115.036 E28.14357
G1 X120.151 Y114.745 E28.16212
G1 X119.847 Y114.483 E28.1808
G1 X119.579 Y114.292 E28.19613
G1 X119.236 Y114.094 E28.21457
G1 X118.871 Y113.93 E28.2332
G1 X118.496 Y113.809 E28.25155
G1 X118.295 Y113.761 E28.26117
G1 X118.09 Y113.723 E28.27088
G1 X117.705 Y113.682 E28.28891
G1 X117.414 Y113.678 E28.30246
G1 X117.026 Y113.707 E28.32058
G1 X116.818 Y113.738 E28.33037
G1 X116.456 Y113.823 E28.34768
G1 X116.318 Y113.865 E28.3544
G1 X116.13 Y113.93 E28.36366
G1 X115.944 Y114.008 E28.37306
G1 X115.782 Y114.085 E28.38141
G1 X115.458 Y114.231 E28.39796
G1 X115.276 Y114.331 E28.40762
G1 X115.1 Y114.436 E28.41717
G1 X114.923 Y114.561 E28.42726
G1 X114.608 Y114.817 E28.44616
G1 X114.566 Y114.861 E28.44899
G1 X114.453 Y114.966 E28.45617
G1 X114.407 Y115.019 E28.45944
G1 X114.321 Y115.105 E28.4651
G1 X114.173 Y115.28 E28.47578
G1 X114.133 Y115.338 E28.47906
G1 X114.056 Y115.434 E28.48479
G1 X113.927 Y115.624 E28.49548
G1 X113.886 Y115.697 E28.49938
G1 X113.825 Y115.791 E28.5046
G1 X113.713 Y116.005 E28.51585
G1 X113.631 Y116.179 E28.5248
G1 X113.549 Y116.377 E28.53478
G1 X113.477 Y116.586 E28.54507
G1 X113.417 Y116.795 E28.5552
G1 X113.369 Y117.007 E28.56532
G1 X113.33 Y117.221 E28.57545
G1 X113.303 Y117.443 E28.58586
G1 X113.288 Y117.667 E28.59632
G1 X113.285 Y117.886 E28.60652
G1 X113.292 Y118.109 E28.6169
G1 X113.313 Y118.334 E28.62743
G1 X113.345 Y118.559 E28.63801
G1 X113.399 Y118.825 E28.65065
G1 X113.458 Y119.047 E28.66134
G1 X113.53 Y119.264 E28.67199
G1 X113.611 Y119.474 E28.68247
G1 X113.702 Y119.686 E28.69321
G1 X113.807 Y119.889 E28.70386
G1 X113.92 Y120.087 E28.71447
G1 X114.045 Y120.279 E28.72514
G1 X114.148 Y120.423 E28.73338
G1 X114.294 Y120.609 E28.74439
G1 X114.452 Y120.788 E28.75551
G1 X114.621 Y120.962 E28.76681
G1 X114.799 Y121.125 E28.77804
G1 X114.917 Y121.223 E28.78519
G1 X115.03 Y121.3 E28.79155
G1 X115.233 Y121.425 E28.80265
G1 X115.441 Y121.539 E28.8137
G1 X115.634 Y121.631 E28.82365
G1 X115.659 Y121.642 E28.82491
G1 X115.935 Y121.753 E28.83705
G1 X116.178 Y121.835 E28.84425
G1 X116.55 Y121.933 E28.85098
G1 X116.798 Y121.979 E28.85321
G1 X117.255 Y122.028 E28.85459
G0 F6000 X117.281 Y121.628
;TYPE:WALL-OUTER
G1 F1200 X117.5 Y121.633 E28.86479
G1 X117.717 Y121.628 E28.8749
G1 X117.932 Y121.61 E28.88495
G1 X118.106 Y121.588 E28.89311
G1 X118.329 Y121.548 E28.90366
G1 X118.552 Y121.497 E28.91431
G1 X118.78 Y121.43 E28.92538
G1 X118.99 Y121.338 E28.93606
G1 X119.183 Y121.237 E28.9462
G1 X119.366 Y121.128 E28.95612
G1 X119.545 Y121.01 E28.9661
G1 X119.716 Y120.883 E28.97602
G1 X119.877 Y120.749 E28.98577
G1 X120.033 Y120.607 E28.99559
G1 X120.18 Y120.456 E29.00541
G1 X120.317 Y120.3 E29.01507
G1 X120.447 Y120.137 E29.02478
G1 X120.567 Y119.967 E29.03447
G1 X120.705 Y119.746 E29.0466
G1 X120.907 Y119.347 E29.06743
G1 X120.916 Y119.186 E29.07494
G1 X120.938 Y119.124 E29.078
G1 X120.939 Y118.98 E29.08471
G1 X120.96 Y118.908 E29.0882
G1 X120.953 Y118.775 E29.0944
G1 X120.97 Y118.699 E29.09803
G1 X120.958 Y118.578 E29.10369
G1 X120.973 Y118.494 E29.10766
G1 X120.955 Y118.385 E29.11281
G1 X120.968 Y118.294 E29.11709
G1 X120.946 Y118.195 E29.12181
G1 X120.954 Y118.095 E29.12648
G1 X120.927 Y117.996 E29.13126
G1 X120.937 Y117.91 E29.13529
G1 X120.906 Y117.819 E29.13977
G1 X120.918 Y117.681 E29.14622
G1 X120.923 Y117.5 E29.15465
G1 X120.918 Y117.32 E29.16303
G1 X120.904 Y117.142 E29.17135
G1 X120.881 Y116.965 E29.17966
G1 X120.848 Y116.788 E29.18804
G1 X120.806 Y116.614 E29.19638
G1 X120.754 Y116.439 E29.20488
G1 X120.604 Y116.058 E29.22394
G1 X120.435 Y115.74 E29.24071
G1 X120.234 Y115.443 E29.25741
G1 X120.119 Y115.297 E29.26607
G1 X119.873 Y115.034 E29.28283
G1 X119.6 Y114.798 E29.29964
G1 X119.363 Y114.629 E29.31319
G1 X119.054 Y114.451 E29.3298
G1 X118.727 Y114.304 E29.34649
G1 X118.388 Y114.194 E29.36309
G1 X118.212 Y114.152 E29.37151
G1 X118.033 Y114.119 E29.37999
G1 X117.681 Y114.082 E29.39647
G1 X117.426 Y114.078 E29.40834
G1 X117.07 Y114.105 E29.42497
G1 X116.893 Y114.131 E29.4333
G1 X116.56 Y114.209 E29.44922
G1 X116.442 Y114.245 E29.45497
G1 X116.273 Y114.304 E29.4633
G1 X116.107 Y114.373 E29.47167
G1 X115.955 Y114.446 E29.47953
G1 X115.637 Y114.589 E29.49576
G1 X115.475 Y114.678 E29.50437
G1 X115.318 Y114.772 E29.51289
G1 X115.164 Y114.88 E29.52165
G1 X114.878 Y115.113 E29.53882
G1 X114.838 Y115.154 E29.54149
G1 X114.741 Y115.244 E29.54765
G1 X114.696 Y115.296 E29.55086
G1 X114.615 Y115.376 E29.55616
G1 X114.49 Y115.525 E29.56521
G1 X114.451 Y115.58 E29.56835
G1 X114.378 Y115.671 E29.57378
G1 X114.268 Y115.834 E29.58294
G1 X114.231 Y115.9 E29.58646
G1 X114.171 Y115.993 E29.59162
G1 X114.071 Y116.183 E29.60162
G1 X113.997 Y116.341 E29.60974
G1 X113.923 Y116.519 E29.61872
G1 X113.859 Y116.706 E29.62792
G1 X113.805 Y116.895 E29.63707
G1 X113.761 Y117.087 E29.64624
G1 X113.726 Y117.281 E29.65542
G1 X113.701 Y117.481 E29.66481
G1 X113.688 Y117.683 E29.67423
G1 X113.685 Y117.883 E29.68355
G1 X113.691 Y118.084 E29.69291
G1 X113.71 Y118.287 E29.70241
G1 X113.739 Y118.49 E29.71195
G1 X113.789 Y118.733 E29.72351
G1 X113.842 Y118.933 E29.73314
G1 X113.907 Y119.13 E29.7428
G1 X113.981 Y119.323 E29.75242
G1 X114.064 Y119.514 E29.76212
G1 X114.159 Y119.698 E29.77176
G1 X114.262 Y119.879 E29.78146
G1 X114.376 Y120.054 E29.79119
G1 X114.468 Y120.183 E29.79856
G1 X114.602 Y120.353 E29.80864
G1 X114.746 Y120.517 E29.81881
G1 X114.899 Y120.675 E29.82905
G1 X115.062 Y120.823 E29.8393
G1 X115.159 Y120.904 E29.84518
