;FLAVOR:Marlin
;TIME:5079
;Filament used: 2.22544m
;Layer height: 0.16
;MINX:82.501
;MINY:101.315
;MINZ:0.2
;MAXX:148.499
;MAXY:159.685
;MAXZ:9.32
;Generated with Cura_SteamEngine master
M140 S50
M105
M190 S50
M104 S210
M105
M109 S210
M82 ;absolute extrusion mode
; Ender 3 Custom Start G-code
G92 E0 ; Reset Extruder
G28 ; Home all axes
G1 Z2.0 F3000 ; Move Z Axis up little to prevent scratching of Heat Bed
G1 X0.1 Y20 Z0.3 F5000.0 ; Move to start position
G1 X0.1 Y200.0 Z0.3 F1500.0 E15 ; Draw the first line
G1 X0.4 Y200.0 Z0.3 F5000.0 ; Move to side a little
G1 X0.4 Y20 Z0.3 F1500.0 E30 ; Draw the second line
G92 E0 ; Reset Extruder
G1 Z2.0 F3000 ; Move Z Axis up little to prevent scratching of Heat Bed
G1 X5 Y20 Z0.3 F5000.0 ; Move over to prevent blob squish
G92 E0
G92 E0
G1 F2700 E-5
;LAYER_COUNT:79
;LAYER:0
M107
G0 F6000 X137.638 Y102.125 Z0.2
;TYPE:SKIRT
G1 F2700 E0
G1 F1200 X138.539 Y102.178 E0.03002
G1 X139.433 Y102.31 E0.06008
G1 X140.311 Y102.521 E0.09011
G1 X141.167 Y102.809 E0.12015
G1 X141.994 Y103.171 E0.15017
G1 X142.786 Y103.605 E0.18021
G1 X143.536 Y104.108 E0.21025
G1 X144.239 Y104.675 E0.24029
G1 X144.89 Y105.301 E0.27033
G1 X145.482 Y105.983 E0.30036
G1 X146.011 Y106.715 E0.3304
G1 X146.474 Y107.49 E0.36043
G1 X146.866 Y108.304 E0.39048
G1 X147.185 Y109.149 E0.42052
G1 X147.428 Y110.019 E0.45056
G1 X147.593 Y110.907 E0.4806
G1 X147.689 Y112.081 E0.51978
G1 X147.699 Y112.617 E0.53761
G1 X147.699 Y122.124 E0.85382
G1 X147.689 Y122.822 E0.87703
G1 X147.636 Y123.724 E0.90709
G1 X147.504 Y124.617 E0.93711
G1 X147.33 Y125.363 E0.96259
G1 X146.939 Y126.778 E1.01141
G1 X146.289 Y129.251 E1.09646
G1 X145.714 Y131.727 E1.181
G1 X145.216 Y134.192 E1.26465
G1 X144.78 Y136.708 E1.34958
G1 X144.418 Y139.214 E1.43379
G1 X144.13 Y141.707 E1.51726
G1 X143.908 Y144.265 E1.60266
G1 X143.76 Y146.796 E1.68699
G1 X143.713 Y148.341 E1.7384
G1 X143.682 Y149.09 E1.76333
G1 X143.605 Y149.99 E1.79337
G1 X143.448 Y150.879 E1.8234
G1 X143.214 Y151.751 E1.85343
G1 X142.903 Y152.599 E1.88347
G1 X142.518 Y153.416 E1.91351
G1 X142.063 Y154.196 E1.94354
G1 X141.54 Y154.933 E1.9736
G1 X140.955 Y155.62 E2.00361
G1 X140.311 Y156.253 E2.03365
G1 X139.613 Y156.827 E2.0637
G1 X138.867 Y157.336 E2.09374
G1 X138.08 Y157.778 E2.12376
G1 X137.256 Y158.148 E2.1538
G1 X136.403 Y158.444 E2.18383
G1 X135.526 Y158.663 E2.2139
G1 X134.634 Y158.804 E2.24394
G1 X134.03 Y158.854 E2.26409
G1 X133.709 Y158.871 E2.27479
G1 X133.17 Y158.885 E2.29272
G1 X94.058 Y158.885 E3.59359
G1 X93.377 Y158.875 E3.61624
G1 X92.476 Y158.822 E3.64626
G1 X91.582 Y158.689 E3.67632
G1 X90.704 Y158.478 E3.70636
G1 X89.848 Y158.19 E3.7364
G1 X89.021 Y157.827 E3.76643
G1 X88.23 Y157.392 E3.79646
G1 X87.479 Y156.89 E3.8265
G1 X86.777 Y156.323 E3.85652
G1 X86.127 Y155.696 E3.88656
G1 X85.535 Y155.013 E3.91662
G1 X85.005 Y154.282 E3.94665
G1 X84.543 Y153.506 E3.97669
G1 X84.151 Y152.692 E4.00674
G1 X83.833 Y151.847 E4.03677
G1 X83.59 Y150.977 E4.06681
G1 X83.425 Y150.089 E4.09685
G1 X83.362 Y149.518 E4.11596
G1 X83.336 Y149.204 E4.12644
G1 X83.301 Y148.363 E4.15443
G1 X83.301 Y138.876 E4.46997
G1 X83.311 Y138.179 E4.49316
G1 X83.364 Y137.277 E4.52321
G1 X83.496 Y136.384 E4.55323
G1 X83.67 Y135.64 E4.57865
G1 X84.063 Y134.216 E4.62778
G1 X84.711 Y131.749 E4.71261
G1 X85.286 Y129.273 E4.79716
G1 X85.784 Y126.808 E4.8808
G1 X86.22 Y124.292 E4.96573
G1 X86.582 Y121.786 E5.04995
G1 X86.87 Y119.293 E5.13341
G1 X87.092 Y116.735 E5.21881
G1 X87.24 Y114.202 E5.30321
G1 X87.288 Y112.623 E5.35575
G1 X87.32 Y111.883 E5.38038
G1 X87.398 Y110.984 E5.4104
G1 X87.557 Y110.095 E5.44043
G1 X87.793 Y109.223 E5.47048
G1 X88.105 Y108.376 E5.5005
G1 X88.491 Y107.559 E5.53056
G1 X88.948 Y106.78 E5.56059
G1 X89.472 Y106.044 E5.59064
G1 X90.059 Y105.358 E5.62067
G1 X90.704 Y104.726 E5.65071
G1 X91.403 Y104.154 E5.68075
G1 X92.15 Y103.646 E5.7108
G1 X92.938 Y103.206 E5.74081
G1 X93.763 Y102.837 E5.77087
G1 X94.617 Y102.543 E5.80091
G1 X95.493 Y102.325 E5.83094
G1 X96.385 Y102.186 E5.86096
G1 X97.207 Y102.128 E5.88837
G1 X97.813 Y102.115 E5.90853
G1 X136.938 Y102.115 E7.20983
G1 X137.638 Y102.125 E7.23312
G0 F6000 X137.643 Y101.725
G1 F1200 X138.563 Y101.778 E7.26377
G1 X139.474 Y101.911 E7.29439
G1 X140.37 Y102.122 E7.32501
G1 X141.244 Y102.41 E7.35561
G1 X142.09 Y102.773 E7.38623
G1 X142.902 Y103.208 E7.41687
G1 X143.672 Y103.712 E7.44748
G1 X144.396 Y104.281 E7.47811
G1 X145.068 Y104.91 E7.50872
G1 X145.683 Y105.596 E7.53936
G1 X146.236 Y106.332 E7.56998
G1 X146.723 Y107.113 E7.6006
G1 X147.14 Y107.934 E7.63122
G1 X147.485 Y108.787 E7.66183
G1 X147.754 Y109.668 E7.69246
G1 X147.946 Y110.568 E7.72307
G1 X148.058 Y111.482 E7.7537
G1 X148.089 Y112.072 E7.77335
G1 X148.099 Y112.617 E7.79148
G1 X148.099 Y122.13 E8.10788
G1 X148.089 Y122.828 E8.1311
G1 X148.036 Y123.747 E8.16172
G1 X147.903 Y124.658 E8.19234
G1 X147.716 Y125.468 E8.21999
G1 X147.332 Y126.854 E8.26782
G1 X146.68 Y129.338 E8.35324
G1 X146.104 Y131.817 E8.43789
G1 X145.61 Y134.259 E8.52075
G1 X145.177 Y136.761 E8.60521
G1 X144.818 Y139.246 E8.68872
G1 X144.524 Y141.79 E8.77389
G1 X144.307 Y144.286 E8.85723
G1 X144.158 Y146.831 E8.94202
G1 X144.113 Y148.357 E8.99279
G1 X144.082 Y149.106 E9.01773
G1 X144.004 Y150.024 E9.04837
G1 X143.847 Y150.931 E9.07899
G1 X143.611 Y151.821 E9.10961
G1 X143.3 Y152.687 E9.14021
G1 X142.914 Y153.523 E9.17084
G1 X142.457 Y154.322 E9.20146
G1 X141.932 Y155.079 E9.2321
G1 X141.344 Y155.787 E9.26271
G1 X140.697 Y156.442 E9.29333
G1 X139.995 Y157.038 E9.32396
G1 X139.244 Y157.571 E9.35459
G1 X138.45 Y158.036 E9.38519
G1 X137.619 Y158.431 E9.41579
G1 X136.756 Y158.753 E9.44643
G1 X135.868 Y158.998 E9.47707
G1 X134.963 Y159.165 E9.50768
G1 X134.052 Y159.253 E9.53812
G1 X133.731 Y159.27 E9.54881
G1 X133.17 Y159.285 E9.56747
G1 X94.052 Y159.285 E10.86854
G1 X93.371 Y159.275 E10.8912
G1 X92.452 Y159.221 E10.92182
G1 X91.541 Y159.088 E10.95244
G1 X90.645 Y158.877 E10.98305
G1 X89.771 Y158.588 E11.01367
G1 X88.925 Y158.225 E11.04429
G1 X88.114 Y157.79 E11.0749
G1 X87.343 Y157.286 E11.10554
G1 X86.62 Y156.716 E11.13616
G1 X85.948 Y156.087 E11.16677
G1 X85.334 Y155.401 E11.19739
G1 X84.781 Y154.665 E11.22801
G1 X84.294 Y153.883 E11.25865
G1 X83.877 Y153.063 E11.28925
G1 X83.533 Y152.209 E11.31987
G1 X83.264 Y151.328 E11.35051
G1 X83.073 Y150.428 E11.38111
G1 X82.963 Y149.551 E11.41051
G1 X82.937 Y149.237 E11.42099
G1 X82.901 Y148.363 E11.45008
G1 X82.901 Y138.87 E11.76582
G1 X82.911 Y138.173 E11.789
G1 X82.964 Y137.254 E11.81962
G1 X83.097 Y136.343 E11.85024
G1 X83.284 Y135.535 E11.87783
G1 X83.668 Y134.146 E11.92576
G1 X84.322 Y131.654 E12.01145
G1 X84.898 Y129.175 E12.0961
G1 X85.391 Y126.733 E12.17896
G1 X85.823 Y124.239 E12.26314
G1 X86.182 Y121.754 E12.34665
G1 X86.476 Y119.21 E12.43183
G1 X86.693 Y116.714 E12.51516
G1 X86.84 Y114.201 E12.59889
G1 X86.888 Y112.606 E12.65196
G1 X86.92 Y111.866 E12.67659
G1 X87 Y110.949 E12.70721
G1 X87.159 Y110.042 E12.73784
G1 X87.396 Y109.152 E12.76847
G1 X87.709 Y108.287 E12.79907
G1 X88.096 Y107.452 E12.82968
G1 X88.555 Y106.653 E12.86032
G1 X89.08 Y105.897 E12.89094
G1 X89.67 Y105.19 E12.92156
G1 X90.318 Y104.537 E12.95216
G1 X91.021 Y103.942 E12.98279
G1 X91.773 Y103.411 E13.01341
G1 X92.568 Y102.946 E13.04405
G1 X93.4 Y102.553 E13.07465
G1 X94.264 Y102.233 E13.10529
G1 X95.152 Y101.99 E13.13592
G1 X96.057 Y101.824 E13.16652
G1 X97.195 Y101.729 E13.2045
G1 X97.813 Y101.715 E13.22506
G1 X136.943 Y101.715 E14.52653
G1 X137.643 Y101.725 E14.54981
G0 F6000 X137.649 Y101.325
G1 F1200 X138.585 Y101.378 E14.58099
G1 X139.514 Y101.511 E14.61221
G1 X140.428 Y101.723 E14.64341
G1 X141.32 Y102.012 E14.6746
G1 X142.184 Y102.375 E14.70577
G1 X143.015 Y102.811 E14.73698
G1 X143.805 Y103.316 E14.76817
G1 X144.55 Y103.887 E14.79939
G1 X145.243 Y104.518 E14.83056
G1 X145.879 Y105.207 E14.86175
G1 X146.455 Y105.947 E14.89294
G1 X146.966 Y106.734 E14.92415
G1 X147.407 Y107.561 E14.95532
G1 X147.777 Y108.423 E14.98652
G1 X148.072 Y109.314 E15.01774
G1 X148.29 Y110.226 E15.04892
G1 X148.43 Y111.153 E15.08011
G1 X148.489 Y112.062 E15.1104
G1 X148.499 Y112.617 E15.12887
G1 X148.499 Y122.136 E15.44547
G1 X148.489 Y122.834 E15.46869
G1 X148.435 Y123.77 E15.49987
G1 X148.303 Y124.698 E15.53105
G1 X148.101 Y125.574 E15.56095
G1 X147.708 Y126.995 E15.60998
G1 X147.079 Y129.392 E15.69241
G1 X146.49 Y131.923 E15.77884
G1 X146 Y134.35 E15.86119
G1 X145.573 Y136.815 E15.9444
G1 X145.213 Y139.312 E16.02831
G1 X144.925 Y141.799 E16.11158
G1 X144.703 Y144.346 E16.19661
G1 X144.558 Y146.831 E16.2794
G1 X144.513 Y148.374 E16.33075
G1 X144.482 Y149.123 E16.35568
G1 X144.403 Y150.057 E16.38685
G1 X144.245 Y150.982 E16.41807
G1 X144.009 Y151.89 E16.44927
G1 X143.696 Y152.774 E16.48046
G1 X143.309 Y153.628 E16.51164
G1 X142.851 Y154.446 E16.54283
G1 X142.325 Y155.223 E16.57403
G1 X141.734 Y155.951 E16.60522
G1 X141.084 Y156.627 E16.63641
G1 X140.378 Y157.245 E16.66762
G1 X139.623 Y157.801 E16.69881
G1 X138.822 Y158.29 E16.73002
G1 X137.983 Y158.709 E16.76121
G1 X137.112 Y159.055 E16.79238
G1 X136.214 Y159.326 E16.82358
G1 X135.296 Y159.519 E16.85478
G1 X134.073 Y159.653 E16.8957
G1 X133.752 Y159.67 E16.90639
G1 X133.17 Y159.685 E16.92576
G1 X94.046 Y159.685 E18.22703
G1 X93.365 Y159.675 E18.24968
G1 X92.429 Y159.621 E18.28086
G1 X91.501 Y159.488 E18.31204
G1 X90.587 Y159.276 E18.34325
G1 X89.695 Y158.987 E18.37444
G1 X88.831 Y158.623 E18.40562
G1 X88 Y158.187 E18.43683
G1 X87.21 Y157.681 E18.46803
G1 X86.466 Y157.111 E18.49921
G1 X85.773 Y156.479 E18.5304
G1 X85.137 Y155.79 E18.56159
G1 X84.561 Y155.049 E18.59281
G1 X84.051 Y154.262 E18.624
G1 X83.61 Y153.435 E18.65517
G1 X83.24 Y152.573 E18.68637
G1 X82.946 Y151.682 E18.71758
G1 X82.728 Y150.77 E18.74876
G1 X82.565 Y149.584 E18.78858
G1 X82.539 Y149.27 E18.79906
G1 X82.501 Y148.363 E18.82925
G1 X82.501 Y138.864 E19.14519
G1 X82.511 Y138.167 E19.16838
G1 X82.565 Y137.231 E19.19956
G1 X82.698 Y136.302 E19.23077
G1 X82.898 Y135.43 E19.26053
G1 X83.292 Y134.005 E19.3097
G1 X83.921 Y131.608 E19.39213
G1 X84.51 Y129.077 E19.47856
G1 X85 Y126.65 E19.56091
G1 X85.427 Y124.185 E19.64412
G1 X85.787 Y121.688 E19.72802
G1 X86.075 Y119.201 E19.8113
G1 X86.297 Y116.654 E19.89633
G1 X86.442 Y114.168 E19.97916
G1 X86.488 Y112.589 E20.0317
G1 X86.52 Y111.849 E20.05633
G1 X86.601 Y110.914 E20.08755
G1 X86.76 Y109.99 E20.11873
G1 X86.998 Y109.083 E20.14992
G1 X87.313 Y108.199 E20.18113
G1 X87.701 Y107.346 E20.2123
G1 X88.161 Y106.528 E20.24351
G1 X88.688 Y105.753 E20.27468
G1 X89.28 Y105.025 E20.30589
G1 X89.932 Y104.351 E20.33708
G1 X90.639 Y103.734 E20.36829
G1 X91.395 Y103.18 E20.39947
G1 X92.196 Y102.693 E20.43065
G1 X93.036 Y102.275 E20.46185
G1 X93.908 Y101.93 E20.49304
G1 X94.807 Y101.661 E20.52425
G1 X95.725 Y101.47 E20.55544
G1 X96.656 Y101.357 E20.58663
G1 X97.183 Y101.329 E20.60418
G1 X97.813 Y101.315 E20.62514
G1 X136.949 Y101.315 E21.92681
G1 X137.649 Y101.325 E21.9501
G1 F2700 E16.9501
;MESH:aluminimMount.stl
G0 F6000 X137.085 Y111.65
G0 X137.086 Y112.728
G0 X119.412 Y113.515
G0 X121.895 Y117.497
G0 X121.468 Y120.188
G0 X118.927 Y121.486
G0 X117.61 Y122.032
;TYPE:WALL-INNER
G1 F2700 E21.9501
G1 F1200 X117.793 Y122.012 E21.95622
G1 X118.024 Y121.969 E21.96403
G1 X118.249 Y121.921 E21.97169
G1 X118.481 Y121.856 E21.9797
G1 X118.7 Y121.782 E21.98739
G1 X118.915 Y121.697 E21.99508
G1 X118.937 Y121.687 E21.99588
G1 X119.126 Y121.6 E22.0028
G1 X119.332 Y121.493 E22.01052
G1 X119.529 Y121.375 E22.01816
G1 X119.72 Y121.25 E22.02575
G1 X119.905 Y121.111 E22.03345
G1 X120.12 Y120.93 E22.0428
G1 X120.295 Y120.765 E22.0508
G1 X120.592 Y120.433 E22.06561
G1 X120.741 Y120.237 E22.0738
G1 X120.98 Y119.861 E22.08862
G1 X121.221 Y119.378 E22.10657
G1 X121.229 Y119.223 E22.11174
G1 X121.262 Y119.123 E22.11524
G1 X121.262 Y119.006 E22.11913
G1 X121.293 Y118.9 E22.1228
G1 X121.291 Y118.851 E22.12443
G1 X121.287 Y118.792 E22.1264
G1 X121.314 Y118.675 E22.13039
G1 X121.303 Y118.574 E22.13377
G1 X121.324 Y118.457 E22.13773
G1 X121.31 Y118.37 E22.14066
G1 X121.326 Y118.24 E22.14501
G1 X121.31 Y118.166 E22.14753
G1 X121.319 Y118.023 E22.1523
G1 X121.302 Y117.957 E22.15456
G1 X121.324 Y117.499 E22.16982
G1 X121.302 Y117.1 E22.18311
G1 X121.24 Y116.705 E22.19641
G1 X121.137 Y116.318 E22.20972
G1 X120.993 Y115.943 E22.22309
G1 X120.811 Y115.589 E22.23632
G1 X120.593 Y115.253 E22.24965
G1 X120.342 Y114.942 E22.26294
G1 X120.064 Y114.664 E22.27601
G1 X119.9 Y114.524 E22.28319
G1 X119.588 Y114.297 E22.29602
G1 X119.404 Y114.185 E22.30318
G1 X119.063 Y114.011 E22.31592
G1 X118.87 Y113.93 E22.32288
G1 X118.673 Y113.861 E22.32982
G1 X118.295 Y113.76 E22.34283
G1 X117.907 Y113.698 E22.3559
G1 X117.701 Y113.682 E22.36278
G1 X117.5 Y113.677 E22.36946
G1 X117.299 Y113.682 E22.37615
G1 X117.097 Y113.698 E22.38289
G1 X116.86 Y113.732 E22.39085
G1 X116.572 Y113.765 E22.40049
G1 X116.365 Y113.801 E22.40748
G1 X115.968 Y113.909 E22.42117
G1 X115.772 Y113.979 E22.42809
G1 X115.585 Y114.058 E22.43484
G1 X115.39 Y114.149 E22.442
G1 X115.029 Y114.359 E22.45589
G1 X114.961 Y114.41 E22.45872
G1 X114.855 Y114.481 E22.46296
G1 X114.699 Y114.604 E22.46957
G1 X114.525 Y114.752 E22.47716
G1 X114.375 Y114.897 E22.4841
G1 X114.304 Y114.977 E22.48766
G1 X114.235 Y115.046 E22.49091
G1 X114.094 Y115.214 E22.4982
G1 X113.961 Y115.388 E22.50549
G1 X113.838 Y115.57 E22.51279
G1 X113.727 Y115.756 E22.52
G1 X113.623 Y115.95 E22.52732
G1 X113.53 Y116.15 E22.53465
G1 X113.448 Y116.354 E22.54197
G1 X113.375 Y116.564 E22.54936
G1 X113.314 Y116.781 E22.55686
G1 X113.265 Y116.997 E22.56422
G1 X113.226 Y117.22 E22.57175
G1 X113.197 Y117.469 E22.58009
G1 X113.183 Y117.697 E22.58769
G1 X113.182 Y117.926 E22.59531
G1 X113.192 Y118.157 E22.603
G1 X113.215 Y118.385 E22.61062
G1 X113.249 Y118.612 E22.61825
G1 X113.297 Y118.838 E22.62594
G1 X113.343 Y119.015 E22.63202
G1 X113.413 Y119.239 E22.63983
G1 X113.495 Y119.462 E22.64773
G1 X113.589 Y119.684 E22.65575
G1 X113.696 Y119.898 E22.6637
G1 X113.812 Y120.107 E22.67165
G1 X113.932 Y120.296 E22.6791
G1 X114.13 Y120.532 E22.68935
G1 X114.295 Y120.705 E22.6973
G1 X114.468 Y120.87 E22.70525
G1 X114.694 Y121.06 E22.71507
G1 X114.899 Y121.212 E22.72356
G1 X115.233 Y121.427 E22.73677
G1 X115.649 Y121.639 E22.7523
G1 X115.767 Y121.688 E22.75655
G1 X115.876 Y121.733 E22.76047
G1 X116.1 Y121.812 E22.76837
G1 X116.326 Y121.878 E22.7762
G1 X116.557 Y121.935 E22.78411
G1 X116.748 Y121.969 E22.79057
G1 X116.99 Y122.003 E22.7987
G1 X117.244 Y122.027 E22.80718
G1 X117.61 Y122.032 E22.81936
G0 F6000 X117.591 Y121.632
;TYPE:WALL-OUTER
G1 F1200 X117.734 Y121.616 E22.82414
G1 X117.945 Y121.577 E22.83128
G1 X118.153 Y121.532 E22.83836
G1 X118.363 Y121.474 E22.8456
G1 X118.562 Y121.406 E22.8526
G1 X118.758 Y121.329 E22.8596
G1 X118.95 Y121.241 E22.86663
G1 X119.136 Y121.144 E22.8736
G1 X119.316 Y121.036 E22.88058
G1 X119.49 Y120.922 E22.8875
G1 X119.656 Y120.798 E22.89439
G1 X119.854 Y120.631 E22.90301
G1 X120.008 Y120.486 E22.91004
G1 X120.283 Y120.178 E22.92378
G1 X120.412 Y120.008 E22.93088
G1 X120.631 Y119.664 E22.94444
G1 X120.826 Y119.273 E22.95897
G1 X120.833 Y119.147 E22.96317
G1 X120.862 Y119.059 E22.96625
G1 X120.862 Y118.949 E22.96991
G1 X120.89 Y118.853 E22.97324
G1 X120.885 Y118.755 E22.9765
G1 X120.909 Y118.651 E22.98005
G1 X120.899 Y118.561 E22.98306
G1 X120.918 Y118.453 E22.98671
G1 X120.906 Y118.377 E22.98927
G1 X120.921 Y118.257 E22.99329
G1 X120.908 Y118.195 E22.9954
G1 X120.916 Y118.063 E22.99979
G1 X120.899 Y117.999 E23.002
G1 X120.923 Y117.5 E23.01861
G1 X120.904 Y117.142 E23.03054
G1 X120.848 Y116.788 E23.04246
G1 X120.756 Y116.442 E23.05437
G1 X120.627 Y116.107 E23.0663
G1 X120.464 Y115.789 E23.07819
G1 X120.269 Y115.488 E23.09012
G1 X120.044 Y115.21 E23.10201
G1 X119.792 Y114.958 E23.11387
G1 X119.652 Y114.838 E23.12
G1 X119.366 Y114.63 E23.13176
G1 X119.209 Y114.534 E23.13788
G1 X118.895 Y114.374 E23.1496
G1 X118.727 Y114.304 E23.15566
G1 X118.555 Y114.244 E23.16172
G1 X118.212 Y114.152 E23.17353
G1 X117.86 Y114.096 E23.18538
G1 X117.68 Y114.082 E23.19139
G1 X117.5 Y114.077 E23.19738
G1 X117.32 Y114.082 E23.20337
G1 X117.141 Y114.096 E23.20934
G1 X116.905 Y114.13 E23.21727
