;FLAVOR:Marlin
;TIME:7022
;Filament used: 5.99355m
;Layer height: 0.28
;MINX:87.519
;MINY:87.519
;MINZ:0.28
;MAXX:147.481
;MAXY:147.481
;MAXZ:74.76
;Generated with Cura_SteamEngine master
M140 S60
M105
M190 S60
M104 S200
M105
M109 S200
M82 ;absolute extrusion mode
; Ender 3 Custom Start G-code
G92 E0 ; Reset Extruder
G28 ; Home all axes
G1 Z2.0 F3000 ; Move Z Axis up little to prevent scratching of Heat Bed
G1 X0.1 Y20 Z0.3 F5000.0 ; Move to start position
G1 X0.1 Y200.0 Z0.3 F1500.0 E15 ; Draw the first line
G1 X0.4 Y200.0 Z0.3 F5000.0 ; Move to side a little
G1 X0.4 Y20 Z0.3 F1500.0 E30 ; Draw the second line
G92 E0 ; Reset Extruder
G1 Z2.0 F3000 ; Move Z Axis up little to prevent scratching of Heat Bed
G1 X5 Y20 Z0.3 F5000.0 ; Move over to prevent blob squish
G92 E0
G92 E0
G1 F1500 E-6.5
;LAYER_COUNT:267
;LAYER:0
M107
G0 F6000 X96.624 Y95.979 Z0.28
;TYPE:SKIRT
G1 F1500 E0
G1 F1200 X96.867 Y95.742 E0.01581
G1 X97.505 Y95.146 E0.05646
G1 X97.752 Y94.927 E0.07183
G1 X98.339 Y94.432 E0.10759
G1 X98.612 Y94.21 E0.12397
G1 X98.902 Y93.982 E0.14115
G1 X99.852 Y93.261 E0.19668
G1 X100.452 Y92.836 E0.23092
G1 X101.571 Y92.099 E0.29331
G1 X102.228 Y91.699 E0.32913
G1 X103.387 Y91.047 E0.39105
G1 X104.067 Y90.695 E0.4267
G1 X105.227 Y90.145 E0.48648
G1 X105.926 Y89.842 E0.52195
G1 X107.184 Y89.349 E0.58487
G1 X107.907 Y89.095 E0.62055
G1 X109.17 Y88.699 E0.68219
G1 X109.575 Y88.58 E0.70184
G1 X110.283 Y88.392 E0.73595
G1 X110.643 Y88.304 E0.75321
G1 X111.05 Y88.212 E0.77264
G1 X111.7 Y88.079 E0.80353
G1 X112.165 Y87.995 E0.82554
G1 X113.301 Y87.813 E0.87911
G1 X114.011 Y87.722 E0.91244
G1 X115.362 Y87.595 E0.97562
G1 X116.134 Y87.55 E1.01163
G1 X117.453 Y87.519 E1.07307
G1 X118.192 Y87.527 E1.10748
G1 X119.493 Y87.584 E1.16812
G1 X119.919 Y87.61 E1.18799
G1 X120.366 Y87.647 E1.20888
G1 X121.256 Y87.746 E1.25057
G1 X121.837 Y87.828 E1.2779
G1 X122.557 Y87.947 E1.31188
G1 X123.687 Y88.162 E1.36544
G1 X124.077 Y88.243 E1.38399
G1 X124.802 Y88.412 E1.41865
G1 X125.12 Y88.493 E1.43393
G1 X125.861 Y88.702 E1.46978
G1 X126.265 Y88.824 E1.48943
G1 X126.63 Y88.941 E1.50728
G1 X127.705 Y89.307 E1.56016
G1 X128.056 Y89.433 E1.57752
G1 X128.526 Y89.611 E1.60093
G1 X129.364 Y89.956 E1.64312
G1 X129.845 Y90.171 E1.66766
G1 X130.205 Y90.339 E1.68615
G1 X130.507 Y90.486 E1.70179
G1 X131.528 Y91.001 E1.75504
G1 X132.175 Y91.355 E1.78938
G1 X133.353 Y92.052 E1.85312
G1 X134.007 Y92.47 E1.88926
G1 X135.092 Y93.22 E1.95068
G1 X135.712 Y93.682 E1.98668
G1 X136.735 Y94.501 E2.0477
G1 X137.059 Y94.771 E2.06734
G1 X137.611 Y95.253 E2.10146
G1 X138.097 Y95.701 E2.13224
G1 X138.424 Y96.018 E2.15345
G1 X138.71 Y96.303 E2.17225
G1 X138.967 Y96.568 E2.18944
G1 X139.758 Y97.411 E2.24327
G1 X140.241 Y97.962 E2.27739
G1 X141.09 Y98.997 E2.33972
G1 X141.552 Y99.601 E2.37513
G1 X142.318 Y100.679 E2.43671
G1 X142.739 Y101.319 E2.47238
G1 X143.421 Y102.436 E2.53332
G1 X143.793 Y103.094 E2.56852
G1 X144.406 Y104.273 E2.63039
G1 X144.744 Y104.984 E2.66705
G1 X145.285 Y106.236 E2.73056
G1 X145.563 Y106.946 E2.76606
G1 X145.988 Y108.153 E2.82565
G1 X146.216 Y108.882 E2.86121
G1 X146.575 Y110.184 E2.9241
G1 X146.757 Y110.951 E2.96081
G1 X147.017 Y112.251 E3.02254
G1 X147.138 Y112.977 E3.05681
G1 X147.305 Y114.25 E3.1166
G1 X147.378 Y115.015 E3.15238
G1 X147.462 Y116.4 E3.21699
G1 X147.481 Y117.192 E3.25388
G1 X147.466 Y118.5 E3.31479
G1 X147.454 Y118.898 E3.33333
G1 X147.413 Y119.67 E3.36933
G1 X147.36 Y120.295 E3.39854
G1 X147.313 Y120.739 E3.41933
G1 X147.266 Y121.131 E3.43771
G1 X147.214 Y121.506 E3.45534
G1 X147.036 Y122.655 E3.50948
G1 X146.974 Y123.019 E3.52667
G1 X146.824 Y123.789 E3.5632
G1 X146.744 Y124.156 E3.58069
G1 X146.644 Y124.574 E3.60071
G1 X146.49 Y125.168 E3.62928
G1 X146.374 Y125.581 E3.64925
G1 X146.031 Y126.719 E3.7046
G1 X145.795 Y127.416 E3.73886
G1 X145.325 Y128.666 E3.80105
G1 X145.03 Y129.374 E3.83676
G1 X144.481 Y130.573 E3.89817
G1 X144.142 Y131.252 E3.93351
G1 X143.507 Y132.419 E3.99537
G1 X143.107 Y133.096 E4.03198
G1 X142.381 Y134.229 E4.09464
G1 X141.955 Y134.845 E4.12952
G1 X141.181 Y135.889 E4.19003
G1 X140.918 Y136.231 E4.21012
G1 X140.448 Y136.808 E4.24478
G1 X140.016 Y137.31 E4.27562
G1 X139.73 Y137.627 E4.2955
G1 X139.419 Y137.963 E4.31681
G1 X139.144 Y138.249 E4.33529
G1 X138.376 Y139.021 E4.386
G1 X138.131 Y139.26 E4.40193
G1 X137.753 Y139.617 E4.42614
G1 X137.504 Y139.845 E4.44186
G1 X137.017 Y140.271 E4.47199
G1 X136.388 Y140.79 E4.50996
G1 X136.098 Y141.018 E4.52714
G1 X135.148 Y141.739 E4.58268
G1 X134.548 Y142.164 E4.61691
G1 X133.429 Y142.901 E4.6793
G1 X132.772 Y143.301 E4.71512
G1 X131.613 Y143.953 E4.77704
G1 X130.933 Y144.305 E4.8127
G1 X129.773 Y144.855 E4.87247
G1 X129.074 Y145.158 E4.90795
G1 X127.816 Y145.651 E4.97086
G1 X127.093 Y145.905 E5.00655
G1 X125.83 Y146.301 E5.06818
G1 X125.425 Y146.42 E5.08784
G1 X124.717 Y146.608 E5.12195
G1 X124.357 Y146.696 E5.1392
G1 X123.95 Y146.788 E5.15863
G1 X123.3 Y146.921 E5.18953
G1 X122.835 Y147.005 E5.21153
G1 X121.699 Y147.187 E5.2651
G1 X120.989 Y147.278 E5.29843
G1 X119.638 Y147.405 E5.36162
G1 X118.866 Y147.45 E5.39763
G1 X117.547 Y147.481 E5.45906
G1 X116.808 Y147.473 E5.49347
G1 X115.506 Y147.416 E5.55416
G1 X115.078 Y147.389 E5.57413
G1 X114.307 Y147.321 E5.61017
G1 X113.739 Y147.254 E5.6368
G1 X113.163 Y147.172 E5.66389
G1 X112.443 Y147.053 E5.69787
G1 X111.313 Y146.838 E5.75143
G1 X110.923 Y146.757 E5.76998
G1 X110.198 Y146.588 E5.80465
G1 X109.88 Y146.507 E5.81993
G1 X109.139 Y146.298 E5.85578
G1 X108.735 Y146.176 E5.87543
G1 X108.37 Y146.059 E5.89328
G1 X107.295 Y145.693 E5.94615
G1 X106.944 Y145.567 E5.96352
G1 X106.474 Y145.389 E5.98692
G1 X105.636 Y145.044 E6.02912
G1 X105.155 Y144.829 E6.05365
G1 X104.795 Y144.661 E6.07215
G1 X104.493 Y144.514 E6.08779
G1 X103.472 Y143.999 E6.14104
G1 X102.825 Y143.645 E6.17538
G1 X101.647 Y142.948 E6.23911
G1 X100.993 Y142.53 E6.27526
G1 X99.908 Y141.78 E6.33667
G1 X99.288 Y141.318 E6.37268
G1 X98.265 Y140.499 E6.4337
G1 X97.941 Y140.229 E6.45334
G1 X97.389 Y139.747 E6.48746
G1 X97.15 Y139.53 E6.50249
G1 X96.89 Y139.287 E6.51906
G1 X96.292 Y138.698 E6.55815
G1 X96.033 Y138.432 E6.57543
G1 X95.242 Y137.589 E6.62926
G1 X94.759 Y137.038 E6.66338
G1 X93.91 Y136.003 E6.72571
G1 X93.448 Y135.399 E6.76112
G1 X92.682 Y134.321 E6.8227
G1 X92.261 Y133.681 E6.85837
G1 X91.579 Y132.564 E6.91931
G1 X91.203 Y131.897 E6.95497
G1 X90.581 Y130.698 E7.01786
G1 X90.247 Y129.996 E7.05406
G1 X89.725 Y128.788 E7.11534
G1 X89.447 Y128.077 E7.15089
G1 X89.005 Y126.821 E7.21289
G1 X88.776 Y126.092 E7.24847
G1 X88.424 Y124.815 E7.31015
G1 X88.243 Y124.049 E7.3468
G1 X87.983 Y122.749 E7.40853
G1 X87.862 Y122.023 E7.4428
G1 X87.695 Y120.75 E7.50259
G1 X87.622 Y119.985 E7.53837
G1 X87.538 Y118.6 E7.60298
G1 X87.519 Y117.808 E7.63987
G1 X87.534 Y116.5 E7.70078
G1 X87.546 Y116.094 E7.71969
G1 X87.568 Y115.64 E7.74086
G1 X87.615 Y114.981 E7.77162
G1 X87.687 Y114.261 E7.80531
G1 X87.734 Y113.869 E7.8237
G1 X87.786 Y113.494 E7.84133
G1 X87.964 Y112.345 E7.89547
G1 X88.028 Y111.971 E7.91314
G1 X88.177 Y111.211 E7.9492
G1 X88.255 Y110.852 E7.9663
G1 X88.356 Y110.426 E7.98669
G1 X88.51 Y109.832 E8.01526
G1 X88.626 Y109.419 E8.03524
G1 X88.969 Y108.281 E8.09058
G1 X89.205 Y107.584 E8.12485
G1 X89.675 Y106.334 E8.18703
G1 X89.97 Y105.626 E8.22275
G1 X90.519 Y104.427 E8.28415
G1 X90.858 Y103.748 E8.31949
G1 X91.493 Y102.581 E8.38136
G1 X91.894 Y101.903 E8.41803
G1 X92.619 Y100.772 E8.48059
G1 X93.044 Y100.157 E8.5154
G1 X93.821 Y99.109 E8.57615
G1 X94.079 Y98.774 E8.59584
G1 X94.364 Y98.419 E8.61704
G1 X94.993 Y97.679 E8.66226
G1 X95.27 Y97.373 E8.68148
G1 X95.581 Y97.037 E8.7028
G1 X95.856 Y96.751 E8.72127
G1 X96.624 Y95.979 E8.77198
G0 F6000 X96.907 Y96.261
G1 F1200 X97.142 Y96.032 E8.78726
G1 X97.523 Y95.672 E8.81166
G1 X98.018 Y95.227 E8.84266
G1 X98.591 Y94.742 E8.87761
G1 X98.864 Y94.52 E8.894
G1 X99.144 Y94.3 E8.91058
G1 X100.094 Y93.579 E8.96611
G1 X100.672 Y93.171 E8.99906
G1 X101.791 Y92.434 E9.06145
G1 X102.424 Y92.048 E9.09597
G1 X103.583 Y91.396 E9.15789
G1 X104.239 Y91.056 E9.1923
G1 X105.399 Y90.506 E9.25208
G1 X106.072 Y90.215 E9.28622
G1 X107.33 Y89.722 E9.34913
G1 X108.027 Y89.477 E9.38354
G1 X109.29 Y89.081 E9.44517
G1 X109.68 Y88.966 E9.4641
G1 X110.378 Y88.78 E9.49774
G1 X110.738 Y88.692 E9.51499
G1 X111.13 Y88.604 E9.5337
G1 X111.78 Y88.471 E9.5646
G1 X112.228 Y88.389 E9.5858
G1 X113.364 Y88.207 E9.63937
G1 X114.049 Y88.121 E9.67152
G1 X115.4 Y87.994 E9.73471
G1 X116.143 Y87.95 E9.76937
G1 X117.462 Y87.919 E9.8308
G1 X118.175 Y87.926 E9.864
G1 X119.476 Y87.983 E9.92464
G1 X119.886 Y88.009 E9.94377
G1 X120.651 Y88.077 E9.97953
G1 X121.202 Y88.142 E10.00537
G1 X121.775 Y88.223 E10.03231
G1 X122.482 Y88.34 E10.06568
G1 X123.612 Y88.555 E10.11924
G1 X123.988 Y88.633 E10.13712
G1 X124.703 Y88.8 E10.17131
G1 X125.322 Y88.962 E10.20111
G1 X126.149 Y89.207 E10.24127
G1 X126.501 Y89.32 E10.25849
G1 X127.576 Y89.686 E10.31136
G1 X127.914 Y89.807 E10.32808
G1 X128.69 Y90.106 E10.3668
G1 X129.203 Y90.322 E10.39272
G1 X129.676 Y90.533 E10.41684
G1 X130.036 Y90.701 E10.43534
G1 X130.327 Y90.843 E10.45041
G1 X131.348 Y91.358 E10.50366
G1 X131.972 Y91.699 E10.53677
G1 X133.15 Y92.396 E10.60051
G1 X133.779 Y92.799 E10.63529
G1 X134.864 Y93.549 E10.69671
G1 X135.462 Y93.994 E10.73142
G1 X136.485 Y94.813 E10.79244
G1 X136.797 Y95.073 E10.81135
G1 X137.342 Y95.549 E10.84505
G1 X137.819 Y95.988 E10.87523
G1 X138.427 Y96.587 E10.91497
G1 X138.675 Y96.842 E10.93154
G1 X139.466 Y97.685 E10.98537
G1 X139.931 Y98.215 E11.0182
G1 X140.78 Y99.25 E11.08053
G1 X141.226 Y99.833 E11.11471
G1 X141.992 Y100.911 E11.17629
G1 X142.398 Y101.527 E11.21064
G1 X143.08 Y102.644 E11.27158
G1 X143.438 Y103.278 E11.30549
G1 X144.051 Y104.457 E11.36736
G1 X144.376 Y105.142 E11.40267
G1 X144.917 Y106.394 E11.46617
G1 X145.185 Y107.078 E11.50038
G1 X145.61 Y108.285 E11.55997
G1 X145.831 Y108.988 E11.59428
G1 X146.19 Y110.29 E11.65717
G1 X146.365 Y111.029 E11.69253
G1 X146.625 Y112.329 E11.75427
G1 X146.741 Y113.029 E11.7873
G1 X146.908 Y114.302 E11.84709
G1 X146.979 Y115.039 E11.88157
G1 X147.063 Y116.424 E11.94618
G1 X147.081 Y117.188 E11.98176
G1 X147.066 Y118.496 E12.04267
G1 X147.055 Y118.879 E12.06051
G1 X147.014 Y119.639 E12.09595
G1 X146.962 Y120.253 E12.12464
G1 X146.916 Y120.692 E12.1452
G1 X146.869 Y121.084 E12.16358
G1 X146.819 Y121.445 E12.18055
G1 X146.641 Y122.594 E12.23469
G1 X146.581 Y122.944 E12.25123
G1 X146.433 Y123.704 E12.28728
G1 X146.353 Y124.071 E12.30477
G1 X146.257 Y124.473 E12.32402
G1 X146.103 Y125.067 E12.35259
G1 X145.991 Y125.466 E12.37189
G1 X145.648 Y126.604 E12.42723
G1 X145.421 Y127.276 E12.46026
G1 X144.951 Y128.526 E12.52244
G1 X144.667 Y129.208 E12.55684
G1 X144.118 Y130.407 E12.61825
G1 X143.791 Y131.06 E12.65226
G1 X143.156 Y132.227 E12.71412
G1 X142.77 Y132.88 E12.74944
G1 X142.044 Y134.013 E12.8121
G1 X141.634 Y134.607 E12.84571
G1 X140.86 Y135.651 E12.90622
G1 X140.606 Y135.98 E12.92558
G1 X140.143 Y136.549 E12.95974
G1 X139.719 Y137.042 E12.99001
G1 X139.436 Y137.355 E13.00966
G1 X139.125 Y137.691 E13.03098
G1 X138.861 Y137.967 E13.04877
G1 X138.093 Y138.739 E13.09947
G1 X137.856 Y138.969 E13.11485
G1 X137.238 Y139.546 E13.15422
G1 X136.76 Y139.965 E13.18382
G1 X136.136 Y140.48 E13.22149
G1 X135.856 Y140.7 E13.23807
G1 X134.906 Y141.421 E13.29361
G1 X134.328 Y141.829 E13.32655
G1 X133.209 Y142.566 E13.38894
G1 X132.576 Y142.952 E13.42346
G1 X131.417 Y143.604 E13.48539
G1 X130.761 Y143.944 E13.51979
G1 X129.601 Y144.494 E13.57957
G1 X128.928 Y144.785 E13.61371
G1 X127.67 Y145.278 E13.67663
G1 X126.973 Y145.523 E13.71103
G1 X125.71 Y145.919 E13.77266
G1 X125.32 Y146.034 E13.79159
G1 X124.622 Y146.22 E13.82523
G1 X124.262 Y146.308 E13.84249
G1 X123.87 Y146.396 E13.8612
G1 X123.22 Y146.529 E13.89209
G1 X122.772 Y146.611 E13.9133
G1 X121.636 Y146.793 E13.96687
G1 X120.951 Y146.879 E13.99901
G1 X119.6 Y147.006 E14.0622
G1 X118.857 Y147.05 E14.09686
G1 X117.538 Y147.081 E14.15829
G1 X116.825 Y147.074 E14.19149
G1 X115.523 Y147.017 E14.25218
G1 X115.111 Y146.991 E14.2714
G1 X114.665 Y146.954 E14.29224
G1 X113.793 Y146.857 E14.3331
G1 X113.225 Y146.777 E14.35981
G1 X112.518 Y146.66 E14.39317
G1 X111.388 Y146.445 E14.44674
G1 X111.012 Y146.367 E14.46462
G1 X110.297 Y146.2 E14.49881
G1 X109.678 Y146.038 E14.5286
G1 X108.851 Y145.793 E14.56876
G1 X108.499 Y145.68 E14.58598
G1 X107.424 Y145.314 E14.63885
G1 X107.086 Y145.193 E14.65557
G1 X106.31 Y144.894 E14.6943
G1 X105.797 Y144.678 E14.72021
G1 X105.324 Y144.467 E14.74433
G1 X104.964 Y144.299 E14.76283
G1 X104.673 Y144.157 E14.77791
G1 X103.652 Y143.642 E14.83115
G1 X103.028 Y143.301 E14.86427
G1 X101.85 Y142.604 E14.928
G1 X101.221 Y142.201 E14.96279
G1 X100.136 Y141.451 E15.0242
G1 X99.538 Y141.006 E15.05891
G1 X98.515 Y140.187 E15.11993
G1 X98.203 Y139.927 E15.13884
G1 X97.658 Y139.451 E15.17254
G1 X97.419 Y139.234 E15.18757
G1 X96.839 Y138.678 E15.22498
G1 X96.574 Y138.414 E15.2424
G1 X96.325 Y138.158 E15.25903
G1 X95.534 Y137.315 E15.31286
G1 X95.069 Y136.785 E15.34569
G1 X94.22 Y135.75 E15.40802
G1 X93.774 Y135.167 E15.4422
G1 X93.008 Y134.089 E15.50378
G1 X92.602 Y133.473 E15.53813
G1 X91.92 Y132.356 E15.59907
G1 X91.558 Y131.713 E15.63343
G1 X90.936 Y130.514 E15.69633
G1 X90.615 Y129.838 E15.73117
G1 X90.093 Y128.63 E15.79245
G1 X89.824 Y127.944 E15.82676
G1 X89.382 Y126.688 E15.88876
G1 X89.162 Y125.986 E15.92302
G1 X88.81 Y124.709 E15.9847
G1 X88.635 Y123.971 E16.02002
G1 X88.375 Y122.671 E16.08175
G1 X88.259 Y121.971 E16.11479
G1 X88.092 Y120.698 E16.17457
G1 X88.021 Y119.961 E16.20905
G1 X87.937 Y118.576 E16.27366
G1 X87.919 Y117.812 E16.30924
G1 X87.934 Y116.504 E16.37015
G1 X87.945 Y116.113 E16.38837
G1 X87.987 Y115.344 E16.42423
G1 X88.084 Y114.308 E16.47268
G1 X88.131 Y113.916 E16.49106
G1 X88.181 Y113.555 E16.50803
G1 X88.359 Y112.406 E16.56217
G1 X88.421 Y112.046 E16.57918
G1 X88.568 Y111.295 E16.61482
G1 X88.646 Y110.936 E16.63192
G1 X88.743 Y110.527 E16.6515
G1 X88.897 Y109.933 E16.68007
G1 X89.009 Y109.534 E16.69937
G1 X89.352 Y108.396 E16.75471
G1 X89.579 Y107.724 E16.78774
G1 X90.049 Y106.474 E16.84992
G1 X90.333 Y105.792 E16.88432
G1 X90.882 Y104.593 E16.94573
G1 X91.209 Y103.94 E16.97973
G1 X91.844 Y102.773 E17.0416
G1 X92.231 Y102.119 E17.07698
G1 X92.956 Y100.988 E17.13954
G1 X93.365 Y100.395 E17.17308
G1 X94.142 Y99.347 E17.23383
G1 X94.391 Y99.024 E17.25282
G1 X94.877 Y98.426 E17.2887
G1 X95.564 Y97.645 E17.33714
G1 X95.875 Y97.309 E17.35846
G1 X96.139 Y97.033 E17.37624
G1 X96.907 Y96.261 E17.42695
G0 F6000 X97.191 Y96.543
G1 F1200 X97.417 Y96.323 E17.44163
G1 X97.798 Y95.963 E17.46604
G1 X98.036 Y95.745 E17.48107
G1 X98.497 Y95.342 E17.50958
G1 X99.117 Y94.83 E17.54702
G1 X99.386 Y94.619 E17.56294
G1 X100.336 Y93.898 E17.61848
G1 X100.892 Y93.505 E17.65018
G1 X102.011 Y92.768 E17.71257
G1 X102.62 Y92.396 E17.7458
G1 X103.779 Y91.744 E17.80772
G1 X104.41 Y91.417 E17.84082
G1 X105.57 Y90.867 E17.90059
G1 X106.218 Y90.587 E17.93346
G1 X107.476 Y90.094 E17.99638
G1 X108.146 Y89.858 E18.02946
G1 X109.409 Y89.462 E18.09109
G1 X109.785 Y89.352 E18.10933
G1 X110.473 Y89.169 E18.14248
G1 X110.833 Y89.081 E18.15974
G1 X111.21 Y88.996 E18.17773
G1 X111.86 Y88.863 E18.20863
G1 X112.291 Y88.784 E18.22903
G1 X113.427 Y88.602 E18.2826
G1 X114.086 Y88.519 E18.31353
G1 X115.437 Y88.392 E18.37672
G1 X116.152 Y88.35 E18.41007
G1 X117.471 Y88.319 E18.4715
G1 X118.157 Y88.326 E18.50345
G1 X119.458 Y88.383 E18.56408
G1 X119.853 Y88.408 E18.58251
G1 X120.606 Y88.475 E18.61772
G1 X121.149 Y88.539 E18.64318
G1 X121.712 Y88.618 E18.66965
G1 X122.408 Y88.733 E18.7025
G1 X123.538 Y88.948 E18.75606
G1 X123.899 Y89.023 E18.77323
G1 X124.605 Y89.188 E18.80699
G1 X125.212 Y89.347 E18.8362
G1 X126.034 Y89.59 E18.87612
G1 X126.372 Y89.698 E18.89264
G1 X127.447 Y90.064 E18.94552
G1 X127.773 Y90.181 E18.96165
G1 X128.243 Y90.359 E18.98505
G1 X129.041 Y90.688 E19.02524
G1 X129.506 Y90.896 E19.04896
G1 X130.147 Y91.2 E19.08199
G1 X131.168 Y91.715 E19.13524
G1 X131.768 Y92.044 E19.16711
G1 X132.946 Y92.741 E19.23084
G1 X133.552 Y93.128 E19.26432
G1 X134.637 Y93.878 E19.32574
