;FLAVOR:Marlin
;TIME:8602
;Filament used: 5.77179m
;Layer height: 0.2
;MINX:79.503
;MINY:79.504
;MINZ:0.2
;MAXX:155.497
;MAXY:155.496
;MAXZ:30
;Generated with Cura_SteamEngine master
M140 S50
M105
M190 S50
M104 S200
M105
M109 S200
M82 ;absolute extrusion mode
; Ender 3 Custom Start G-code
G92 E0 ; Reset Extruder
G28 ; Home all axes
G1 Z2.0 F3000 ; Move Z Axis up little to prevent scratching of Heat Bed
G1 X0.1 Y20 Z0.3 F5000.0 ; Move to start position
G1 X0.1 Y200.0 Z0.3 F1500.0 E15 ; Draw the first line
G1 X0.4 Y200.0 Z0.3 F5000.0 ; Move to side a little
G1 X0.4 Y20 Z0.3 F1500.0 E30 ; Draw the second line
G92 E0 ; Reset Extruder
G1 Z2.0 F3000 ; Move Z Axis up little to prevent scratching of Heat Bed
G1 X5 Y20 Z0.3 F5000.0 ; Move over to prevent blob squish
G92 E0
G92 E0
G1 F2700 E-5
;LAYER_COUNT:150
;LAYER:0
M107
G0 F6000 X90.771 Y90.494 Z0.2
;TYPE:SKIRT
G1 F2700 E0
G1 F1200 X91.242 Y90.033 E0.02192
G1 X91.939 Y89.406 E0.0531
G1 X92.688 Y88.841 E0.08431
G1 X93.482 Y88.341 E0.11552
G1 X94.013 Y88.057 E0.13554
G1 X95.158 Y87.486 E0.1781
G1 X95.478 Y87.333 E0.1899
G1 X97.741 Y86.165 E0.2746
G1 X99.31 Y85.308 E0.33406
G1 X100.349 Y84.733 E0.37356
G1 X100.73 Y84.535 E0.38784
G1 X101.123 Y84.341 E0.40242
G1 X102.372 Y83.754 E0.44832
G1 X102.697 Y83.607 E0.46018
G1 X103.11 Y83.429 E0.47514
G1 X103.485 Y83.276 E0.48861
G1 X104.748 Y82.786 E0.53367
G1 X105.082 Y82.663 E0.54551
G1 X105.492 Y82.519 E0.55996
G1 X105.884 Y82.389 E0.5737
G1 X107.457 Y81.904 E0.62844
G1 X108.17 Y81.699 E0.65312
G1 X109.749 Y81.234 E0.70787
G1 X112.207 Y80.443 E0.79375
G1 X113.392 Y80.041 E0.83537
G1 X114.297 Y79.795 E0.86656
G1 X115.22 Y79.628 E0.89776
G1 X116.464 Y79.528 E0.93927
G1 X117.41 Y79.506 E0.97074
G1 X117.784 Y79.504 E0.98318
G1 X118.343 Y79.51 E1.00177
G1 X119.28 Y79.56 E1.03298
G1 X120.208 Y79.689 E1.06414
G1 X121.123 Y79.898 E1.09536
G1 X121.652 Y80.056 E1.11372
G1 X123.131 Y80.548 E1.16557
G1 X125.542 Y81.319 E1.24976
G1 X127.001 Y81.75 E1.30036
G1 X128.39 Y82.155 E1.34848
G1 X128.769 Y82.276 E1.36171
G1 X130.082 Y82.724 E1.40785
G1 X130.419 Y82.845 E1.41976
G1 X130.8 Y82.989 E1.43331
G1 X131.171 Y83.137 E1.44659
G1 X132.478 Y83.686 E1.49375
G1 X132.839 Y83.846 E1.50688
G1 X133.217 Y84.021 E1.52073
G1 X133.551 Y84.182 E1.53306
G1 X134.762 Y84.793 E1.57818
G1 X135.105 Y84.974 E1.59108
G1 X136.495 Y85.738 E1.64383
G1 X138.796 Y86.962 E1.73052
G1 X140.7 Y87.905 E1.80119
G1 X141.081 Y88.101 E1.81544
G1 X141.896 Y88.566 E1.84665
G1 X142.668 Y89.098 E1.87783
G1 X143.513 Y89.803 E1.91443
G1 X143.749 Y90.021 E1.92512
G1 X144.063 Y90.323 E1.93961
G1 X144.5 Y90.761 E1.96019
G1 X144.986 Y91.26 E1.98335
G1 X145.611 Y91.959 E2.01454
G1 X146.175 Y92.709 E2.04575
G1 X146.672 Y93.504 E2.07694
G1 X146.958 Y94.042 E2.0972
G1 X147.514 Y95.162 E2.13879
G1 X148.722 Y97.517 E2.22682
G1 X149.622 Y99.167 E2.28933
G1 X149.897 Y99.66 E2.30811
G1 X150.073 Y99.989 E2.32052
G1 X150.689 Y101.187 E2.36532
G1 X150.858 Y101.531 E2.37807
G1 X151.06 Y101.96 E2.39384
G1 X151.217 Y102.309 E2.40657
G1 X151.749 Y103.549 E2.45145
G1 X151.884 Y103.878 E2.46328
G1 X152.037 Y104.269 E2.47724
G1 X152.18 Y104.657 E2.491
G1 X152.647 Y105.997 E2.53819
G1 X152.769 Y106.367 E2.55115
G1 X153.004 Y107.135 E2.57786
G1 X153.606 Y109.234 E2.65049
G1 X154.87 Y113.11 E2.78609
G1 X155.141 Y114.008 E2.81729
G1 X155.333 Y114.926 E2.84848
G1 X155.447 Y115.857 E2.87968
G1 X155.479 Y116.522 E2.90182
G1 X155.496 Y117.447 E2.93259
G1 X155.497 Y117.799 E2.9443
G1 X155.489 Y118.385 E2.96379
G1 X155.436 Y119.322 E2.99501
G1 X155.304 Y120.25 E3.02618
G1 X155.093 Y121.164 E3.05738
G1 X154.922 Y121.725 E3.07689
G1 X154.563 Y122.798 E3.11452
G1 X153.795 Y125.187 E3.19798
G1 X153.601 Y125.86 E3.22128
G1 X152.606 Y129.137 E3.33519
G1 X152.477 Y129.522 E3.34869
G1 X152.33 Y129.934 E3.36324
G1 X151.819 Y131.279 E3.4111
G1 X151.685 Y131.614 E3.4231
G1 X151.527 Y131.992 E3.43672
G1 X151.366 Y132.359 E3.45005
G1 X150.785 Y133.618 E3.49617
G1 X150.625 Y133.951 E3.50846
G1 X150.129 Y134.927 E3.54487
G1 X149.943 Y135.272 E3.55791
G1 X148.608 Y137.698 E3.65001
G1 X147.015 Y140.839 E3.76714
G1 X146.57 Y141.664 E3.79832
G1 X146.057 Y142.449 E3.82951
G1 X145.478 Y143.187 E3.86071
G1 X145.044 Y143.667 E3.88223
G1 X144.463 Y144.271 E3.91011
G1 X144.229 Y144.506 E3.92114
G1 X143.757 Y144.968 E3.94311
G1 X143.06 Y145.595 E3.97429
G1 X142.311 Y146.16 E4.00549
G1 X141.518 Y146.659 E4.03666
G1 X140.986 Y146.944 E4.05673
G1 X139.843 Y147.514 E4.09921
G1 X139.523 Y147.667 E4.11101
G1 X137.26 Y148.835 E4.19571
G1 X135.691 Y149.692 E4.25517
G1 X134.652 Y150.267 E4.29467
G1 X134.271 Y150.465 E4.30895
G1 X133.875 Y150.661 E4.32364
G1 X132.625 Y151.248 E4.36958
G1 X132.303 Y151.393 E4.38132
G1 X131.89 Y151.571 E4.39628
G1 X131.515 Y151.724 E4.40975
G1 X130.252 Y152.214 E4.45481
G1 X129.918 Y152.337 E4.46665
G1 X129.508 Y152.481 E4.4811
G1 X129.116 Y152.611 E4.49484
G1 X127.543 Y153.096 E4.54958
G1 X126.83 Y153.301 E4.57426
G1 X125.251 Y153.766 E4.62901
G1 X122.789 Y154.558 E4.71503
G1 X121.638 Y154.95 E4.75547
G1 X120.734 Y155.198 E4.78665
G1 X119.812 Y155.368 E4.81783
G1 X118.536 Y155.472 E4.86041
G1 X117.59 Y155.494 E4.89188
G1 X117.216 Y155.496 E4.90432
G1 X116.658 Y155.49 E4.92288
G1 X115.721 Y155.44 E4.95409
G1 X114.792 Y155.311 E4.98529
G1 X113.878 Y155.102 E5.01647
G1 X113.345 Y154.942 E5.03498
G1 X111.873 Y154.454 E5.08656
G1 X109.444 Y153.677 E5.17138
G1 X107.992 Y153.248 E5.22174
G1 X106.61 Y152.845 E5.26962
G1 X106.233 Y152.725 E5.28278
G1 X104.919 Y152.277 E5.32895
G1 X104.58 Y152.155 E5.34093
G1 X104.199 Y152.011 E5.35448
G1 X103.825 Y151.861 E5.36788
G1 X102.519 Y151.312 E5.415
G1 X102.161 Y151.154 E5.42802
G1 X101.783 Y150.979 E5.44187
G1 X101.449 Y150.818 E5.4542
G1 X100.238 Y150.207 E5.49932
G1 X99.895 Y150.026 E5.51222
G1 X98.505 Y149.262 E5.56497
G1 X96.202 Y148.037 E5.65173
G1 X94.302 Y147.095 E5.72227
G1 X93.933 Y146.906 E5.73606
G1 X93.118 Y146.444 E5.76722
G1 X92.344 Y145.913 E5.79844
G1 X91.468 Y145.182 E5.83638
G1 X91.234 Y144.965 E5.847
G1 X90.925 Y144.666 E5.8613
G1 X90.48 Y144.219 E5.88228
G1 X90.01 Y143.736 E5.90469
G1 X89.386 Y143.037 E5.93586
G1 X88.823 Y142.287 E5.96705
G1 X88.326 Y141.491 E5.99826
G1 X88.044 Y140.961 E6.01823
G1 X87.514 Y139.894 E6.05785
G1 X86.277 Y137.482 E6.14801
G1 X85.377 Y135.832 E6.21052
G1 X85.102 Y135.339 E6.2293
G1 X84.926 Y135.01 E6.24171
G1 X84.31 Y133.812 E6.28652
G1 X84.136 Y133.458 E6.29963
G1 X83.935 Y133.03 E6.31536
G1 X83.781 Y132.687 E6.32787
G1 X83.25 Y131.448 E6.3727
G1 X83.118 Y131.124 E6.38434
G1 X82.963 Y130.728 E6.39848
G1 X82.82 Y130.342 E6.41217
G1 X82.354 Y129.006 E6.45923
G1 X82.235 Y128.645 E6.47188
G1 X81.989 Y127.845 E6.49971
G1 X81.384 Y125.735 E6.57272
G1 X80.141 Y121.922 E6.70611
G1 X79.868 Y121.025 E6.7373
G1 X79.673 Y120.108 E6.76848
G1 X79.556 Y119.177 E6.79969
G1 X79.521 Y118.478 E6.82296
G1 X79.504 Y117.553 E6.85373
G1 X79.503 Y117.201 E6.86544
G1 X79.511 Y116.616 E6.8849
G1 X79.564 Y115.679 E6.91612
G1 X79.696 Y114.751 E6.94729
G1 X79.907 Y113.837 E6.97849
G1 X80.077 Y113.279 E6.99789
G1 X80.436 Y112.205 E7.03556
G1 X81.205 Y109.813 E7.11913
G1 X81.403 Y109.126 E7.1429
G1 X82.396 Y105.856 E7.25657
G1 X82.53 Y105.457 E7.27057
G1 X82.676 Y105.05 E7.28495
G1 X83.182 Y103.719 E7.33231
G1 X83.322 Y103.37 E7.34482
G1 X83.487 Y102.977 E7.35899
G1 X83.641 Y102.626 E7.37174
G1 X84.215 Y101.382 E7.41731
G1 X84.375 Y101.049 E7.4296
G1 X84.863 Y100.087 E7.46548
G1 X85.051 Y99.739 E7.47863
G1 X86.38 Y97.326 E7.57026
G1 X87.996 Y94.142 E7.68901
G1 X88.431 Y93.335 E7.71951
G1 X88.944 Y92.55 E7.7507
G1 X89.522 Y91.812 E7.78188
G1 X89.957 Y91.332 E7.80342
G1 X90.537 Y90.729 E7.83125
G1 X90.771 Y90.494 E7.84228
G0 F6000 X91.051 Y90.78
G1 F1200 X91.522 Y90.319 E7.8642
G1 X92.207 Y89.704 E7.89482
G1 X92.943 Y89.151 E7.92544
G1 X93.724 Y88.664 E7.95605
G1 X94.192 Y88.415 E7.97368
G1 X95.655 Y87.691 E8.02797
G1 X97.922 Y86.522 E8.11281
G1 X99.454 Y85.685 E8.17087
G1 X100.533 Y85.088 E8.21189
G1 X100.914 Y84.89 E8.22617
G1 X101.293 Y84.703 E8.24022
G1 X102.542 Y84.116 E8.28612
G1 X102.856 Y83.975 E8.29757
G1 X103.269 Y83.797 E8.31253
G1 X103.63 Y83.649 E8.32551
G1 X104.893 Y83.159 E8.37057
G1 X105.214 Y83.04 E8.38195
G1 X105.624 Y82.896 E8.39641
G1 X106.002 Y82.771 E8.40965
G1 X107.568 Y82.289 E8.46414
G1 X108.281 Y82.084 E8.48882
G1 X109.847 Y81.622 E8.54312
G1 X112.334 Y80.822 E8.63002
G1 X113.513 Y80.422 E8.67143
G1 X114.401 Y80.182 E8.70202
G1 X115.308 Y80.02 E8.73266
G1 X116.474 Y79.928 E8.77157
G1 X117.42 Y79.906 E8.80304
G1 X117.78 Y79.904 E8.81501
G1 X118.339 Y79.91 E8.83361
G1 X119.258 Y79.959 E8.86422
G1 X120.17 Y80.089 E8.89486
G1 X121.066 Y80.297 E8.92545
G1 X121.527 Y80.437 E8.94147
G1 X123.002 Y80.927 E8.99317
G1 X125.446 Y81.708 E9.07851
G1 X126.811 Y82.111 E9.12584
G1 X128.275 Y82.538 E9.17656
G1 X128.64 Y82.655 E9.18931
G1 X129.953 Y83.103 E9.23546
G1 X130.278 Y83.22 E9.24694
G1 X130.659 Y83.364 E9.26049
G1 X131.016 Y83.506 E9.27327
G1 X132.323 Y84.055 E9.32042
G1 X132.671 Y84.209 E9.33308
G1 X133.049 Y84.384 E9.34693
G1 X133.371 Y84.539 E9.35882
G1 X134.582 Y85.15 E9.40393
G1 X134.913 Y85.325 E9.41639
G1 X136.296 Y86.085 E9.46887
G1 X138.61 Y87.316 E9.55605
G1 X140.517 Y88.261 E9.62684
G1 X140.898 Y88.457 E9.64109
G1 X141.698 Y88.913 E9.67171
G1 X142.455 Y89.437 E9.70234
G1 X143.242 Y90.097 E9.7365
G1 X143.478 Y90.315 E9.74718
G1 X143.78 Y90.606 E9.76113
G1 X144.214 Y91.04 E9.78155
G1 X144.7 Y91.539 E9.80471
G1 X145.313 Y92.226 E9.83534
G1 X145.864 Y92.963 E9.86594
G1 X146.349 Y93.746 E9.89658
G1 X146.6 Y94.22 E9.91442
G1 X147.173 Y95.374 E9.95727
G1 X148.356 Y97.679 E10.04344
G1 X149.717 Y100.172 E10.13791
G1 X150.333 Y101.37 E10.18272
G1 X150.496 Y101.701 E10.19499
G1 X150.698 Y102.13 E10.21076
G1 X150.849 Y102.467 E10.22304
G1 X151.381 Y103.707 E10.26792
G1 X151.511 Y104.023 E10.27928
G1 X151.664 Y104.414 E10.29325
G1 X151.803 Y104.789 E10.30655
G1 X152.27 Y106.129 E10.35375
G1 X152.387 Y106.486 E10.36624
G1 X152.62 Y107.246 E10.39268
G1 X153.224 Y109.351 E10.46552
G1 X154.493 Y113.242 E10.60164
G1 X154.757 Y114.124 E10.63227
G1 X154.944 Y115.025 E10.66287
G1 X155.052 Y115.939 E10.69348
G1 X155.079 Y116.529 E10.71313
G1 X155.096 Y117.454 E10.7439
G1 X155.097 Y117.794 E10.75521
G1 X155.089 Y118.38 E10.7747
G1 X155.036 Y119.299 E10.80532
G1 X154.904 Y120.21 E10.83593
G1 X154.694 Y121.106 E10.86654
G1 X154.542 Y121.598 E10.88367
G1 X154.222 Y122.553 E10.91717
G1 X153.409 Y125.081 E11.00549
G1 X153.218 Y125.744 E11.02844
G1 X152.227 Y129.01 E11.14196
G1 X152.098 Y129.395 E11.15546
G1 X151.956 Y129.792 E11.16948
G1 X151.445 Y131.137 E11.21734
G1 X151.316 Y131.46 E11.22891
G1 X151.158 Y131.838 E11.24253
G1 X151.003 Y132.192 E11.25539
G1 X150.422 Y133.451 E11.3015
G1 X150.267 Y133.771 E11.31333
G1 X149.776 Y134.738 E11.3494
G1 X149.592 Y135.079 E11.36229
G1 X148.258 Y137.503 E11.45431
G1 X146.655 Y140.664 E11.5722
G1 X146.218 Y141.474 E11.60281
G1 X145.712 Y142.244 E11.63345
G1 X145.141 Y142.966 E11.66407
G1 X144.755 Y143.389 E11.68311
G1 X143.95 Y144.22 E11.7216
G1 X143.478 Y144.682 E11.74356
G1 X142.792 Y145.297 E11.77421
G1 X142.056 Y145.85 E11.80483
G1 X141.275 Y146.337 E11.83544
G1 X140.807 Y146.586 E11.85307
G1 X139.346 Y147.309 E11.90729
G1 X137.079 Y148.478 E11.99212
G1 X135.547 Y149.315 E12.05019
G1 X134.468 Y149.912 E12.0912
G1 X134.087 Y150.11 E12.10548
G1 X133.705 Y150.299 E12.11966
G1 X132.455 Y150.886 E12.16559
G1 X132.144 Y151.025 E12.17692
G1 X131.731 Y151.203 E12.19188
G1 X131.37 Y151.351 E12.20485
G1 X130.107 Y151.841 E12.24991
G1 X129.786 Y151.96 E12.2613
G1 X129.376 Y152.104 E12.27575
G1 X128.998 Y152.229 E12.28899
G1 X127.432 Y152.711 E12.34349
G1 X126.719 Y152.916 E12.36817
G1 X125.153 Y153.378 E12.42247
G1 X122.677 Y154.174 E12.50897
G1 X121.516 Y154.569 E12.54976
G1 X120.628 Y154.812 E12.58038
G1 X119.722 Y154.976 E12.61101
G1 X118.526 Y155.072 E12.65091
G1 X117.58 Y155.094 E12.68239
G1 X117.22 Y155.096 E12.69436
G1 X116.662 Y155.09 E12.71292
G1 X115.743 Y155.041 E12.74353
G1 X114.831 Y154.911 E12.77417
G1 X113.934 Y154.703 E12.8048
G1 X113.47 Y154.562 E12.82092
G1 X111.991 Y154.071 E12.87276
G1 X109.54 Y153.288 E12.95834
G1 X108.189 Y152.889 E13.00519
G1 X106.725 Y152.462 E13.05591
G1 X106.362 Y152.346 E13.06859
G1 X105.048 Y151.898 E13.11476
G1 X104.721 Y151.78 E13.12632
G1 X104.34 Y151.636 E13.13987
G1 X103.98 Y151.493 E13.15275
G1 X102.674 Y150.944 E13.19987
G1 X102.329 Y150.791 E13.21242
G1 X101.951 Y150.616 E13.22628
G1 X101.629 Y150.461 E13.23817
G1 X100.418 Y149.85 E13.28328
G1 X100.087 Y149.675 E13.29573
G1 X98.704 Y148.915 E13.34822
G1 X96.402 Y147.691 E13.43493
G1 X94.485 Y146.739 E13.50612
G1 X94.116 Y146.55 E13.51991
G1 X93.315 Y146.096 E13.55054
G1 X92.557 Y145.573 E13.58117
G1 X91.74 Y144.888 E13.61663
G1 X91.506 Y144.671 E13.62724
G1 X91.208 Y144.384 E13.641
G1 X90.767 Y143.94 E13.66182
G1 X90.297 Y143.457 E13.68423
G1 X89.684 Y142.77 E13.71485
G1 X89.133 Y142.033 E13.74546
G1 X88.649 Y141.25 E13.77608
G1 X88.402 Y140.783 E13.79365
G1 X87.843 Y139.658 E13.83543
G1 X86.643 Y137.32 E13.92284
G1 X85.282 Y134.827 E14.01731
G1 X84.666 Y133.629 E14.06211
G1 X84.498 Y133.288 E14.07475
G1 X84.297 Y132.86 E14.09048
G1 X84.149 Y132.53 E14.10251
G1 X83.618 Y131.291 E14.14734
G1 X83.49 Y130.979 E14.15856
G1 X83.335 Y130.583 E14.17271
G1 X83.197 Y130.21 E14.18593
G1 X82.731 Y128.874 E14.23299
G1 X82.617 Y128.527 E14.24514
G1 X82.374 Y127.734 E14.27273
G1 X81.767 Y125.618 E14.34594
G1 X80.518 Y121.79 E14.47987
G1 X80.251 Y120.909 E14.51049
G1 X80.061 Y120.008 E14.54112
G1 X79.951 Y119.094 E14.57173
G1 X79.921 Y118.471 E14.59248
G1 X79.904 Y117.546 E14.62325
G1 X79.903 Y117.206 E14.63456
G1 X79.911 Y116.621 E14.65402
G1 X79.964 Y115.702 E14.68463
G1 X80.096 Y114.791 E14.71525
G1 X80.306 Y113.895 E14.74586
G1 X80.457 Y113.406 E14.76288
G1 X80.789 Y112.412 E14.79774
G1 X81.591 Y109.919 E14.88484
G1 X81.786 Y109.241 E14.9083
G1 X82.677 Y106.292 E15.01077
G1 X82.776 Y105.983 E15.02156
G1 X82.91 Y105.584 E15.03556
G1 X83.05 Y105.192 E15.0494
G1 X83.556 Y103.861 E15.09676
G1 X83.69 Y103.525 E15.1088
G1 X83.855 Y103.132 E15.12297
G1 X84.004 Y102.794 E15.13526
G1 X84.578 Y101.55 E15.18083
G1 X84.733 Y101.229 E15.19268
G1 X85.216 Y100.276 E15.22822
G1 X85.401 Y99.932 E15.24121
G1 X86.742 Y97.498 E15.33364
G1 X88.346 Y94.335 E15.45159
G1 X88.783 Y93.525 E15.4822
G1 X89.289 Y92.756 E15.51282
G1 X89.86 Y92.033 E15.54346
G1 X90.245 Y91.61 E15.56249
G1 X90.825 Y91.007 E15.59031
G1 X91.051 Y90.78 E15.60097
G0 F6000 X91.33 Y91.066
G1 F1200 X91.801 Y90.605 E15.62289
G1 X92.474 Y90.002 E15.65294
G1 X93.197 Y89.461 E15.68298
G1 X93.966 Y88.987 E15.71302
G1 X94.371 Y88.773 E15.72826
G1 X95.504 Y88.207 E15.77038
G1 X95.833 Y88.049 E15.78252
G1 X98.135 Y86.862 E15.86867
G1 X99.694 Y86.01 E15.92776
G1 X100.717 Y85.443 E15.96666
G1 X101.098 Y85.245 E15.98094
G1 X101.463 Y85.065 E15.99448
G1 X102.712 Y84.478 E16.04038
G1 X103.014 Y84.342 E16.05139
G1 X103.427 Y84.164 E16.06635
G1 X103.775 Y84.022 E16.07885
G1 X105.347 Y83.417 E16.13488
G1 X105.757 Y83.273 E16.14933
G1 X106.121 Y83.153 E16.16208
G1 X107.679 Y82.673 E16.2163
G1 X108.329 Y82.486 E16.23879
G1 X109.993 Y81.995 E16.2965
G1 X112.446 Y81.207 E16.38219
G1 X113.634 Y80.803 E16.42393
G1 X114.506 Y80.568 E16.45397
G1 X115.395 Y80.411 E16.48399
G1 X116.483 Y80.328 E16.52028
G1 X117.429 Y80.306 E16.55176
G1 X117.775 Y80.304 E16.56326
G1 X118.334 Y80.31 E16.58186
G1 X119.236 Y80.359 E16.6119
G1 X120.13 Y80.488 E16.64194
G1 X121.403 Y80.817 E16.68568
G1 X122.873 Y81.306 E16.7372
G1 X125.297 Y82.08 E16.82184
G1 X126.781 Y82.519 E16.87331
G1 X127.775 Y82.805 E16.90771
G1 X128.16 Y82.921 E16.92108
G1 X128.511 Y83.033 E16.93334
G1 X129.824 Y83.481 E16.97948
G1 X130.136 Y83.594 E16.99052
G1 X130.517 Y83.738 E17.00406
G1 X130.861 Y83.875 E17.01638
G1 X132.168 Y84.424 E17.06353
G1 X132.503 Y84.572 E17.07571
G1 X133.191 Y84.896 E17.101
G1 X134.402 Y85.507 E17.14612
G1 X134.72 Y85.675 E17.15808
G1 X136.092 Y86.429 E17.21015
G1 X138.451 Y87.684 E17.29902
G1 X140.334 Y88.617 E17.36892
G1 X140.715 Y88.813 E17.38317
G1 X141.499 Y89.261 E17.4132
G1 X142.24 Y89.777 E17.44324
