;FLAVOR:Marlin
;TIME:5256
;Filament used: 4.61135m
;Layer height: 0.28
;MINX:82.183
;MINY:79.359
;MINZ:0.28
;MAXX:158.179
;MAXY:155.349
;MAXZ:29.96
;Generated with Cura_SteamEngine master
M140 S50
M105
M190 S50
M104 S200
M105
M109 S200
M82 ;absolute extrusion mode
; Ender 3 Custom Start G-code
G92 E0 ; Reset Extruder
G28 ; Home all axes
G1 Z2.0 F3000 ; Move Z Axis up little to prevent scratching of Heat Bed
G1 X0.1 Y20 Z0.3 F5000.0 ; Move to start position
G1 X0.1 Y200.0 Z0.3 F1500.0 E15 ; Draw the first line
G1 X0.4 Y200.0 Z0.3 F5000.0 ; Move to side a little
G1 X0.4 Y20 Z0.3 F1500.0 E30 ; Draw the second line
G92 E0 ; Reset Extruder
G1 Z2.0 F3000 ; Move Z Axis up little to prevent scratching of Heat Bed
G1 X5 Y20 Z0.3 F5000.0 ; Move over to prevent blob squish
G92 E0
G92 E0
G1 F2700 E-5
;LAYER_COUNT:107
;LAYER:0
M107
G0 F6000 X93.372 Y90.428 Z0.28
;TYPE:SKIRT
G1 F2700 E0
G1 F1200 X93.895 Y89.913 E0.03418
G1 X94.591 Y89.284 E0.07786
G1 X95.337 Y88.717 E0.12149
G1 X96.13 Y88.215 E0.16519
G1 X96.663 Y87.928 E0.19338
G1 X97.716 Y87.398 E0.24827
G1 X98.389 Y87.073 E0.28308
G1 X100.621 Y85.913 E0.4002
G1 X101.872 Y85.228 E0.46662
G1 X102.739 Y84.744 E0.51285
G1 X103.044 Y84.58 E0.52898
G1 X103.44 Y84.375 E0.54974
G1 X103.809 Y84.193 E0.5689
G1 X105.019 Y83.623 E0.63118
G1 X105.335 Y83.48 E0.64733
G1 X105.746 Y83.302 E0.66819
G1 X106.14 Y83.14 E0.68802
G1 X107.473 Y82.623 E0.7546
G1 X107.848 Y82.486 E0.77319
G1 X108.249 Y82.347 E0.79295
G1 X108.603 Y82.231 E0.8103
G1 X110.094 Y81.772 E0.88294
G1 X111.853 Y81.264 E0.96819
G1 X114.337 Y80.483 E1.08944
G1 X115.866 Y79.964 E1.16463
G1 X116.766 Y79.701 E1.20829
G1 X117.685 Y79.515 E1.25195
G1 X118.617 Y79.408 E1.29563
G1 X119.144 Y79.383 E1.3202
G1 X120.077 Y79.361 E1.36366
G1 X120.448 Y79.359 E1.38093
G1 X121.037 Y79.365 E1.40836
G1 X121.974 Y79.414 E1.45205
G1 X122.903 Y79.543 E1.49572
G1 X123.817 Y79.751 E1.53937
G1 X124.388 Y79.923 E1.56714
G1 X125.754 Y80.377 E1.63417
G1 X126.171 Y80.521 E1.65471
G1 X129.659 Y81.598 E1.82469
G1 X130.75 Y81.912 E1.87755
G1 X131.109 Y82.021 E1.89502
G1 X131.46 Y82.134 E1.91219
G1 X132.743 Y82.571 E1.97531
G1 X133.089 Y82.696 E1.99244
G1 X133.496 Y82.85 E2.0127
G1 X133.866 Y82.997 E2.03124
G1 X135.153 Y83.538 E2.09625
G1 X135.486 Y83.685 E2.1132
G1 X135.86 Y83.857 E2.13236
G1 X136.225 Y84.033 E2.15123
G1 X137.46 Y84.657 E2.21566
G1 X137.797 Y84.835 E2.23341
G1 X139.179 Y85.595 E2.30685
G1 X141.476 Y86.816 E2.42798
G1 X143.223 Y87.68 E2.51873
G1 X143.741 Y87.945 E2.54583
G1 X144.557 Y88.407 E2.58949
G1 X145.331 Y88.938 E2.6332
G1 X146.183 Y89.647 E2.68481
G1 X146.398 Y89.845 E2.69842
G1 X146.713 Y90.147 E2.71874
G1 X147.197 Y90.631 E2.75061
G1 X147.678 Y91.126 E2.78275
G1 X148.302 Y91.826 E2.82642
G1 X148.865 Y92.577 E2.87012
G1 X149.361 Y93.372 E2.91375
G1 X149.646 Y93.909 E2.94206
G1 X150.197 Y95.021 E2.99985
G1 X151.401 Y97.369 E3.12272
G1 X152.322 Y99.058 E3.2123
G1 X152.564 Y99.49 E3.23535
G1 X152.751 Y99.839 E3.25379
G1 X153.377 Y101.057 E3.31756
G1 X153.548 Y101.402 E3.33549
G1 X153.731 Y101.791 E3.35551
G1 X153.886 Y102.137 E3.37316
G1 X154.55 Y103.697 E3.45211
G1 X154.719 Y104.127 E3.47362
G1 X154.869 Y104.532 E3.49373
G1 X155.317 Y105.818 E3.55714
G1 X155.434 Y106.173 E3.57455
G1 X155.695 Y107.023 E3.61595
G1 X156.291 Y109.1 E3.71657
G1 X157.552 Y112.967 E3.90596
G1 X157.822 Y113.865 E3.94963
G1 X158.015 Y114.783 E3.99331
G1 X158.129 Y115.714 E4.03698
G1 X158.161 Y116.373 E4.0677
G1 X158.178 Y117.267 E4.10934
G1 X158.179 Y117.638 E4.12661
G1 X158.17 Y118.249 E4.15507
G1 X158.116 Y119.185 E4.19873
G1 X157.983 Y120.114 E4.24242
G1 X157.771 Y121.027 E4.28607
G1 X157.599 Y121.587 E4.31335
G1 X157.294 Y122.496 E4.35799
G1 X156.481 Y125.023 E4.4816
G1 X156.289 Y125.688 E4.51383
G1 X155.291 Y128.981 E4.67405
G1 X155.161 Y129.37 E4.69315
G1 X155.01 Y129.793 E4.71407
G1 X154.5 Y131.134 E4.78087
G1 X154.359 Y131.486 E4.79853
G1 X154.193 Y131.881 E4.81848
G1 X154.04 Y132.228 E4.83614
G1 X153.477 Y133.448 E4.8987
G1 X153.328 Y133.758 E4.91472
G1 X153.125 Y134.164 E4.93586
G1 X152.928 Y134.539 E4.95558
G1 X151.936 Y136.347 E5.05161
G1 X150.726 Y138.626 E5.17176
G1 X149.641 Y140.803 E5.28502
G1 X149.187 Y141.623 E5.32866
G1 X148.665 Y142.403 E5.37237
G1 X148.079 Y143.135 E5.41603
G1 X147.723 Y143.523 E5.44055
G1 X147.167 Y144.101 E5.47789
G1 X146.943 Y144.326 E5.49268
G1 X146.463 Y144.797 E5.52399
G1 X145.766 Y145.425 E5.56768
G1 X145.019 Y145.991 E5.61132
G1 X144.225 Y146.492 E5.65503
G1 X143.747 Y146.75 E5.68033
G1 X142.601 Y147.329 E5.74011
G1 X142.218 Y147.512 E5.75988
G1 X139.938 Y148.689 E5.87936
G1 X138.459 Y149.497 E5.95783
G1 X137.611 Y149.971 E6.00307
G1 X137.277 Y150.15 E6.02071
G1 X136.892 Y150.348 E6.04087
G1 X136.544 Y150.52 E6.05895
G1 X135.309 Y151.101 E6.1225
G1 X134.977 Y151.25 E6.13945
G1 X134.559 Y151.43 E6.16064
G1 X134.189 Y151.581 E6.17925
G1 X132.95 Y152.062 E6.24113
G1 X132.618 Y152.185 E6.25762
G1 X132.2 Y152.332 E6.27825
G1 X131.799 Y152.464 E6.29791
G1 X130.232 Y152.947 E6.37426
G1 X128.652 Y153.402 E6.45082
G1 X126.21 Y154.163 E6.56993
G1 X124.486 Y154.747 E6.65469
G1 X123.586 Y155.01 E6.69835
G1 X122.667 Y155.195 E6.742
G1 X121.735 Y155.301 E6.78567
G1 X121.218 Y155.325 E6.80977
G1 X120.285 Y155.347 E6.85323
G1 X119.913 Y155.349 E6.87055
G1 X119.33 Y155.343 E6.8977
G1 X118.393 Y155.294 E6.94139
G1 X117.464 Y155.165 E6.98506
G1 X116.55 Y154.957 E7.02871
G1 X115.999 Y154.791 E7.05551
G1 X114.733 Y154.372 E7.1176
G1 X114.382 Y154.25 E7.13491
G1 X110.663 Y153.1 E7.31617
G1 X109.401 Y152.733 E7.37737
G1 X108.922 Y152.582 E7.40075
G1 X107.343 Y152.039 E7.4785
G1 X106.933 Y151.886 E7.49888
G1 X106.507 Y151.716 E7.52024
G1 X105.195 Y151.163 E7.58654
G1 X104.864 Y151.018 E7.60336
G1 X104.482 Y150.842 E7.62295
G1 X104.13 Y150.672 E7.64115
G1 X102.919 Y150.061 E7.70431
G1 X102.577 Y149.881 E7.72231
G1 X101.166 Y149.106 E7.79727
G1 X98.876 Y147.888 E7.91804
G1 X96.737 Y146.823 E8.02931
G1 X95.916 Y146.37 E8.07297
G1 X95.137 Y145.848 E8.11663
G1 X94.196 Y145.076 E8.17331
G1 X93.937 Y144.838 E8.18969
G1 X93.602 Y144.516 E8.21132
G1 X93.154 Y144.066 E8.24089
G1 X92.687 Y143.585 E8.27211
G1 X92.063 Y142.885 E8.31577
G1 X91.501 Y142.135 E8.35941
G1 X91.005 Y141.339 E8.40309
G1 X90.732 Y140.826 E8.43015
G1 X90.172 Y139.701 E8.48866
G1 X88.957 Y137.333 E8.61259
G1 X88.012 Y135.601 E8.70447
G1 X87.478 Y134.64 E8.75566
G1 X87.208 Y134.115 E8.78315
G1 X86.79 Y133.255 E8.82767
G1 X86.6 Y132.848 E8.84859
G1 X86.457 Y132.529 E8.86487
G1 X85.94 Y131.323 E8.92596
G1 X85.811 Y131.008 E8.94181
G1 X85.643 Y130.58 E8.96322
G1 X85.493 Y130.175 E8.98333
G1 X85.046 Y128.89 E9.04669
G1 X84.932 Y128.546 E9.06356
G1 X84.678 Y127.721 E9.10376
G1 X84.073 Y125.614 E9.20583
G1 X82.81 Y121.74 E9.39557
G1 X82.54 Y120.842 E9.43923
G1 X82.347 Y119.924 E9.48291
G1 X82.233 Y118.993 E9.52659
G1 X82.201 Y118.334 E9.55731
G1 X82.184 Y117.441 E9.5989
G1 X82.183 Y117.07 E9.61617
G1 X82.192 Y116.46 E9.64458
G1 X82.246 Y115.523 E9.68828
G1 X82.379 Y114.595 E9.73194
G1 X82.591 Y113.681 E9.77562
G1 X82.761 Y113.126 E9.80265
G1 X83.098 Y112.12 E9.85206
G1 X83.878 Y109.695 E9.97067
G1 X84.073 Y109.017 E10.00352
G1 X84.974 Y106.034 E10.14862
G1 X85.081 Y105.699 E10.165
G1 X85.222 Y105.281 E10.18554
G1 X85.36 Y104.897 E10.20454
G1 X85.845 Y103.618 E10.26823
G1 X85.984 Y103.269 E10.28572
G1 X86.167 Y102.832 E10.30778
G1 X86.325 Y102.471 E10.32613
G1 X87.011 Y100.995 E10.40192
G1 X87.208 Y100.598 E10.42256
G1 X87.421 Y100.191 E10.44395
G1 X88.443 Y98.33 E10.54281
G1 X89.656 Y96.048 E10.66315
G1 X90.725 Y93.901 E10.77483
G1 X91.178 Y93.08 E10.81849
G1 X91.7 Y92.301 E10.86216
G1 X92.286 Y91.569 E10.90582
G1 X92.647 Y91.175 E10.9307
G1 X93.372 Y90.428 E10.97917
G0 F6000 X93.653 Y90.713
G1 F1200 X94.176 Y90.198 E11.01335
G1 X94.859 Y89.581 E11.05621
G1 X95.593 Y89.026 E11.09906
G1 X96.373 Y88.537 E11.14193
G1 X96.843 Y88.285 E11.16676
G1 X97.891 Y87.759 E11.22136
G1 X98.527 Y87.452 E11.25424
G1 X100.819 Y86.261 E11.37452
G1 X102.095 Y85.562 E11.44227
G1 X102.934 Y85.094 E11.487
G1 X103.228 Y84.936 E11.50254
G1 X103.624 Y84.731 E11.52331
G1 X103.98 Y84.555 E11.5418
G1 X105.494 Y83.847 E11.61962
G1 X105.905 Y83.669 E11.64048
G1 X106.285 Y83.513 E11.65961
G1 X107.618 Y82.996 E11.72618
G1 X107.979 Y82.864 E11.74408
G1 X108.38 Y82.725 E11.76384
G1 X108.721 Y82.613 E11.78055
G1 X110.204 Y82.157 E11.8528
G1 X112 Y81.638 E11.93985
G1 X114.446 Y80.869 E12.05924
G1 X115.994 Y80.343 E12.13537
G1 X116.878 Y80.085 E12.17825
G1 X117.781 Y79.905 E12.22113
G1 X119.153 Y79.783 E12.28526
G1 X120.086 Y79.761 E12.32872
G1 X120.444 Y79.759 E12.34539
G1 X121.033 Y79.765 E12.37282
G1 X121.952 Y79.814 E12.41567
G1 X122.864 Y79.943 E12.45856
G1 X123.761 Y80.15 E12.50143
G1 X124.262 Y80.303 E12.52582
G1 X125.623 Y80.755 E12.5926
G1 X126.04 Y80.899 E12.61314
G1 X129.527 Y81.976 E12.78308
G1 X130.634 Y82.295 E12.83672
G1 X130.993 Y82.404 E12.85419
G1 X131.331 Y82.513 E12.87073
G1 X132.614 Y82.95 E12.93384
G1 X132.947 Y83.07 E12.95032
G1 X133.354 Y83.224 E12.97059
G1 X133.711 Y83.366 E12.98848
G1 X134.998 Y83.907 E13.05348
G1 X135.319 Y84.049 E13.06983
G1 X135.693 Y84.221 E13.089
G1 X136.044 Y84.39 E13.10714
G1 X137.279 Y85.014 E13.17157
G1 X137.604 Y85.185 E13.18867
G1 X139.006 Y85.955 E13.26315
G1 X141.303 Y87.177 E13.3843
G1 X143.041 Y88.036 E13.47457
G1 X143.559 Y88.301 E13.50167
G1 X144.359 Y88.756 E13.54452
G1 X145.118 Y89.278 E13.58741
G1 X145.912 Y89.941 E13.63558
G1 X146.127 Y90.139 E13.64919
G1 X146.431 Y90.43 E13.66879
G1 X146.91 Y90.91 E13.70036
G1 X147.391 Y91.405 E13.7325
G1 X148.003 Y92.092 E13.77534
G1 X148.554 Y92.83 E13.81823
G1 X149.038 Y93.614 E13.86113
G1 X149.287 Y94.087 E13.88602
G1 X149.826 Y95.175 E13.94256
G1 X151.035 Y97.531 E14.06587
G1 X151.999 Y99.301 E14.15972
G1 X152.215 Y99.686 E14.18027
G1 X152.396 Y100.022 E14.19804
G1 X153.022 Y101.24 E14.26181
G1 X153.186 Y101.573 E14.27909
G1 X153.369 Y101.962 E14.29911
G1 X153.518 Y102.295 E14.3161
G1 X154.053 Y103.542 E14.37928
G1 X154.177 Y103.844 E14.39449
G1 X154.346 Y104.274 E14.416
G1 X154.491 Y104.664 E14.43537
G1 X154.939 Y105.95 E14.49878
G1 X155.052 Y106.292 E14.51556
G1 X155.31 Y107.133 E14.55652
G1 X155.91 Y109.225 E14.65786
G1 X157.174 Y113.099 E14.84761
G1 X157.439 Y113.98 E14.89045
G1 X157.626 Y114.882 E14.93334
G1 X157.734 Y115.796 E14.9762
G1 X157.761 Y116.38 E15.00342
G1 X157.778 Y117.274 E15.04505
G1 X157.779 Y117.632 E15.06172
G1 X157.77 Y118.243 E15.09018
G1 X157.716 Y119.162 E15.13304
G1 X157.583 Y120.073 E15.17591
G1 X157.372 Y120.969 E15.21878
G1 X157.22 Y121.459 E15.24267
G1 X156.913 Y122.373 E15.28756
G1 X156.097 Y124.908 E15.41157
G1 X155.906 Y125.573 E15.44378
G1 X154.911 Y128.854 E15.60343
G1 X154.781 Y129.243 E15.62253
G1 X154.636 Y129.651 E15.64269
G1 X154.126 Y130.992 E15.7095
G1 X153.99 Y131.331 E15.72651
G1 X153.824 Y131.726 E15.74646
G1 X153.677 Y132.061 E15.76349
G1 X153.114 Y133.281 E15.82606
G1 X152.97 Y133.579 E15.84147
G1 X152.767 Y133.985 E15.8626
G1 X152.578 Y134.346 E15.88158
G1 X151.591 Y136.144 E15.97709
G1 X150.356 Y138.47 E16.09971
G1 X149.283 Y140.624 E16.21177
G1 X148.837 Y141.43 E16.25466
G1 X148.322 Y142.193 E16.29753
G1 X147.434 Y143.246 E16.36167
G1 X146.663 Y144.041 E16.41323
G1 X146.183 Y144.512 E16.44455
G1 X145.499 Y145.128 E16.48741
G1 X144.763 Y145.682 E16.53031
G1 X143.983 Y146.17 E16.57315
G1 X143.566 Y146.393 E16.59517
G1 X142.429 Y146.969 E16.65452
G1 X142.001 Y147.174 E16.67662
G1 X139.758 Y148.331 E16.79414
G1 X138.293 Y149.132 E16.87188
G1 X137.416 Y149.622 E16.91866
G1 X137.094 Y149.794 E16.93566
G1 X136.709 Y149.992 E16.95582
G1 X136.373 Y150.158 E16.97327
G1 X135.138 Y150.739 E17.03682
G1 X134.818 Y150.883 E17.05316
G1 X134.4 Y151.063 E17.07435
G1 X134.044 Y151.208 E17.09225
G1 X132.486 Y151.808 E17.16999
G1 X132.068 Y151.955 E17.19063
G1 X131.681 Y152.082 E17.20959
G1 X130.121 Y152.562 E17.28559
G1 X128.562 Y153.011 E17.36114
G1 X126.089 Y153.782 E17.48176
G1 X124.358 Y154.368 E17.56685
G1 X123.474 Y154.625 E17.60972
G1 X122.571 Y154.805 E17.65259
G1 X121.209 Y154.925 E17.71626
G1 X120.276 Y154.947 E17.75972
G1 X119.917 Y154.949 E17.77643
G1 X119.334 Y154.943 E17.80358
G1 X118.415 Y154.894 E17.84644
G1 X117.503 Y154.765 E17.88932
G1 X116.606 Y154.557 E17.9322
G1 X116.124 Y154.411 E17.95565
G1 X114.864 Y153.994 E18.01745
G1 X114.513 Y153.872 E18.03476
G1 X110.783 Y152.719 E18.21655
G1 X109.512 Y152.349 E18.27819
G1 X109.051 Y152.203 E18.30071
G1 X107.483 Y151.664 E18.37791
G1 X107.073 Y151.511 E18.39829
G1 X106.662 Y151.348 E18.41888
G1 X105.35 Y150.795 E18.48517
G1 X105.031 Y150.654 E18.50141
G1 X104.649 Y150.478 E18.521
G1 X104.31 Y150.315 E18.53851
G1 X103.099 Y149.704 E18.60167
G1 X102.77 Y149.53 E18.619
G1 X101.397 Y148.775 E18.69197
G1 X99.063 Y147.534 E18.81505
G1 X96.915 Y146.465 E18.92678
G1 X96.11 Y146.02 E18.96961
G1 X95.346 Y145.506 E19.01248
G1 X94.467 Y144.781 E19.06554
G1 X94.208 Y144.543 E19.08192
G1 X93.885 Y144.233 E19.10276
G1 X93.441 Y143.788 E19.13203
G1 X92.974 Y143.307 E19.16325
G1 X92.362 Y142.619 E19.20613
G1 X91.812 Y141.881 E19.24899
G1 X91.328 Y141.098 E19.29185
G1 X91.09 Y140.648 E19.31555
G1 X90.495 Y139.453 E19.37771
G1 X89.323 Y137.17 E19.49721
G1 X88.354 Y135.394 E19.59142
G1 X87.833 Y134.455 E19.64142
G1 X87.567 Y133.939 E19.66845
G1 X87.152 Y133.086 E19.71262
G1 X86.824 Y132.372 E19.74921
G1 X86.307 Y131.166 E19.81031
G1 X86.183 Y130.862 E19.8256
G1 X86.015 Y130.434 E19.847
G1 X85.87 Y130.044 E19.86638
G1 X85.423 Y128.759 E19.92973
G1 X85.314 Y128.427 E19.946
G1 X85.063 Y127.611 E19.98576
G1 X84.462 Y125.517 E20.0872
G1 X83.188 Y121.609 E20.2786
G1 X82.923 Y120.727 E20.32148
G1 X82.736 Y119.825 E20.36437
G1 X82.628 Y118.911 E20.40723
G1 X82.601 Y118.327 E20.43445
G1 X82.584 Y117.434 E20.47604
G1 X82.583 Y117.076 E20.49271
G1 X82.592 Y116.466 E20.52112
G1 X82.646 Y115.547 E20.56398
G1 X82.779 Y114.636 E20.60685
G1 X82.99 Y113.74 E20.64972
G1 X83.141 Y113.253 E20.67346
G1 X83.463 Y112.291 E20.7207
G1 X84.264 Y109.801 E20.84249
G1 X84.456 Y109.133 E20.87486
G1 X85.357 Y106.15 E21.01996
G1 X85.46 Y105.827 E21.03574
G1 X85.601 Y105.409 E21.05628
G1 X85.734 Y105.039 E21.07459
G1 X86.219 Y103.76 E21.13829
G1 X86.353 Y103.424 E21.15513
G1 X86.536 Y102.987 E21.17719
G1 X86.689 Y102.639 E21.19489
G1 X87.37 Y101.173 E21.27016
G1 X87.567 Y100.776 E21.2908
G1 X87.772 Y100.384 E21.3114
G1 X88.774 Y98.559 E21.40834
G1 X90.017 Y96.22 E21.53168
G1 X91.083 Y94.08 E21.643
G1 X91.528 Y93.274 E21.68588
G1 X92.042 Y92.51 E21.72875
G1 X92.621 Y91.794 E21.77163
G1 X92.935 Y91.453 E21.79321
G1 X93.653 Y90.713 E21.84123
G0 F6000 X93.933 Y90.998
G1 F1200 X94.456 Y90.483 E21.8754
G1 X95.127 Y89.879 E21.91744
G1 X95.849 Y89.336 E21.95951
G1 X96.616 Y88.859 E22.00157
G1 X97.023 Y88.642 E22.02304
G1 X98.065 Y88.119 E22.07733
G1 X98.721 Y87.802 E22.11126
G1 X100.998 Y86.619 E22.23074
G1 X102.262 Y85.927 E22.29784
G1 X103.129 Y85.443 E22.34408
G1 X103.412 Y85.291 E22.35903
G1 X103.808 Y85.086 E22.3798
G1 X104.15 Y84.917 E22.39756
G1 X105.653 Y84.214 E22.47482
G1 X106.064 Y84.036 E22.49568
G1 X106.43 Y83.886 E22.5141
G1 X107.763 Y83.369 E22.58067
G1 X108.11 Y83.242 E22.59788
G1 X108.511 Y83.103 E22.61764
G1 X108.839 Y82.995 E22.63372
G1 X110.314 Y82.541 E22.70558
G1 X112.091 Y82.028 E22.79171
G1 X114.607 Y81.237 E22.91451
G1 X116.123 Y80.722 E22.98907
G1 X116.99 Y80.47 E23.03111
G1 X117.876 Y80.295 E23.07316
G1 X119.163 Y80.183 E23.13332
G1 X120.096 Y80.161 E23.17677
G1 X120.44 Y80.159 E23.19279
G1 X121.029 Y80.165 E23.22022
G1 X121.931 Y80.214 E23.26228
G1 X122.825 Y80.342 E23.30434
G1 X123.704 Y80.55 E23.3464
G1 X124.136 Y80.683 E23.36744
G1 X125.492 Y81.133 E23.43397
G1 X125.908 Y81.277 E23.45447
G1 X129.455 Y82.372 E23.62732
G1 X130.517 Y82.678 E23.67879
G1 X130.876 Y82.787 E23.69626
G1 X131.202 Y82.892 E23.7122
G1 X132.485 Y83.329 E23.77532
G1 X132.806 Y83.444 E23.79119
G1 X133.213 Y83.598 E23.81146
G1 X133.556 Y83.735 E23.82866
G1 X134.843 Y84.276 E23.89366
G1 X135.152 Y84.412 E23.90938
G1 X135.526 Y84.584 E23.92855
G1 X135.864 Y84.747 E23.94602
G1 X137.099 Y85.371 E24.01046
G1 X137.411 Y85.536 E24.02689
G1 X138.743 Y86.268 E24.09766
