;FLAVOR:Marlin
;TIME:6239
;Filament used: 2.76224m
;Layer height: 0.12
;MINX:86.5
;MINY:101.444
;MINZ:0.12
;MAXX:148.5
;MAXY:158.287
;MAXZ:9.36
;Generated with Cura_SteamEngine master
M140 S50
M105
M190 S50
M104 S210
M105
M109 S210
M82 ;absolute extrusion mode
; Ender 3 Custom Start G-code
G92 E0 ; Reset Extruder
G28 ; Home all axes
G1 Z2.0 F3000 ; Move Z Axis up little to prevent scratching of Heat Bed
G1 X0.1 Y20 Z0.3 F5000.0 ; Move to start position
G1 X0.1 Y200.0 Z0.3 F1500.0 E15 ; Draw the first line
G1 X0.4 Y200.0 Z0.3 F5000.0 ; Move to side a little
G1 X0.4 Y20 Z0.3 F1500.0 E30 ; Draw the second line
G92 E0 ; Reset Extruder
G1 Z2.0 F3000 ; Move Z Axis up little to prevent scratching of Heat Bed
G1 X5 Y20 Z0.3 F5000.0 ; Move over to prevent blob squish
G92 E0
G92 E0
G1 F2700 E-5
;LAYER_COUNT:80
;LAYER:0
M107
G0 F6000 X90.397 Y104.063 Z0.12
;TYPE:SKIRT
G1 F2700 E0
G1 F1200 X91.138 Y103.488 E0.01872
G1 X91.925 Y102.978 E0.03743
G1 X92.752 Y102.536 E0.05615
G1 X93.614 Y102.167 E0.07486
G1 X94.505 Y101.872 E0.09359
G1 X95.417 Y101.655 E0.1123
G1 X96.345 Y101.516 E0.13102
G1 X97.183 Y101.459 E0.14778
G1 X97.486 Y101.45 E0.15383
G1 X97.813 Y101.445 E0.16036
G1 X136.792 Y101.444 E0.93823
G1 X137.648 Y101.455 E0.95531
G1 X138.584 Y101.509 E0.97402
G1 X139.512 Y101.641 E0.99273
G1 X140.426 Y101.853 E1.01145
G1 X141.318 Y102.142 E1.03016
G1 X142.183 Y102.505 E1.04888
G1 X143.013 Y102.941 E1.06759
G1 X143.804 Y103.446 E1.08632
G1 X144.548 Y104.017 E1.10504
G1 X145.241 Y104.649 E1.12375
G1 X145.878 Y105.337 E1.14246
G1 X146.453 Y106.078 E1.16118
G1 X146.964 Y106.864 E1.17989
G1 X147.406 Y107.692 E1.19862
G1 X147.775 Y108.554 E1.21733
G1 X148.07 Y109.444 E1.23604
G1 X148.288 Y110.356 E1.25476
G1 X148.428 Y111.284 E1.27349
G1 X148.485 Y112.131 E1.29043
G1 X148.495 Y112.471 E1.29721
G1 X148.5 Y112.794 E1.30366
G1 X148.499 Y122.006 E1.4875
G1 X148.489 Y122.701 E1.50137
G1 X148.463 Y123.31 E1.51353
G1 X148.454 Y123.437 E1.51607
G1 X148.308 Y126.025 E1.5678
G1 X148.236 Y128.52 E1.61761
G1 X148.236 Y131.037 E1.66784
G1 X148.307 Y133.599 E1.71899
G1 X148.473 Y136.563 E1.77823
G1 X148.487 Y136.906 E1.78508
G1 X148.497 Y137.325 E1.79345
G1 X148.5 Y137.587 E1.79867
G1 X148.499 Y146.702 E1.98057
G1 X148.489 Y147.429 E1.99508
G1 X148.436 Y148.366 E2.01381
G1 X148.304 Y149.294 E2.03252
G1 X148.093 Y150.208 E2.05124
G1 X147.804 Y151.1 E2.06995
G1 X147.441 Y151.965 E2.08867
G1 X147.006 Y152.796 E2.10739
G1 X146.501 Y153.586 E2.1261
G1 X145.931 Y154.331 E2.14482
G1 X145.3 Y155.025 E2.16354
G1 X144.611 Y155.662 E2.18226
G1 X143.871 Y156.238 E2.20098
G1 X143.085 Y156.749 E2.21969
G1 X142.258 Y157.191 E2.2384
G1 X141.396 Y157.561 E2.25712
G1 X140.506 Y157.856 E2.27583
G1 X139.594 Y158.075 E2.29455
G1 X138.667 Y158.215 E2.31326
G1 X137.799 Y158.274 E2.33062
G1 X137.479 Y158.283 E2.33701
G1 X137.17 Y158.287 E2.34317
G1 X98.046 Y158.287 E3.12394
G1 X97.365 Y158.277 E3.13753
G1 X96.429 Y158.223 E3.15624
G1 X95.501 Y158.09 E3.17495
G1 X94.587 Y157.878 E3.19367
G1 X93.695 Y157.589 E3.21238
G1 X92.831 Y157.225 E3.23109
G1 X92 Y156.789 E3.24982
G1 X91.21 Y156.283 E3.26854
G1 X90.466 Y155.713 E3.28724
G1 X89.773 Y155.081 E3.30596
G1 X89.333 Y154.617 E3.31872
G1 X88.736 Y153.893 E3.33745
G1 X88.202 Y153.122 E3.35616
G1 X87.737 Y152.308 E3.37487
G1 X87.342 Y151.457 E3.3936
G1 X87.021 Y150.576 E3.41231
G1 X86.777 Y149.67 E3.43103
G1 X86.61 Y148.747 E3.44975
G1 X86.513 Y147.557 E3.47358
G1 X86.505 Y147.263 E3.47945
G1 X86.501 Y146.965 E3.48539
G1 X86.501 Y137.726 E3.66977
G1 X86.511 Y137.031 E3.68364
G1 X86.537 Y136.422 E3.6958
G1 X86.546 Y136.295 E3.69834
G1 X86.692 Y133.707 E3.75007
G1 X86.764 Y131.208 E3.79996
G1 X86.764 Y128.688 E3.85025
G1 X86.693 Y126.133 E3.90126
G1 X86.603 Y124.563 E3.93264
G1 X86.526 Y123.156 E3.96076
G1 X86.513 Y122.823 E3.96741
G1 X86.503 Y122.413 E3.9756
G1 X86.5 Y122.145 E3.98095
G1 X86.501 Y112.969 E4.16406
G1 X86.511 Y112.292 E4.17757
G1 X86.565 Y111.355 E4.1963
G1 X86.698 Y110.427 E4.21501
G1 X86.91 Y109.513 E4.23374
G1 X87.199 Y108.621 E4.25245
G1 X87.563 Y107.757 E4.27116
G1 X88 Y106.926 E4.2899
G1 X88.505 Y106.136 E4.30861
G1 X89.076 Y105.392 E4.32732
G1 X89.708 Y104.7 E4.34602
G1 X90.397 Y104.063 E4.36475
G0 F6000 X90.786 Y104.26
G1 F1200 X91.522 Y103.707 E4.38312
G1 X92.303 Y103.221 E4.40148
G1 X93.124 Y102.804 E4.41986
G1 X93.978 Y102.46 E4.43823
G1 X94.859 Y102.191 E4.45661
G1 X95.759 Y102 E4.47497
G1 X96.673 Y101.887 E4.49335
G1 X97.195 Y101.859 E4.50378
G1 X97.498 Y101.85 E4.50983
G1 X97.813 Y101.845 E4.51612
G1 X136.792 Y101.844 E5.29399
G1 X137.642 Y101.855 E5.31095
G1 X138.561 Y101.908 E5.32932
G1 X139.472 Y102.041 E5.34769
G1 X140.368 Y102.252 E5.36606
G1 X141.242 Y102.54 E5.38443
G1 X142.089 Y102.903 E5.40282
G1 X142.9 Y103.338 E5.42118
G1 X143.67 Y103.842 E5.43955
G1 X144.394 Y104.411 E5.45792
G1 X145.066 Y105.041 E5.47631
G1 X145.681 Y105.726 E5.49468
G1 X146.234 Y106.462 E5.51305
G1 X146.721 Y107.243 E5.53142
G1 X147.138 Y108.064 E5.54979
G1 X147.483 Y108.918 E5.56817
G1 X147.752 Y109.798 E5.58654
G1 X147.944 Y110.699 E5.60492
G1 X148.057 Y111.612 E5.62328
G1 X148.085 Y112.142 E5.63387
G1 X148.095 Y112.482 E5.64066
G1 X148.1 Y112.794 E5.64689
G1 X148.099 Y122.001 E5.83062
G1 X148.089 Y122.696 E5.84449
G1 X148.064 Y123.282 E5.8562
G1 X147.909 Y125.991 E5.91035
G1 X147.836 Y128.544 E5.96132
G1 X147.836 Y131.048 E6.01129
G1 X147.906 Y133.579 E6.06181
G1 X148.074 Y136.585 E6.1219
G1 X148.087 Y136.915 E6.12849
G1 X148.097 Y137.334 E6.13685
G1 X148.1 Y137.587 E6.1419
G1 X148.099 Y146.697 E6.3237
G1 X148.089 Y147.424 E6.33821
G1 X148.036 Y148.343 E6.35658
G1 X147.904 Y149.254 E6.37495
G1 X147.693 Y150.15 E6.39332
G1 X147.406 Y151.025 E6.4117
G1 X147.043 Y151.871 E6.43007
G1 X146.609 Y152.683 E6.44844
G1 X146.105 Y153.454 E6.46682
G1 X145.537 Y154.178 E6.48519
G1 X144.908 Y154.85 E6.50356
G1 X144.223 Y155.465 E6.52193
G1 X143.487 Y156.018 E6.5403
G1 X142.706 Y156.506 E6.55868
G1 X141.886 Y156.924 E6.57704
G1 X141.032 Y157.269 E6.59542
G1 X140.152 Y157.538 E6.61379
G1 X139.251 Y157.731 E6.63218
G1 X138.338 Y157.844 E6.65053
G1 X137.788 Y157.874 E6.66153
G1 X137.468 Y157.883 E6.66792
G1 X137.17 Y157.887 E6.67386
G1 X98.052 Y157.887 E7.4545
G1 X97.371 Y157.877 E7.4681
G1 X96.452 Y157.823 E7.48647
G1 X95.541 Y157.69 E7.50484
G1 X94.645 Y157.479 E7.52321
G1 X93.771 Y157.19 E7.54158
G1 X92.925 Y156.827 E7.55995
G1 X92.114 Y156.392 E7.57832
G1 X91.343 Y155.888 E7.5967
G1 X90.62 Y155.318 E7.61507
G1 X89.648 Y154.369 E7.64218
G1 X89.044 Y153.639 E7.66109
G1 X88.523 Y152.88 E7.67946
G1 X88.069 Y152.079 E7.69783
G1 X87.686 Y151.242 E7.7162
G1 X87.377 Y150.374 E7.73459
G1 X87.145 Y149.484 E7.75294
G1 X86.991 Y148.576 E7.77132
G1 X86.913 Y147.546 E7.79194
G1 X86.905 Y147.252 E7.79781
G1 X86.901 Y146.965 E7.80353
G1 X86.901 Y137.731 E7.98781
G1 X86.911 Y137.036 E8.00168
G1 X86.936 Y136.45 E8.01338
G1 X87.091 Y133.74 E8.06755
G1 X87.164 Y131.188 E8.1185
G1 X87.164 Y128.677 E8.16861
G1 X87.093 Y126.133 E8.2194
G1 X86.926 Y123.134 E8.27934
G1 X86.913 Y122.813 E8.28575
G1 X86.903 Y122.403 E8.29394
G1 X86.9 Y122.145 E8.29909
G1 X86.901 Y112.974 E8.4821
G1 X86.911 Y112.297 E8.49562
G1 X86.965 Y111.378 E8.51399
G1 X87.098 Y110.467 E8.53236
G1 X87.309 Y109.571 E8.55073
G1 X87.598 Y108.697 E8.5691
G1 X87.961 Y107.851 E8.58747
G1 X88.397 Y107.04 E8.60585
G1 X88.901 Y106.27 E8.62421
G1 X89.47 Y105.546 E8.64259
G1 X90.1 Y104.874 E8.66097
G1 X90.786 Y104.26 E8.67934
G0 F6000 X91.173 Y104.461
G1 F1200 X91.905 Y103.932 E8.69737
G1 X92.681 Y103.47 E8.71539
G1 X93.494 Y103.078 E8.7334
G1 X94.34 Y102.759 E8.75144
G1 X95.21 Y102.517 E8.76946
G1 X96.098 Y102.352 E8.78749
G1 X97.207 Y102.258 E8.8097
G1 X97.51 Y102.249 E8.81575
G1 X97.813 Y102.245 E8.8218
G1 X136.792 Y102.244 E9.59966
G1 X137.636 Y102.255 E9.61651
G1 X138.538 Y102.308 E9.63454
G1 X139.431 Y102.44 E9.65255
G1 X140.309 Y102.651 E9.67057
G1 X141.165 Y102.939 E9.6886
G1 X141.992 Y103.301 E9.70661
G1 X142.784 Y103.736 E9.72464
G1 X143.535 Y104.238 E9.74267
G1 X144.238 Y104.805 E9.7607
G1 X144.888 Y105.432 E9.77872
G1 X145.48 Y106.114 E9.79674
G1 X146.01 Y106.845 E9.81476
G1 X146.472 Y107.621 E9.83278
G1 X146.865 Y108.434 E9.8508
G1 X147.183 Y109.279 E9.86882
G1 X147.426 Y110.149 E9.88685
G1 X147.591 Y111.037 E9.90487
G1 X147.686 Y112.154 E9.92724
G1 X147.696 Y112.494 E9.93403
G1 X147.7 Y112.794 E9.94002
G1 X147.699 Y121.995 E10.12363
G1 X147.689 Y122.69 E10.1375
G1 X147.665 Y123.254 E10.14877
G1 X147.509 Y125.98 E10.20326
G1 X147.436 Y128.524 E10.25405
G1 X147.436 Y131.06 E10.30466
G1 X147.507 Y133.596 E10.35528
G1 X147.675 Y136.607 E10.41547
G1 X147.687 Y136.925 E10.42182
G1 X147.697 Y137.344 E10.43018
G1 X147.7 Y137.587 E10.43503
G1 X147.699 Y146.691 E10.61671
G1 X147.689 Y147.418 E10.63122
G1 X147.637 Y148.32 E10.64925
G1 X147.505 Y149.213 E10.66726
G1 X147.294 Y150.092 E10.6853
G1 X147.007 Y150.948 E10.70332
G1 X146.645 Y151.775 E10.72134
G1 X146.211 Y152.567 E10.73936
G1 X145.709 Y153.318 E10.75739
G1 X145.143 Y154.021 E10.7754
G1 X144.516 Y154.672 E10.79343
G1 X143.835 Y155.264 E10.81144
G1 X143.104 Y155.794 E10.82946
G1 X142.328 Y156.257 E10.84749
G1 X141.515 Y156.65 E10.86551
G1 X140.67 Y156.97 E10.88355
G1 X139.801 Y157.213 E10.90155
G1 X138.913 Y157.378 E10.91958
G1 X137.777 Y157.474 E10.94233
G1 X137.457 Y157.483 E10.94872
G1 X137.17 Y157.487 E10.95444
G1 X98.058 Y157.487 E11.73497
G1 X97.377 Y157.477 E11.74856
G1 X96.476 Y157.424 E11.76657
G1 X95.582 Y157.291 E11.78461
G1 X94.704 Y157.08 E11.80263
G1 X93.848 Y156.792 E11.82065
G1 X93.021 Y156.429 E11.83867
G1 X92.23 Y155.994 E11.85669
G1 X91.479 Y155.492 E11.87472
G1 X90.777 Y154.925 E11.89272
G1 X89.945 Y154.101 E11.91609
G1 X89.354 Y153.384 E11.93463
G1 X88.844 Y152.639 E11.95265
G1 X88.402 Y151.851 E11.97068
G1 X88.031 Y151.028 E11.9887
G1 X87.735 Y150.174 E12.00673
G1 X87.515 Y149.298 E12.02476
G1 X87.374 Y148.406 E12.04278
G1 X87.313 Y147.535 E12.06021
G1 X87.305 Y147.241 E12.06607
G1 X87.301 Y146.965 E12.07158
G1 X87.301 Y137.737 E12.25574
G1 X87.311 Y137.042 E12.26961
G1 X87.335 Y136.478 E12.28087
G1 X87.341 Y136.398 E12.28247
G1 X87.491 Y133.739 E12.33562
G1 X87.564 Y131.2 E12.38631
G1 X87.564 Y128.666 E12.43688
G1 X87.493 Y126.13 E12.48751
G1 X87.325 Y123.112 E12.54783
G1 X87.313 Y122.804 E12.55398
G1 X87.303 Y122.394 E12.56217
G1 X87.3 Y122.145 E12.56713
G1 X87.301 Y112.98 E12.75003
G1 X87.311 Y112.303 E12.76354
G1 X87.364 Y111.402 E12.78156
G1 X87.497 Y110.509 E12.79957
G1 X87.709 Y109.631 E12.8176
G1 X87.997 Y108.775 E12.83562
G1 X88.359 Y107.948 E12.85364
G1 X88.794 Y107.156 E12.87167
G1 X89.297 Y106.406 E12.88969
G1 X89.864 Y105.703 E12.90771
G1 X90.491 Y105.053 E12.92574
G1 X91.173 Y104.461 E12.94376
G1 F2700 E7.94376
;MESH:aluminimMount.stl
G0 F6000 X97.813 Y111.78
G0 X97.814 Y112.759
G0 X98.682 Y121.374
G0 X114.923 Y121.556
;TYPE:WALL-INNER
G1 F2700 E12.94376
G1 F1200 X114.785 Y121.556 E12.94651
G1 X114.507 Y121.556 E12.95206
G1 X114.438 Y121.556 E12.95344
G1 X98.5 Y121.556 E13.2715
G1 X98.5 Y113.445 E13.43336
G1 X115.378 Y113.445 E13.77018
G1 X115.661 Y113.445 E13.77583
G1 X116.051 Y113.445 E13.78361
G1 X116.34 Y113.445 E13.78938
G1 X116.051 Y113.533 E13.79022
G1 X115.661 Y113.699 E13.79413
G1 X115.413 Y113.835 E13.79877
G1 X115.292 Y113.901 E13.80152
G1 X115.001 Y114.095 E13.8085
G1 X114.674 Y114.362 E13.81693
G1 X114.37 Y114.664 E13.82548
G1 X114.264 Y114.789 E13.82875
G1 X113.989 Y115.09 E13.83689
G1 X113.722 Y115.457 E13.84594
G1 X113.527 Y115.795 E13.85373
G1 X113.381 Y116.1 E13.86048
G1 X113.233 Y116.488 E13.86877
G1 X113.115 Y116.936 E13.87801
G1 X113.062 Y117.272 E13.8848
G1 X113.026 Y117.636 E13.8921
G1 X113.028 Y117.995 E13.89926
G1 X113.05 Y118.341 E13.90618
G1 X113.1 Y118.668 E13.91278
G1 X113.186 Y119.051 E13.92062
G1 X113.292 Y119.377 E13.92746
G1 X113.436 Y119.736 E13.93518
G1 X113.596 Y120.051 E13.94223
G1 X113.765 Y120.329 E13.94872
G1 X114.002 Y120.664 E13.95691
G1 X114.227 Y120.929 E13.96385
G1 X114.459 Y121.167 E13.97048
G1 X114.507 Y121.216 E13.97175
G1 X114.785 Y121.454 E13.97636
G1 X114.923 Y121.556 E13.97722
G0 F6000 X115.034 Y121.141
G1 F1200 X115.32 Y121.352 E13.98431
G1 X115.623 Y121.537 E13.9914
G1 X115.676 Y121.565 E13.99259
G1 X115.913 Y121.687 E13.99791
G1 X116.274 Y121.837 E14.00571
G1 X116.58 Y121.939 E14.01215
G1 X116.687 Y121.956 E14.01431
G1 X116.58 Y121.956 E14.01436
G1 X116.274 Y121.956 E14.01533
G1 X115.913 Y121.956 E14.01876
G1 X115.646 Y121.956 E14.02324
G1 X98.1 Y121.956 E14.37339
G1 X98.1 Y113.045 E14.55122
G1 X136.701 Y113.044 E15.32155
G1 X136.9 Y113.044 E15.32552
G1 X136.9 Y113.243 E15.32809
G1 X136.9 Y121.955 E15.50194
G1 X119.535 Y121.955 E15.84848
G1 X119.233 Y121.955 E15.85451
G1 X118.9 Y121.955 E15.86115
G1 X118.536 Y121.955 E15.86842
G1 X118.322 Y121.955 E15.87269
G1 X118.536 Y121.912 E15.87298
G1 X118.9 Y121.812 E15.87489
G1 X119.233 Y121.688 E15.87869
G1 X119.508 Y121.562 E15.88375
G1 X119.56 Y121.538 E15.8849
G1 X119.898 Y121.345 E15.89266
G1 X120.166 Y121.167 E15.89908
G1 X120.523 Y120.88 E15.90823
G1 X120.872 Y120.47 E15.91897
G1 X121.136 Y120.077 E15.92842
G1 X121.411 Y119.552 E15.94025
G1 X121.44 Y119.003 E15.95122
G1 X121.435 Y118.556 E15.96014
G1 X121.394 Y118.138 E15.96852
G1 X121.352 Y117.835 E15.97462
G1 X121.318 Y117.621 E15.97895
G1 X121.318 Y117.3 E15.98535
G1 X121.277 Y116.902 E15.99334
G1 X121.193 Y116.511 E16.00132
G1 X121.07 Y116.129 E16.00933
G1 X120.906 Y115.764 E16.01731
G1 X120.707 Y115.419 E16.02526
G1 X120.473 Y115.094 E16.03325
G1 X120.204 Y114.796 E16.04126
G1 X119.906 Y114.527 E16.04928
G1 X119.581 Y114.293 E16.05727
G1 X119.236 Y114.094 E16.06522
G1 X118.871 Y113.93 E16.0732
G1 X118.49 Y113.807 E16.08119
G1 X118.138 Y113.731 E16.08838
G1 X117.748 Y113.686 E16.09621
G1 X117.353 Y113.68 E16.1041
G1 X116.95 Y113.717 E16.11217
G1 X116.564 Y113.794 E16.12003
G1 X116.457 Y113.826 E16.12226
G1 X116.188 Y113.909 E16.12787
G1 X115.836 Y114.059 E16.13551
G1 X115.499 Y114.243 E16.14317
G1 X115.239 Y114.417 E16.14941
G1 X114.942 Y114.659 E16.15706
G1 X114.664 Y114.936 E16.16489
G1 X114.559 Y115.059 E16.16812
G1 X114.299 Y115.343 E16.1758
G1 X114.058 Y115.675 E16.18399
G1 X113.881 Y115.981 E16.19104
G1 X113.749 Y116.258 E16.19717
G1 X113.614 Y116.611 E16.20471
G1 X113.507 Y117.018 E16.21311
G1 X113.459 Y117.323 E16.21927
G1 X113.426 Y117.655 E16.22593
G1 X113.428 Y117.981 E16.23243
G1 X113.448 Y118.298 E16.23877
G1 X113.493 Y118.594 E16.24475
G1 X113.572 Y118.945 E16.25193
G1 X113.668 Y119.24 E16.25812
G1 X113.801 Y119.57 E16.26522
G1 X113.946 Y119.856 E16.27162
G1 X114.1 Y120.109 E16.27753
G1 X114.319 Y120.419 E16.2851
G1 X114.523 Y120.66 E16.2914
G1 X114.781 Y120.924 E16.29877
G1 X115.034 Y121.141 E16.30542
G1 F2700 E11.30542
G0 F6000 X116.612 Y121.739
G0 X116.675 Y121.549
;TYPE:WALL-OUTER
G1 F2700 E16.30542
G1 F1200 X117.068 Y121.61 E16.31336
G1 X117.498 Y121.633 E16.32195
G1 X117.78 Y121.623 E16.32758
G1 X118.146 Y121.583 E16.33493
G1 X118.443 Y121.523 E16.34098
G1 X118.777 Y121.431 E16.34789
G1 X119.08 Y121.318 E16.35434
G1 X119.377 Y121.182 E16.36086
G1 X119.688 Y121.004 E16.36801
G1 X119.93 Y120.844 E16.3738
G1 X120.243 Y120.592 E16.38182
G1 X120.553 Y120.228 E16.39136
G1 X120.792 Y119.872 E16.39992
G1 X121.016 Y119.444 E16.40956
G1 X121.04 Y118.995 E16.41853
G1 X121.035 Y118.578 E16.42686
G1 X120.997 Y118.185 E16.43474
G1 X120.956 Y117.894 E16.4406
G1 X120.918 Y117.651 E16.44551
G1 X120.918 Y117.321 E16.45209
G1 X120.881 Y116.965 E16.45924
G1 X120.806 Y116.614 E16.4664
G1 X120.696 Y116.273 E16.47355
G1 X120.549 Y115.946 E16.4807
G1 X120.371 Y115.636 E16.48784
G1 X120.161 Y115.346 E16.49498
G1 X119.921 Y115.079 E16.50215
G1 X119.654 Y114.839 E16.50931
G1 X119.364 Y114.629 E16.51646
G1 X119.054 Y114.451 E16.52359
G1 X118.727 Y114.304 E16.53075
G1 X118.386 Y114.194 E16.5379
G1 X118.073 Y114.126 E16.54429
G1 X117.722 Y114.086 E16.55134
G1 X117.368 Y114.08 E16.5584
G1 X117.008 Y114.113 E16.56562
G1 X116.662 Y114.182 E16.57266
G1 X116.325 Y114.285 E16.57969
G1 X116.011 Y114.419 E16.5865
G1 X115.707 Y114.585 E16.59342
G1 X115.477 Y114.739 E16.59894
G1 X115.21 Y114.956 E16.60581
G1 X114.958 Y115.208 E16.61292
