;FLAVOR:Marlin
;TIME:2892
;Filament used: 1.27058m
;Layer height: 0.12
;MINX:86.501
;MINY:101.444
;MINZ:0.12
;MAXX:148.5
;MAXY:133.555
;MAXZ:9.36
;Generated with Cura_SteamEngine master
M140 S50
M105
M190 S50
M104 S210
M105
M109 S210
M82 ;absolute extrusion mode
; Ender 3 Custom Start G-code
G92 E0 ; Reset Extruder
G28 ; Home all axes
G1 Z2.0 F3000 ; Move Z Axis up little to prevent scratching of Heat Bed
G1 X0.1 Y20 Z0.3 F5000.0 ; Move to start position
G1 X0.1 Y200.0 Z0.3 F1500.0 E15 ; Draw the first line
G1 X0.4 Y200.0 Z0.3 F5000.0 ; Move to side a little
G1 X0.4 Y20 Z0.3 F1500.0 E30 ; Draw the second line
G92 E0 ; Reset Extruder
G1 Z2.0 F3000 ; Move Z Axis up little to prevent scratching of Heat Bed
G1 X5 Y20 Z0.3 F5000.0 ; Move over to prevent blob squish
G92 E0
G92 E0
G1 F2700 E-5
;LAYER_COUNT:80
;LAYER:0
M107
G0 F6000 X90.384 Y104.074 Z0.12
;TYPE:SKIRT
G1 F2700 E0
G1 F1200 X91.123 Y103.497 E0.01871
G1 X91.91 Y102.986 E0.03744
G1 X92.737 Y102.543 E0.05616
G1 X93.598 Y102.173 E0.07486
G1 X94.488 Y101.877 E0.09358
G1 X95.4 Y101.658 E0.11229
G1 X96.327 Y101.518 E0.131
G1 X97.183 Y101.459 E0.14813
G1 X97.487 Y101.45 E0.1542
G1 X97.813 Y101.445 E0.1607
G1 X136.792 Y101.444 E0.93857
G1 X137.648 Y101.455 E0.95565
G1 X138.584 Y101.509 E0.97436
G1 X139.512 Y101.641 E0.99307
G1 X140.426 Y101.853 E1.01179
G1 X141.318 Y102.142 E1.03051
G1 X142.183 Y102.505 E1.04923
G1 X143.013 Y102.941 E1.06794
G1 X143.804 Y103.446 E1.08666
G1 X144.548 Y104.017 E1.10538
G1 X145.241 Y104.649 E1.1241
G1 X145.878 Y105.337 E1.14281
G1 X146.453 Y106.078 E1.16153
G1 X146.964 Y106.864 E1.18023
G1 X147.406 Y107.692 E1.19896
G1 X147.775 Y108.554 E1.21768
G1 X148.07 Y109.444 E1.23639
G1 X148.288 Y110.356 E1.2551
G1 X148.428 Y111.284 E1.27383
G1 X148.485 Y112.131 E1.29077
G1 X148.495 Y112.471 E1.29756
G1 X148.5 Y112.794 E1.30401
G1 X148.499 Y121.955 E1.48682
G1 X148.49 Y122.682 E1.50133
G1 X148.439 Y123.619 E1.52006
G1 X148.307 Y124.547 E1.53876
G1 X148.098 Y125.461 E1.55747
G1 X147.811 Y126.354 E1.57619
G1 X147.449 Y127.22 E1.59492
G1 X147.015 Y128.051 E1.61363
G1 X146.511 Y128.842 E1.63235
G1 X145.942 Y129.587 E1.65106
G1 X145.311 Y130.282 E1.66979
G1 X144.624 Y130.92 E1.6885
G1 X143.885 Y131.497 E1.70721
G1 X143.099 Y132.009 E1.72593
G1 X142.273 Y132.452 E1.74464
G1 X141.411 Y132.824 E1.76337
G1 X140.522 Y133.12 E1.78207
G1 X139.61 Y133.34 E1.80079
G1 X138.683 Y133.481 E1.8195
G1 X137.799 Y133.542 E1.83719
G1 X137.478 Y133.551 E1.8436
G1 X137.17 Y133.555 E1.84974
G1 X98.046 Y133.555 E2.6305
G1 X97.365 Y133.545 E2.6441
G1 X96.429 Y133.491 E2.66281
G1 X95.501 Y133.358 E2.68151
G1 X94.587 Y133.146 E2.70024
G1 X93.695 Y132.857 E2.71895
G1 X92.831 Y132.493 E2.73766
G1 X92 Y132.057 E2.75639
G1 X91.21 Y131.551 E2.77511
G1 X90.466 Y130.981 E2.79381
G1 X89.773 Y130.349 E2.81253
G1 X89.333 Y129.885 E2.82529
G1 X88.736 Y129.161 E2.84402
G1 X88.202 Y128.39 E2.86273
G1 X87.737 Y127.576 E2.88144
G1 X87.342 Y126.725 E2.90016
G1 X87.021 Y125.844 E2.91888
G1 X86.777 Y124.938 E2.9376
G1 X86.61 Y124.015 E2.95632
G1 X86.513 Y122.825 E2.98015
G1 X86.505 Y122.531 E2.98602
G1 X86.501 Y122.233 E2.99196
G1 X86.501 Y112.985 E3.17652
G1 X86.51 Y112.308 E3.19003
G1 X86.562 Y111.371 E3.20876
G1 X86.694 Y110.443 E3.22746
G1 X86.905 Y109.529 E3.24618
G1 X87.193 Y108.636 E3.26491
G1 X87.555 Y107.771 E3.28362
G1 X87.991 Y106.941 E3.30233
G1 X88.495 Y106.15 E3.32105
G1 X89.065 Y105.405 E3.33977
G1 X89.696 Y104.711 E3.35848
G1 X90.384 Y104.074 E3.37719
G0 F6000 X90.772 Y104.27
G1 F1200 X91.508 Y103.716 E3.39558
G1 X92.289 Y103.229 E3.41395
G1 X93.109 Y102.81 E3.43232
G1 X93.962 Y102.465 E3.45068
G1 X94.843 Y102.195 E3.46907
G1 X95.743 Y102.002 E3.48744
G1 X96.656 Y101.888 E3.5058
G1 X97.195 Y101.859 E3.51657
G1 X97.499 Y101.85 E3.52264
G1 X97.813 Y101.845 E3.52891
G1 X136.792 Y101.844 E4.30678
G1 X137.642 Y101.855 E4.32374
G1 X138.561 Y101.908 E4.34211
G1 X139.472 Y102.041 E4.36049
G1 X140.368 Y102.252 E4.37886
G1 X141.242 Y102.54 E4.39722
G1 X142.089 Y102.903 E4.41561
G1 X142.9 Y103.338 E4.43398
G1 X143.67 Y103.842 E4.45234
G1 X144.394 Y104.411 E4.47072
G1 X145.066 Y105.041 E4.4891
G1 X145.681 Y105.726 E4.50747
G1 X146.234 Y106.462 E4.52584
G1 X146.721 Y107.243 E4.54421
G1 X147.138 Y108.064 E4.56258
G1 X147.483 Y108.918 E4.58097
G1 X147.752 Y109.798 E4.59933
G1 X147.944 Y110.699 E4.61771
G1 X148.057 Y111.612 E4.63607
G1 X148.085 Y112.142 E4.64666
G1 X148.095 Y112.482 E4.65345
G1 X148.1 Y112.794 E4.65968
G1 X148.099 Y121.95 E4.8424
G1 X148.09 Y122.677 E4.85691
G1 X148.039 Y123.596 E4.87527
G1 X147.908 Y124.508 E4.89366
G1 X147.698 Y125.404 E4.91203
G1 X147.412 Y126.279 E4.9304
G1 X147.051 Y127.126 E4.94877
G1 X146.617 Y127.938 E4.96714
G1 X146.115 Y128.71 E4.98552
G1 X145.547 Y129.435 E5.0039
G1 X144.919 Y130.108 E5.02227
G1 X144.235 Y130.724 E5.04064
G1 X143.5 Y131.278 E5.05901
G1 X142.72 Y131.767 E5.07738
G1 X141.9 Y132.186 E5.09576
G1 X141.047 Y132.532 E5.11412
G1 X140.167 Y132.803 E5.1325
G1 X139.267 Y132.996 E5.15087
G1 X138.353 Y133.111 E5.16925
G1 X137.788 Y133.142 E5.18054
G1 X137.467 Y133.151 E5.18695
G1 X137.17 Y133.155 E5.19288
G1 X98.052 Y133.155 E5.97352
G1 X97.371 Y133.145 E5.98711
G1 X96.452 Y133.091 E6.00549
G1 X95.541 Y132.958 E6.02386
G1 X94.645 Y132.747 E6.04223
G1 X93.771 Y132.458 E6.0606
G1 X92.925 Y132.095 E6.07897
G1 X92.114 Y131.66 E6.09734
G1 X91.343 Y131.156 E6.11572
G1 X90.62 Y130.586 E6.13409
G1 X89.648 Y129.637 E6.1612
G1 X89.044 Y128.907 E6.18011
G1 X88.523 Y128.148 E6.19848
G1 X88.069 Y127.347 E6.21685
G1 X87.686 Y126.51 E6.23522
G1 X87.377 Y125.642 E6.25361
G1 X87.145 Y124.752 E6.27196
G1 X86.991 Y123.844 E6.29034
G1 X86.913 Y122.814 E6.31096
G1 X86.905 Y122.52 E6.31682
G1 X86.901 Y122.233 E6.32255
G1 X86.901 Y112.99 E6.50701
G1 X86.91 Y112.313 E6.52052
G1 X86.962 Y111.394 E6.53889
G1 X87.094 Y110.483 E6.55726
G1 X87.304 Y109.586 E6.57564
G1 X87.592 Y108.712 E6.59401
G1 X87.954 Y107.865 E6.61239
G1 X88.388 Y107.054 E6.63074
G1 X88.891 Y106.282 E6.64913
G1 X89.459 Y105.558 E6.6675
G1 X90.088 Y104.885 E6.68588
G1 X90.772 Y104.27 E6.70423
G0 F6000 X91.16 Y104.471
G1 F1200 X91.891 Y103.94 E6.72227
G1 X92.667 Y103.477 E6.7403
G1 X93.48 Y103.084 E6.75832
G1 X94.324 Y102.764 E6.77633
G1 X95.194 Y102.52 E6.79436
G1 X96.082 Y102.354 E6.81239
G1 X97.207 Y102.258 E6.83492
G1 X97.511 Y102.249 E6.84099
G1 X97.813 Y102.245 E6.84702
G1 X136.792 Y102.244 E7.62489
G1 X137.636 Y102.255 E7.64173
G1 X138.538 Y102.308 E7.65976
G1 X139.431 Y102.44 E7.67778
G1 X140.309 Y102.651 E7.6958
G1 X141.165 Y102.939 E7.71382
G1 X141.992 Y103.301 E7.73184
G1 X142.784 Y103.736 E7.74987
G1 X143.535 Y104.238 E7.7679
G1 X144.238 Y104.805 E7.78592
G1 X144.888 Y105.432 E7.80394
G1 X145.48 Y106.114 E7.82196
G1 X146.01 Y106.845 E7.83998
G1 X146.472 Y107.621 E7.85801
G1 X146.865 Y108.434 E7.87603
G1 X147.183 Y109.279 E7.89404
G1 X147.426 Y110.149 E7.91207
G1 X147.591 Y111.037 E7.93009
G1 X147.686 Y112.154 E7.95247
G1 X147.696 Y112.494 E7.95925
G1 X147.7 Y112.794 E7.96524
G1 X147.699 Y121.945 E8.14786
G1 X147.69 Y122.672 E8.16237
G1 X147.639 Y123.574 E8.1804
G1 X147.508 Y124.468 E8.19843
G1 X147.299 Y125.346 E8.21644
G1 X147.013 Y126.203 E8.23447
G1 X146.652 Y127.031 E8.2525
G1 X146.22 Y127.823 E8.2705
G1 X145.719 Y128.575 E8.28853
G1 X145.153 Y129.279 E8.30656
G1 X144.528 Y129.93 E8.32457
G1 X143.847 Y130.524 E8.3426
G1 X143.116 Y131.055 E8.36063
G1 X142.342 Y131.519 E8.37864
G1 X141.529 Y131.913 E8.39667
G1 X140.685 Y132.233 E8.41468
G1 X139.815 Y132.478 E8.43272
G1 X138.928 Y132.644 E8.45073
G1 X137.777 Y132.742 E8.47378
G1 X137.456 Y132.751 E8.48019
G1 X137.17 Y132.755 E8.4859
G1 X98.058 Y132.755 E9.26642
G1 X97.377 Y132.745 E9.28001
G1 X96.476 Y132.692 E9.29802
G1 X95.582 Y132.559 E9.31606
G1 X94.704 Y132.348 E9.33408
G1 X93.848 Y132.06 E9.3521
G1 X93.021 Y131.697 E9.37013
G1 X92.23 Y131.262 E9.38814
G1 X91.479 Y130.76 E9.40617
G1 X90.777 Y130.193 E9.42418
G1 X89.945 Y129.369 E9.44754
G1 X89.354 Y128.652 E9.46609
G1 X88.844 Y127.907 E9.4841
G1 X88.402 Y127.119 E9.50213
G1 X88.031 Y126.296 E9.52015
G1 X87.735 Y125.442 E9.53819
G1 X87.515 Y124.566 E9.55621
G1 X87.374 Y123.674 E9.57423
G1 X87.313 Y122.803 E9.59166
G1 X87.305 Y122.509 E9.59753
G1 X87.301 Y122.233 E9.60304
G1 X87.301 Y112.995 E9.78739
G1 X87.31 Y112.318 E9.8009
G1 X87.362 Y111.417 E9.81891
G1 X87.493 Y110.523 E9.83694
G1 X87.703 Y109.645 E9.85496
G1 X87.99 Y108.789 E9.87298
G1 X88.352 Y107.961 E9.89101
G1 X88.785 Y107.169 E9.90902
G1 X89.287 Y106.418 E9.92705
G1 X89.853 Y105.714 E9.94508
G1 X90.479 Y105.063 E9.9631
G1 X91.16 Y104.471 E9.98111
G1 F2700 E4.98111
;MESH:aluminimMount.stl
G0 F6000 X97.813 Y111.78
G0 X97.814 Y112.759
G0 X98.682 Y121.374
G0 X114.923 Y121.556
;TYPE:WALL-INNER
G1 F2700 E9.98111
G1 F1200 X114.785 Y121.556 E9.98386
G1 X114.507 Y121.556 E9.98941
G1 X114.438 Y121.556 E9.99079
G1 X98.5 Y121.556 E10.30885
G1 X98.5 Y113.445 E10.47071
G1 X115.378 Y113.445 E10.80753
G1 X115.661 Y113.445 E10.81318
G1 X116.051 Y113.445 E10.82096
G1 X116.34 Y113.445 E10.82673
G1 X116.051 Y113.533 E10.82757
G1 X115.661 Y113.699 E10.83147
G1 X115.413 Y113.835 E10.83612
G1 X115.292 Y113.901 E10.83887
G1 X115.001 Y114.095 E10.84585
G1 X114.674 Y114.362 E10.85428
G1 X114.37 Y114.664 E10.86283
G1 X114.264 Y114.789 E10.8661
G1 X113.989 Y115.09 E10.87423
G1 X113.722 Y115.457 E10.88329
G1 X113.527 Y115.795 E10.89108
G1 X113.381 Y116.1 E10.89783
G1 X113.233 Y116.488 E10.90611
G1 X113.115 Y116.936 E10.91536
G1 X113.062 Y117.272 E10.92215
G1 X113.026 Y117.636 E10.92945
G1 X113.028 Y117.995 E10.93661
G1 X113.05 Y118.341 E10.94353
G1 X113.1 Y118.668 E10.95013
G1 X113.186 Y119.051 E10.95796
G1 X113.292 Y119.377 E10.9648
G1 X113.436 Y119.736 E10.97252
G1 X113.596 Y120.051 E10.97957
G1 X113.765 Y120.329 E10.98607
G1 X114.002 Y120.664 E10.99426
G1 X114.227 Y120.929 E11.00119
G1 X114.459 Y121.167 E11.00783
G1 X114.507 Y121.216 E11.0091
G1 X114.785 Y121.454 E11.01371
G1 X114.923 Y121.556 E11.01457
G0 F6000 X115.034 Y121.141
G1 F1200 X115.32 Y121.352 E11.02166
G1 X115.623 Y121.537 E11.02874
G1 X115.676 Y121.565 E11.02994
G1 X115.913 Y121.687 E11.03526
G1 X116.274 Y121.837 E11.04306
G1 X116.58 Y121.939 E11.0495
G1 X116.687 Y121.956 E11.05166
G1 X116.58 Y121.956 E11.0517
G1 X116.274 Y121.956 E11.05268
G1 X115.913 Y121.956 E11.05611
G1 X115.646 Y121.956 E11.06059
G1 X98.1 Y121.956 E11.41074
G1 X98.1 Y113.045 E11.58857
G1 X136.701 Y113.044 E12.35889
G1 X136.9 Y113.044 E12.36287
G1 X136.9 Y113.243 E12.36543
G1 X136.9 Y121.955 E12.53929
G1 X119.535 Y121.955 E12.88583
G1 X119.233 Y121.955 E12.89186
G1 X118.9 Y121.955 E12.8985
G1 X118.536 Y121.955 E12.90577
G1 X118.322 Y121.955 E12.91004
G1 X118.536 Y121.912 E12.91033
G1 X118.9 Y121.812 E12.91224
G1 X119.233 Y121.688 E12.91604
G1 X119.508 Y121.562 E12.9211
G1 X119.56 Y121.538 E12.92224
G1 X119.898 Y121.345 E12.93001
G1 X120.166 Y121.167 E12.93643
G1 X120.523 Y120.88 E12.94557
G1 X120.872 Y120.47 E12.95632
G1 X121.136 Y120.077 E12.96577
G1 X121.411 Y119.552 E12.97759
G1 X121.44 Y119.003 E12.98856
G1 X121.435 Y118.556 E12.99749
G1 X121.394 Y118.138 E13.00587
G1 X121.352 Y117.835 E13.01197
G1 X121.318 Y117.621 E13.0163
G1 X121.318 Y117.3 E13.0227
G1 X121.277 Y116.902 E13.03069
G1 X121.193 Y116.511 E13.03867
G1 X121.07 Y116.129 E13.04668
G1 X120.906 Y115.764 E13.05466
G1 X120.707 Y115.419 E13.06261
G1 X120.473 Y115.094 E13.0706
G1 X120.204 Y114.796 E13.07861
G1 X119.906 Y114.527 E13.08662
G1 X119.581 Y114.293 E13.09462
G1 X119.236 Y114.094 E13.10256
G1 X118.871 Y113.93 E13.11055
G1 X118.49 Y113.807 E13.11854
G1 X118.138 Y113.731 E13.12573
G1 X117.748 Y113.686 E13.13356
G1 X117.353 Y113.68 E13.14144
G1 X116.95 Y113.717 E13.14952
G1 X116.564 Y113.794 E13.15737
G1 X116.457 Y113.826 E13.1596
G1 X116.188 Y113.909 E13.16522
G1 X115.836 Y114.059 E13.17286
G1 X115.499 Y114.243 E13.18052
G1 X115.239 Y114.417 E13.18676
G1 X114.942 Y114.659 E13.19441
G1 X114.664 Y114.936 E13.20224
G1 X114.559 Y115.059 E13.20547
G1 X114.299 Y115.343 E13.21315
G1 X114.058 Y115.675 E13.22134
G1 X113.881 Y115.981 E13.22839
G1 X113.749 Y116.258 E13.23452
G1 X113.614 Y116.611 E13.24206
G1 X113.507 Y117.018 E13.25046
G1 X113.459 Y117.323 E13.25662
G1 X113.426 Y117.655 E13.26328
G1 X113.428 Y117.981 E13.26978
G1 X113.448 Y118.298 E13.27612
G1 X113.493 Y118.594 E13.28209
G1 X113.572 Y118.945 E13.28927
G1 X113.668 Y119.24 E13.29547
G1 X113.801 Y119.57 E13.30257
G1 X113.946 Y119.856 E13.30896
G1 X114.1 Y120.109 E13.31488
G1 X114.319 Y120.419 E13.32245
G1 X114.523 Y120.66 E13.32875
G1 X114.781 Y120.924 E13.33612
G1 X115.034 Y121.141 E13.34277
G1 F2700 E8.34277
G0 F6000 X116.612 Y121.739
G0 X116.675 Y121.549
;TYPE:WALL-OUTER
G1 F2700 E13.34277
G1 F1200 X117.068 Y121.61 E13.35071
G1 X117.498 Y121.633 E13.3593
G1 X117.78 Y121.623 E13.36493
G1 X118.146 Y121.583 E13.37228
G1 X118.443 Y121.523 E13.37832
G1 X118.777 Y121.431 E13.38524
G1 X119.08 Y121.318 E13.39169
G1 X119.377 Y121.182 E13.39821
G1 X119.688 Y121.004 E13.40536
G1 X119.93 Y120.844 E13.41115
G1 X120.243 Y120.592 E13.41917
G1 X120.553 Y120.228 E13.42871
G1 X120.792 Y119.872 E13.43727
G1 X121.016 Y119.444 E13.44691
G1 X121.04 Y118.995 E13.45588
G1 X121.035 Y118.578 E13.4642
G1 X120.997 Y118.185 E13.47208
G1 X120.956 Y117.894 E13.47795
G1 X120.918 Y117.651 E13.48286
G1 X120.918 Y117.321 E13.48944
G1 X120.881 Y116.965 E13.49658
G1 X120.806 Y116.614 E13.50375
G1 X120.696 Y116.273 E13.5109
G1 X120.549 Y115.946 E13.51805
G1 X120.371 Y115.636 E13.52519
G1 X120.161 Y115.346 E13.53233
G1 X119.921 Y115.079 E13.5395
G1 X119.654 Y114.839 E13.54666
G1 X119.364 Y114.629 E13.5538
G1 X119.054 Y114.451 E13.56094
G1 X118.727 Y114.304 E13.56809
G1 X118.386 Y114.194 E13.57524
G1 X118.073 Y114.126 E13.58164
G1 X117.722 Y114.086 E13.58869
G1 X117.368 Y114.08 E13.59575
G1 X117.008 Y114.113 E13.60297
G1 X116.662 Y114.182 E13.61001
G1 X116.325 Y114.285 E13.61704
G1 X116.011 Y114.419 E13.62385
G1 X115.707 Y114.585 E13.63076
G1 X115.477 Y114.739 E13.63629
G1 X115.21 Y114.956 E13.64315
G1 X114.958 Y115.208 E13.65027
G1 X114.854 Y115.329 E13.65345
G1 X114.609 Y115.596 E13.66068
G1 X114.394 Y115.893 E13.668
G1 X114.235 Y116.167 E13.67432
G1 X114.117 Y116.416 E13.67982
G1 X113.995 Y116.734 E13.68662
G1 X113.899 Y117.1 E13.69417
G1 X113.856 Y117.374 E13.6997
G1 X113.826 Y117.674 E13.70572
G1 X113.828 Y117.967 E13.71157
G1 X113.846 Y118.256 E13.71734
G1 X113.886 Y118.52 E13.72267
G1 X113.958 Y118.839 E13.7292
G1 X114.044 Y119.103 E13.73474
G1 X114.165 Y119.404 E13.74121
G1 X114.296 Y119.661 E13.74697
G1 X114.435 Y119.89 E13.75232
G1 X114.635 Y120.174 E13.75925
G1 X114.819 Y120.39 E13.76491
G1 X115.055 Y120.632 E13.77166
G1 X115.283 Y120.828 E13.77766
G1 X115.543 Y121.019 E13.78409
G1 X115.82 Y121.188 E13.79057
G1 X116.082 Y121.324 E13.79646
G1 X116.414 Y121.462 E13.80364
G1 X116.675 Y121.549 E13.80913
G1 F2700 E8.80913
G0 F6000 X116.612 Y121.739
G0 X97.87 Y122.186
G0 X97.7 Y122.356
G1 F2700 E13.80913
G1 F1200 X97.7 Y112.645 E14.00292
G1 X137.3 Y112.644 E14.79318
G1 X137.3 Y122.355 E14.98697
G1 X97.7 Y122.356 E15.77723
G0 F6000 X97.87 Y122.186
G0 X118.167 Y121.721
G0 X120.305 Y121.555
;TYPE:WALL-INNER
G1 F1200 X120.402 Y121.49 E15.77956
G1 X120.803 Y121.168 E15.78983
G1 X120.81 Y121.159 E15.79006
G1 X121.191 Y120.712 E15.80178
G1 X121.48 Y120.282 E15.81212
G1 X121.806 Y119.66 E15.82613
G1 X121.84 Y119.011 E15.8391
G1 X121.835 Y118.534 E15.84862
G1 X121.791 Y118.091 E15.8575
G1 X121.748 Y117.776 E15.86385
G1 X121.718 Y117.589 E15.86763
G1 X121.718 Y117.279 E15.87381
G1 X121.673 Y116.839 E15.88264
G1 X121.58 Y116.407 E15.89146
G1 X121.444 Y115.985 E15.90031
G1 X121.263 Y115.582 E15.90912
G1 X121.043 Y115.202 E15.91788
G1 X120.785 Y114.842 E15.92672
G1 X120.487 Y114.513 E15.93558
G1 X120.158 Y114.215 E15.94444
G1 X119.798 Y113.957 E15.95328
G1 X119.588 Y113.835 E15.95813
G1 X119.418 Y113.737 E15.96204
G1 X119.015 Y113.556 E15.97086
G1 X118.67 Y113.444 E15.9781
G1 X119.015 Y113.444 E15.97898
G1 X119.418 Y113.444 E15.98297
G1 X119.615 Y113.444 E15.9864
G1 X136.5 Y113.444 E16.32336
G1 X136.5 Y121.555 E16.48522
G1 X120.815 Y121.555 E16.79823
G1 X120.803 Y121.555 E16.79847
G1 X120.402 Y121.555 E16.80273
