;FLAVOR:Marlin
;TIME:4069
;Filament used: 3.51058m
;Layer height: 0.28
;MINX:61.5
;MINY:68
;MINZ:0.28
;MAXX:173.5
;MAXY:167
;MAXZ:14.28
;Generated with Cura_SteamEngine master
M140 S50
M105
M190 S50
M104 S210
M105
M109 S210
M82 ;absolute extrusion mode
; Ender 3 Custom Start G-code
G92 E0 ; Reset Extruder
G28 ; Home all axes
G1 Z2.0 F3000 ; Move Z Axis up little to prevent scratching of Heat Bed
G1 X0.1 Y20 Z0.3 F5000.0 ; Move to start position
G1 X0.1 Y200.0 Z0.3 F1500.0 E15 ; Draw the first line
G1 X0.4 Y200.0 Z0.3 F5000.0 ; Move to side a little
G1 X0.4 Y20 Z0.3 F1500.0 E30 ; Draw the second line
G92 E0 ; Reset Extruder
G1 Z2.0 F3000 ; Move Z Axis up little to prevent scratching of Heat Bed
G1 X5 Y20 Z0.3 F5000.0 ; Move over to prevent blob squish
G92 E0
G92 E0
G1 F2700 E-5
;LAYER_COUNT:51
;LAYER:0
M107
G0 F6000 X65.386 Y70.627 Z0.28
;TYPE:SKIRT
G1 F2700 E0
G1 F1200 X66.126 Y70.051 E0.04367
G1 X66.912 Y69.539 E0.08735
G1 X67.739 Y69.097 E0.13101
G1 X68.601 Y68.727 E0.17469
G1 X69.491 Y68.431 E0.21836
G1 X70.403 Y68.213 E0.26203
G1 X71.33 Y68.072 E0.30569
G1 X72.201 Y68.013 E0.34634
G1 X72.522 Y68.004 E0.36129
G1 X72.83 Y68 E0.37563
G1 X161.793 Y68 E4.51812
G1 X161.951 Y68.001 E4.52548
G1 X162.649 Y68.011 E4.55799
G1 X163.585 Y68.065 E4.60164
G1 X164.513 Y68.197 E4.64529
G1 X165.427 Y68.409 E4.68898
G1 X166.319 Y68.698 E4.73264
G1 X167.184 Y69.061 E4.77632
G1 X168.014 Y69.497 E4.81998
G1 X168.805 Y70.002 E4.86367
G1 X169.549 Y70.573 E4.90735
G1 X170.242 Y71.205 E4.95102
G1 X170.879 Y71.893 E4.99468
G1 X171.454 Y72.634 E5.03835
G1 X171.965 Y73.42 E5.08201
G1 X172.407 Y74.248 E5.12571
G1 X172.776 Y75.11 E5.16937
G1 X173.071 Y76 E5.21303
G1 X173.289 Y76.912 E5.25669
G1 X173.429 Y77.84 E5.30039
G1 X173.487 Y78.701 E5.34058
G1 X173.496 Y79.021 E5.35548
G1 X173.5 Y79.33 E5.36987
G1 X173.5 Y155.264 E8.90568
G1 X173.49 Y156.127 E8.94587
G1 X173.439 Y157.064 E8.98956
G1 X173.307 Y157.992 E9.03321
G1 X173.098 Y158.906 E9.07687
G1 X172.811 Y159.799 E9.12054
G1 X172.449 Y160.665 E9.16425
G1 X172.015 Y161.496 E9.2079
G1 X171.511 Y162.287 E9.25158
G1 X170.942 Y163.032 E9.29523
G1 X170.311 Y163.727 E9.33894
G1 X169.624 Y164.365 E9.38259
G1 X168.885 Y164.942 E9.42625
G1 X168.099 Y165.454 E9.46993
G1 X167.273 Y165.897 E9.51357
G1 X166.411 Y166.269 E9.55729
G1 X165.522 Y166.565 E9.60092
G1 X164.61 Y166.785 E9.64461
G1 X163.683 Y166.926 E9.68827
G1 X162.799 Y166.987 E9.72953
G1 X162.478 Y166.996 E9.74448
G1 X162.17 Y167 E9.75882
G1 X151.037 Y166.999 E10.27722
G1 X150.327 Y166.988 E10.31029
G1 X149.39 Y166.933 E10.35399
G1 X148.821 Y166.861 E10.3807
G1 X148.581 Y166.824 E10.39201
G1 X146.31 Y166.436 E10.49929
G1 X143.815 Y166.081 E10.61663
G1 X141.294 Y165.794 E10.73478
G1 X138.801 Y165.582 E10.85128
G1 X136.317 Y165.441 E10.96714
G1 X133.759 Y165.369 E11.08629
G1 X131.272 Y165.369 E11.2021
G1 X128.713 Y165.441 E11.3213
G1 X126.252 Y165.581 E11.43608
G1 X123.698 Y165.797 E11.55543
G1 X121.242 Y166.077 E11.67054
G1 X118.667 Y166.443 E11.79164
G1 X117.366 Y166.658 E11.85305
G1 X116.355 Y166.832 E11.90081
G1 X115.425 Y166.951 E11.94447
G1 X114.799 Y166.987 E11.97367
G1 X114.48 Y166.996 E11.98853
G1 X114.17 Y167 E12.00297
G1 X103.065 Y166.999 E12.52006
G1 X102.367 Y166.99 E12.55257
G1 X101.431 Y166.938 E12.59622
G1 X100.502 Y166.806 E12.63991
G1 X99.588 Y166.596 E12.68358
G1 X98.695 Y166.309 E12.72725
G1 X97.83 Y165.946 E12.77094
G1 X96.999 Y165.512 E12.81459
G1 X96.208 Y165.008 E12.85826
G1 X95.463 Y164.438 E12.90194
G1 X94.769 Y163.807 E12.94562
G1 X94.132 Y163.12 E12.98924
G1 X93.555 Y162.38 E13.03294
G1 X93.043 Y161.594 E13.07662
G1 X92.6 Y160.767 E13.1203
G1 X92.229 Y159.906 E13.16396
G1 X91.933 Y159.016 E13.20763
G1 X91.714 Y158.104 E13.25131
G1 X91.573 Y157.177 E13.29497
G1 X91.513 Y156.288 E13.33646
G1 X91.504 Y155.955 E13.35197
G1 X91.5 Y155.658 E13.3658
G1 X91.5 Y153.486 E13.46694
G1 X91.463 Y150.878 E13.58839
G1 X91.356 Y148.356 E13.70593
G1 X91.179 Y145.861 E13.8224
G1 X90.931 Y143.362 E13.93933
G1 X90.613 Y140.873 E14.05617
G1 X90.219 Y138.364 E14.17444
G1 X89.76 Y135.898 E14.29123
G1 X89.226 Y133.415 E14.4095
G1 X88.639 Y131.02 E14.52432
G1 X87.961 Y128.554 E14.64341
G1 X87.232 Y126.174 E14.75931
G1 X86.421 Y123.771 E14.87741
G1 X85.541 Y121.383 E14.99591
G1 X84.617 Y119.084 E15.11129
G1 X83.609 Y116.768 E15.2289
G1 X82.54 Y114.487 E15.3462
G1 X81.397 Y112.217 E15.46454
G1 X80.221 Y110.04 E15.57976
G1 X78.948 Y107.833 E15.69839
G1 X77.624 Y105.68 E15.81609
G1 X76.261 Y103.599 E15.93192
G1 X74.824 Y101.536 E16.04899
G1 X73.319 Y99.5 E16.16689
G1 X71.766 Y97.517 E16.28417
G1 X70.155 Y95.577 E16.40159
G1 X68.502 Y93.698 E16.51812
G1 X66.787 Y91.853 E16.63542
G1 X64.883 Y89.924 E16.76162
G1 X64.784 Y89.826 E16.76811
G1 X64.145 Y89.139 E16.8118
G1 X63.567 Y88.4 E16.85548
G1 X63.054 Y87.615 E16.89915
G1 X62.609 Y86.789 E16.94284
G1 X62.237 Y85.928 E16.98651
G1 X61.939 Y85.039 E17.03017
G1 X61.719 Y84.128 E17.07381
G1 X61.576 Y83.201 E17.11749
G1 X61.515 Y82.333 E17.158
G1 X61.505 Y82.007 E17.17319
G1 X61.5 Y81.67 E17.18888
G1 X61.501 Y79.525 E17.28876
G1 X61.51 Y78.86 E17.31973
G1 X61.563 Y77.924 E17.36339
G1 X61.695 Y76.995 E17.40708
G1 X61.906 Y76.081 E17.45076
G1 X62.194 Y75.189 E17.4944
G1 X62.557 Y74.324 E17.53809
G1 X62.992 Y73.493 E17.58176
G1 X63.496 Y72.703 E17.6254
G1 X64.066 Y71.958 E17.66908
G1 X64.698 Y71.264 E17.71278
G1 X65.386 Y70.627 E17.75644
G0 F6000 X65.774 Y70.823
G1 F1200 X66.51 Y70.27 E17.79931
G1 X67.291 Y69.782 E17.84219
G1 X68.111 Y69.364 E17.88505
G1 X68.965 Y69.019 E17.92794
G1 X69.845 Y68.749 E17.9708
G1 X70.745 Y68.557 E18.01365
G1 X71.659 Y68.443 E18.05654
G1 X72.212 Y68.413 E18.08233
G1 X72.533 Y68.404 E18.09728
G1 X72.83 Y68.4 E18.11111
G1 X161.793 Y68.4 E22.2536
G1 X162.643 Y68.411 E22.29318
G1 X163.562 Y68.464 E22.33605
G1 X164.473 Y68.597 E22.37892
G1 X165.369 Y68.808 E22.42178
G1 X166.243 Y69.096 E22.46463
G1 X167.09 Y69.459 E22.50754
G1 X167.901 Y69.894 E22.55039
G1 X168.671 Y70.398 E22.59324
G1 X169.395 Y70.967 E22.63612
G1 X170.067 Y71.597 E22.67901
G1 X170.682 Y72.282 E22.72188
G1 X171.235 Y73.018 E22.76475
G1 X171.722 Y73.799 E22.8076
G1 X172.139 Y74.62 E22.85048
G1 X172.484 Y75.474 E22.89337
G1 X172.753 Y76.354 E22.93622
G1 X172.945 Y77.255 E22.97911
G1 X173.058 Y78.168 E23.02195
G1 X173.087 Y78.712 E23.04732
G1 X173.096 Y79.032 E23.06222
G1 X173.1 Y79.33 E23.0761
G1 X173.1 Y155.264 E26.61191
G1 X173.09 Y156.122 E26.65186
G1 X173.039 Y157.041 E26.69472
G1 X172.908 Y157.953 E26.73762
G1 X172.698 Y158.849 E26.78047
G1 X172.412 Y159.724 E26.82334
G1 X172.051 Y160.571 E26.86621
G1 X171.617 Y161.383 E26.90908
G1 X171.115 Y162.155 E26.95196
G1 X170.547 Y162.88 E26.99485
G1 X169.919 Y163.553 E27.03771
G1 X169.235 Y164.169 E27.08057
G1 X168.5 Y164.723 E27.12343
G1 X167.72 Y165.212 E27.1663
G1 X166.9 Y165.631 E27.20918
G1 X166.047 Y165.977 E27.25204
G1 X165.167 Y166.248 E27.29491
G1 X164.267 Y166.441 E27.33778
G1 X163.353 Y166.556 E27.38067
G1 X162.788 Y166.587 E27.40702
G1 X162.467 Y166.596 E27.42197
G1 X162.17 Y166.6 E27.4358
G1 X151.043 Y166.599 E27.95392
G1 X150.333 Y166.588 E27.98699
G1 X149.414 Y166.534 E28.02985
G1 X148.882 Y166.465 E28.05483
G1 X148.468 Y166.4 E28.07435
G1 X146.363 Y166.039 E28.17379
G1 X143.85 Y165.681 E28.29199
G1 X141.375 Y165.401 E28.40797
G1 X138.82 Y165.183 E28.52738
G1 X136.315 Y165.041 E28.64421
G1 X133.77 Y164.969 E28.76276
G1 X131.261 Y164.969 E28.87959
G1 X128.715 Y165.041 E28.99819
G1 X126.194 Y165.184 E29.11577
G1 X123.69 Y165.396 E29.23278
G1 X121.177 Y165.682 E29.35055
G1 X118.633 Y166.044 E29.47021
G1 X117.226 Y166.275 E29.5366
G1 X116.287 Y166.437 E29.58097
G1 X115.374 Y166.554 E29.62383
G1 X114.788 Y166.587 E29.65116
G1 X114.469 Y166.596 E29.66602
G1 X114.17 Y166.6 E29.67994
G1 X103.07 Y166.599 E30.1968
G1 X102.372 Y166.59 E30.22931
G1 X101.453 Y166.538 E30.27217
G1 X100.542 Y166.407 E30.31503
G1 X99.646 Y166.197 E30.35788
G1 X98.771 Y165.91 E30.40076
G1 X97.924 Y165.548 E30.44365
G1 X97.112 Y165.114 E30.48652
G1 X96.341 Y164.612 E30.52936
G1 X95.616 Y164.044 E30.57225
G1 X94.943 Y163.415 E30.61514
G1 X94.328 Y162.731 E30.65797
G1 X93.774 Y161.996 E30.70083
G1 X93.286 Y161.215 E30.74371
G1 X92.867 Y160.395 E30.78659
G1 X92.521 Y159.542 E30.82945
G1 X92.251 Y158.662 E30.87231
G1 X92.058 Y157.761 E30.91522
G1 X91.944 Y156.848 E30.95806
G1 X91.913 Y156.277 E30.98469
G1 X91.904 Y155.944 E31.0002
G1 X91.9 Y155.658 E31.01352
G1 X91.9 Y153.48 E31.11494
G1 X91.863 Y150.855 E31.23718
G1 X91.756 Y148.347 E31.35407
G1 X91.578 Y145.826 E31.47175
G1 X91.328 Y143.308 E31.58958
G1 X91.007 Y140.797 E31.70745
G1 X90.62 Y138.335 E31.8235
G1 X90.151 Y135.813 E31.94295
G1 X89.619 Y133.341 E32.06069
G1 X89.019 Y130.891 E32.17814
G1 X88.352 Y128.468 E32.29517
G1 X87.607 Y126.034 E32.41369
G1 X86.789 Y123.609 E32.53286
G1 X85.928 Y121.274 E32.64875
G1 X84.979 Y118.912 E32.76728
G1 X83.98 Y116.617 E32.88383
G1 X82.888 Y114.288 E33.0036
G1 X81.763 Y112.053 E33.12011
G1 X80.562 Y109.829 E33.23781
G1 X79.293 Y107.629 E33.35607
G1 X77.982 Y105.498 E33.47257
G1 X76.591 Y103.374 E33.5908
G1 X75.129 Y101.275 E33.70991
G1 X73.641 Y99.261 E33.82651
G1 X72.073 Y97.26 E33.94488
G1 X70.479 Y95.341 E34.06104
G1 X68.795 Y93.425 E34.17982
G1 X67.082 Y91.583 E34.29695
G1 X65.165 Y89.641 E34.42401
G1 X65.064 Y89.541 E34.43063
G1 X64.438 Y88.866 E34.4735
G1 X63.872 Y88.14 E34.51636
G1 X63.372 Y87.367 E34.55923
G1 X62.94 Y86.554 E34.6021
G1 X62.581 Y85.706 E34.64498
G1 X62.296 Y84.831 E34.68783
G1 X62.089 Y83.934 E34.7307
G1 X61.96 Y83.022 E34.77358
G1 X61.915 Y82.321 E34.80629
G1 X61.905 Y81.995 E34.82148
G1 X61.9 Y81.67 E34.83662
G1 X61.901 Y79.531 E34.93622
G1 X61.91 Y78.866 E34.96718
G1 X61.962 Y77.946 E35.01009
G1 X62.094 Y77.035 E35.05296
G1 X62.305 Y76.139 E35.09582
G1 X62.592 Y75.264 E35.1387
G1 X62.955 Y74.418 E35.18156
G1 X63.389 Y73.606 E35.22444
G1 X63.892 Y72.835 E35.2673
G1 X64.461 Y72.111 E35.31018
G1 X65.089 Y71.439 E35.35301
G1 X65.774 Y70.823 E35.3959
G0 F6000 X66.162 Y71.024
G1 F1200 X66.894 Y70.494 E35.43799
G1 X67.669 Y70.031 E35.48002
G1 X68.482 Y69.638 E35.52207
G1 X69.327 Y69.318 E35.56414
G1 X70.196 Y69.075 E35.60616
G1 X71.084 Y68.909 E35.64823
G1 X72.223 Y68.813 E35.70145
G1 X72.544 Y68.804 E35.7164
G1 X72.83 Y68.8 E35.72972
G1 X161.793 Y68.8 E39.87221
G1 X162.637 Y68.811 E39.91152
G1 X163.539 Y68.864 E39.95359
G1 X164.432 Y68.996 E39.99562
G1 X165.31 Y69.207 E40.03767
G1 X166.166 Y69.495 E40.07972
G1 X166.993 Y69.857 E40.12176
G1 X167.785 Y70.292 E40.16384
G1 X168.536 Y70.794 E40.2059
G1 X169.239 Y71.361 E40.24795
G1 X169.889 Y71.988 E40.29001
G1 X170.481 Y72.67 E40.33206
G1 X171.011 Y73.401 E40.3741
G1 X171.473 Y74.177 E40.41615
G1 X171.866 Y74.99 E40.4582
G1 X172.184 Y75.835 E40.50024
G1 X172.427 Y76.705 E40.5423
G1 X172.592 Y77.593 E40.58436
G1 X172.687 Y78.723 E40.63716
G1 X172.696 Y79.043 E40.65207
G1 X172.7 Y79.33 E40.66544
G1 X172.7 Y155.264 E44.20124
G1 X172.69 Y156.117 E44.24096
G1 X172.639 Y157.019 E44.28303
G1 X172.508 Y157.913 E44.3251
G1 X172.299 Y158.791 E44.36713
G1 X172.013 Y159.648 E44.4092
G1 X171.652 Y160.476 E44.45126
G1 X171.22 Y161.268 E44.49327
G1 X170.719 Y162.02 E44.53534
G1 X170.153 Y162.724 E44.57741
G1 X169.528 Y163.375 E44.61943
G1 X168.847 Y163.969 E44.66151
G1 X168.116 Y164.5 E44.70358
G1 X167.342 Y164.964 E44.7456
G1 X166.529 Y165.358 E44.78767
G1 X165.685 Y165.678 E44.8297
G1 X164.815 Y165.923 E44.87178
G1 X163.928 Y166.089 E44.9138
G1 X162.777 Y166.187 E44.96759
G1 X162.456 Y166.196 E44.98254
G1 X162.17 Y166.2 E44.99586
G1 X151.049 Y166.199 E45.5137
G1 X150.339 Y166.188 E45.54677
G1 X149.437 Y166.134 E45.58884
G1 X148.943 Y166.07 E45.61204
G1 X148.535 Y166.006 E45.63127
G1 X146.415 Y165.643 E45.73142
G1 X143.915 Y165.287 E45.84901
G1 X141.383 Y164.999 E45.96767
G1 X138.876 Y164.786 E46.08482
G1 X136.315 Y164.641 E46.20427
G1 X133.781 Y164.569 E46.32231
G1 X131.249 Y164.569 E46.44021
G1 X128.716 Y164.641 E46.5582
G1 X126.176 Y164.785 E46.67667
G1 X123.61 Y165.002 E46.79658
G1 X121.143 Y165.283 E46.91219
G1 X118.562 Y165.65 E47.03358
G1 X117.161 Y165.881 E47.0997
G1 X116.219 Y166.043 E47.14421
G1 X115.323 Y166.157 E47.18627
G1 X114.777 Y166.187 E47.21173
G1 X114.458 Y166.196 E47.22659
G1 X114.17 Y166.2 E47.24
G1 X103.075 Y166.199 E47.75663
G1 X102.377 Y166.19 E47.78913
G1 X101.476 Y166.139 E47.83116
G1 X100.582 Y166.007 E47.87324
G1 X99.704 Y165.798 E47.91526
G1 X98.847 Y165.511 E47.95734
G1 X98.02 Y165.15 E47.99936
G1 X97.227 Y164.717 E48.04143
G1 X96.476 Y164.216 E48.08347
G1 X95.772 Y163.65 E48.12553
G1 X95.121 Y163.024 E48.16759
G1 X94.528 Y162.343 E48.20963
G1 X93.998 Y161.612 E48.25168
G1 X93.534 Y160.837 E48.29374
G1 X93.14 Y160.024 E48.33581
G1 X92.82 Y159.18 E48.37784
G1 X92.576 Y158.31 E48.41991
G1 X92.41 Y157.422 E48.46198
G1 X92.313 Y156.267 E48.51595
G1 X92.304 Y155.934 E48.53146
G1 X92.3 Y155.658 E48.54431
G1 X92.3 Y153.474 E48.64601
G1 X92.263 Y150.868 E48.76737
G1 X92.154 Y148.3 E48.88705
G1 X91.977 Y145.798 E49.00385
G1 X91.728 Y143.285 E49.12143
G1 X91.4 Y140.722 E49.24175
G1 X91.009 Y138.237 E49.35889
G1 X90.549 Y135.761 E49.47615
G1 X90.005 Y133.234 E49.59652
G1 X89.408 Y130.795 E49.71344
G1 X88.732 Y128.34 E49.83201
G1 X87.996 Y125.936 E49.94908
G1 X87.171 Y123.491 E50.06923
G1 X86.298 Y121.123 E50.18675
G1 X85.358 Y118.782 E50.30422
G1 X84.331 Y116.423 E50.42402
G1 X83.25 Y114.117 E50.54261
G1 X82.121 Y111.875 E50.6595
G1 X80.91 Y109.633 E50.77815
G1 X79.646 Y107.441 E50.89597
G1 X78.298 Y105.25 E51.01576
G1 X76.926 Y103.155 E51.13237
G1 X75.459 Y101.048 E51.25192
G1 X73.962 Y99.022 E51.36921
G1 X72.397 Y97.025 E51.48736
G1 X70.754 Y95.047 E51.60709
G1 X69.089 Y93.154 E51.72448
G1 X67.376 Y91.312 E51.84161
G1 X65.448 Y89.358 E51.96943
G1 X65.345 Y89.256 E51.97618
G1 X64.731 Y88.594 E52.01822
G1 X64.178 Y87.88 E52.06028
G1 X63.69 Y87.12 E52.10233
G1 X63.272 Y86.32 E52.14436
G1 X62.926 Y85.486 E52.1864
G1 X62.654 Y84.624 E52.22849
G1 X62.461 Y83.742 E52.27054
G1 X62.346 Y82.846 E52.3126
G1 X62.315 Y82.309 E52.33765
G1 X62.305 Y81.983 E52.35283
G1 X62.3 Y81.67 E52.36741
G1 X62.301 Y79.536 E52.46678
G1 X62.31 Y78.871 E52.49775
G1 X62.362 Y77.969 E52.53982
G1 X62.494 Y77.076 E52.58185
G1 X62.704 Y76.198 E52.62389
G1 X62.991 Y75.341 E52.66597
G1 X63.353 Y74.514 E52.70801
G1 X63.786 Y73.722 E52.75004
G1 X64.288 Y72.971 E52.7921
G1 X64.855 Y72.267 E52.83419
G1 X65.481 Y71.617 E52.87621
G1 X66.162 Y71.024 E52.91826
G1 F2700 E47.91826
;MESH:guide-rail.stl
G0 F6000 X101.847 Y156.653
G0 X115.153 Y156.653
G0 X115.155 Y108.49
G0 X154.918 Y138.898
G0 X153.46 Y138.999
G0 X154.324 Y140.579
G0 X154.622 Y140.887
G0 X155.628 Y141.714
;TYPE:WALL-INNER
G1 F2700 E52.91826
G1 F1200 X155.819 Y141.767 E52.92749
G1 X156.012 Y141.808 E52.93668
G1 X156.21 Y141.835 E52.94598
G1 X156.406 Y141.849 E52.95513
G1 X156.608 Y141.849 E52.96454
G1 X156.806 Y141.834 E52.97378
G1 X157.005 Y141.806 E52.98314
G1 X157.198 Y141.763 E52.99235
G1 X157.388 Y141.708 E53.00156
G1 X157.576 Y141.639 E53.01088
G1 X157.755 Y141.559 E53.02001
G1 X157.933 Y141.465 E53.02939
G1 X158.101 Y141.357 E53.03869
G1 X158.258 Y141.243 E53.04772
G1 X158.413 Y141.114 E53.05711
G1 X158.552 Y140.979 E53.06613
G1 X158.686 Y140.83 E53.07546
G1 X158.807 Y140.673 E53.08469
G1 X158.916 Y140.511 E53.09379
G1 X159.017 Y140.338 E53.10311
G1 X159.104 Y140.158 E53.11242
G1 X159.178 Y139.977 E53.12153
G1 X159.241 Y139.784 E53.13098
G1 X159.27 Y139.663 E53.13678
G1 X159.281 Y139.635 E53.13818
G1 X159.323 Y139.394 E53.14957
G1 X159.334 Y139.279 E53.15495
G1 X159.342 Y139.254 E53.15617
G1 X159.35 Y139.001 E53.16796
G1 X159.344 Y138.803 E53.17718
G1 X159.324 Y138.61 E53.18622
G1 X159.289 Y138.408 E53.19576
G1 X159.243 Y138.222 E53.20468
G1 X159.178 Y138.023 E53.21443
G1 X159.104 Y137.842 E53.22354
G1 X159.017 Y137.662 E53.23285
G1 X158.916 Y137.489 E53.24217
G1 X158.807 Y137.327 E53.25127
G1 X158.686 Y137.17 E53.2605
G1 X158.55 Y137.019 E53.26996
G1 X158.4 Y136.876 E53.27961
G1 X158.247 Y136.748 E53.2889
G1 X158.088 Y136.634 E53.29801
G1 X157.919 Y136.527 E53.30732
G1 X157.741 Y136.434 E53.31667
G1 X157.562 Y136.355 E53.32578
G1 X157.372 Y136.286 E53.3352
