;FLAVOR:Marlin
;TIME:12610
;Filament used: 14.5547m
;Layer height: 0.28
;MINX:76.5
;MINY:31.5
;MINZ:0.28
;MAXX:158.5
;MAXY:203.5
;MAXZ:17.92
;Generated with Cura_SteamEngine master
M140 S60
M105
M190 S60
M104 S200
M105
M109 S200
M82 ;absolute extrusion mode
; Ender 3 Custom Start G-code
G92 E0 ; Reset Extruder
G28 ; Home all axes
G1 Z2.0 F3000 ; Move Z Axis up little to prevent scratching of Heat Bed
G1 X0.1 Y20 Z0.3 F5000.0 ; Move to start position
G1 X0.1 Y200.0 Z0.3 F1500.0 E15 ; Draw the first line
G1 X0.4 Y200.0 Z0.3 F5000.0 ; Move to side a little
G1 X0.4 Y20 Z0.3 F1500.0 E30 ; Draw the second line
G92 E0 ; Reset Extruder
G1 Z2.0 F3000 ; Move Z Axis up little to prevent scratching of Heat Bed
G1 X5 Y20 Z0.3 F5000.0 ; Move over to prevent blob squish
G92 E0
G92 E0
G1 F1500 E-6.5
;LAYER_COUNT:64
;LAYER:0
M107
G0 F6000 X77.557 Y37.824 Z0.28
;TYPE:SKIRT
G1 F1500 E0
G1 F1200 X77.992 Y36.993 E0.04368
G1 X78.496 Y36.203 E0.08731
G1 X79.066 Y35.458 E0.13099
G1 X79.698 Y34.764 E0.1747
G1 X80.386 Y34.127 E0.21836
G1 X81.126 Y33.551 E0.26202
G1 X81.912 Y33.039 E0.3057
G1 X82.739 Y32.597 E0.34936
G1 X83.601 Y32.227 E0.39304
G1 X84.491 Y31.931 E0.43672
G1 X85.403 Y31.713 E0.48038
G1 X86.33 Y31.572 E0.52404
G1 X87.201 Y31.513 E0.56469
G1 X87.83 Y31.5 E0.59399
G1 X146.793 Y31.5 E3.33955
G1 X146.951 Y31.501 E3.34691
G1 X147.649 Y31.511 E3.37941
G1 X148.585 Y31.565 E3.42307
G1 X149.513 Y31.697 E3.46672
G1 X150.427 Y31.909 E3.51041
G1 X151.319 Y32.198 E3.55407
G1 X152.184 Y32.561 E3.59775
G1 X153.014 Y32.997 E3.64141
G1 X153.805 Y33.502 E3.6851
G1 X154.549 Y34.073 E3.72877
G1 X155.242 Y34.705 E3.77245
G1 X155.879 Y35.393 E3.81611
G1 X156.454 Y36.134 E3.85978
G1 X156.965 Y36.92 E3.90343
G1 X157.407 Y37.748 E3.94714
G1 X157.776 Y38.61 E3.9908
G1 X158.071 Y39.5 E4.03446
G1 X158.289 Y40.412 E4.07812
G1 X158.429 Y41.34 E4.12182
G1 X158.487 Y42.201 E4.16201
G1 X158.5 Y42.83 E4.1913
G1 X158.5 Y191.764 E11.12629
G1 X158.49 Y192.627 E11.16648
G1 X158.439 Y193.564 E11.21017
G1 X158.307 Y194.492 E11.25382
G1 X158.098 Y195.406 E11.29748
G1 X157.811 Y196.299 E11.34116
G1 X157.449 Y197.165 E11.38486
G1 X157.015 Y197.996 E11.42852
G1 X156.511 Y198.787 E11.47219
G1 X155.942 Y199.532 E11.51584
G1 X155.311 Y200.227 E11.55955
G1 X154.624 Y200.865 E11.60321
G1 X153.885 Y201.442 E11.64687
G1 X153.099 Y201.954 E11.69054
G1 X152.273 Y202.397 E11.73419
G1 X151.411 Y202.769 E11.77791
G1 X150.522 Y203.065 E11.82154
G1 X149.61 Y203.285 E11.86522
G1 X148.683 Y203.426 E11.90888
G1 X147.799 Y203.487 E11.95014
G1 X147.17 Y203.5 E11.97944
G1 X88.207 Y203.5 E14.725
G1 X87.367 Y203.49 E14.76412
G1 X86.431 Y203.438 E14.80777
G1 X85.502 Y203.306 E14.85146
G1 X84.588 Y203.096 E14.89513
G1 X83.695 Y202.809 E14.93881
G1 X82.83 Y202.446 E14.98249
G1 X81.999 Y202.012 E15.02614
G1 X81.208 Y201.508 E15.06982
G1 X80.463 Y200.938 E15.1135
G1 X79.769 Y200.307 E15.15717
G1 X79.132 Y199.62 E15.2008
G1 X78.555 Y198.88 E15.24449
G1 X78.043 Y198.094 E15.28817
G1 X77.6 Y197.267 E15.33186
G1 X77.229 Y196.406 E15.37551
G1 X76.933 Y195.516 E15.41918
G1 X76.714 Y194.604 E15.46286
G1 X76.573 Y193.677 E15.50652
G1 X76.513 Y192.788 E15.54801
G1 X76.5 Y192.158 E15.57735
G1 X76.5 Y43.174 E22.51467
G1 X76.51 Y42.36 E22.55258
G1 X76.563 Y41.424 E22.59623
G1 X76.695 Y40.495 E22.63992
G1 X76.906 Y39.581 E22.6836
G1 X77.194 Y38.689 E22.72725
G1 X77.557 Y37.824 E22.77093
G0 F6000 X77.955 Y37.918
G1 F1200 X78.389 Y37.106 E22.8138
G1 X78.892 Y36.335 E22.85667
G1 X79.461 Y35.611 E22.89955
G1 X80.089 Y34.939 E22.94237
G1 X80.774 Y34.323 E22.98527
G1 X81.51 Y33.77 E23.02814
G1 X82.291 Y33.282 E23.07102
G1 X83.111 Y32.864 E23.11388
G1 X83.965 Y32.519 E23.15676
G1 X84.845 Y32.249 E23.19963
G1 X85.745 Y32.057 E23.24248
G1 X86.659 Y31.943 E23.28537
G1 X87.212 Y31.913 E23.31115
G1 X87.83 Y31.9 E23.33994
G1 X146.793 Y31.9 E26.0855
G1 X146.945 Y31.901 E26.09258
G1 X147.643 Y31.911 E26.12509
G1 X148.562 Y31.964 E26.16795
G1 X149.473 Y32.097 E26.21082
G1 X150.369 Y32.308 E26.25368
G1 X151.243 Y32.596 E26.29653
G1 X152.09 Y32.959 E26.33944
G1 X152.901 Y33.394 E26.38229
G1 X153.671 Y33.898 E26.42515
G1 X154.395 Y34.467 E26.46802
G1 X155.067 Y35.097 E26.51091
G1 X155.682 Y35.782 E26.55378
G1 X156.235 Y36.518 E26.59665
G1 X156.722 Y37.299 E26.6395
G1 X157.139 Y38.12 E26.68238
G1 X157.484 Y38.974 E26.72527
G1 X157.753 Y39.854 E26.76812
G1 X157.945 Y40.755 E26.81102
G1 X158.058 Y41.668 E26.85385
G1 X158.087 Y42.212 E26.87922
G1 X158.1 Y42.83 E26.908
G1 X158.1 Y191.764 E33.84299
G1 X158.09 Y192.622 E33.88295
G1 X158.039 Y193.541 E33.92581
G1 X157.908 Y194.453 E33.96871
G1 X157.698 Y195.349 E34.01156
G1 X157.412 Y196.224 E34.05443
G1 X157.051 Y197.071 E34.0973
G1 X156.617 Y197.883 E34.14017
G1 X156.115 Y198.655 E34.18305
G1 X155.547 Y199.38 E34.22594
G1 X154.919 Y200.053 E34.2688
G1 X154.235 Y200.669 E34.31166
G1 X153.5 Y201.223 E34.35452
G1 X152.72 Y201.712 E34.39739
G1 X151.9 Y202.131 E34.44026
G1 X151.047 Y202.477 E34.48313
G1 X150.167 Y202.748 E34.526
G1 X149.267 Y202.941 E34.56886
G1 X148.353 Y203.056 E34.61176
G1 X147.788 Y203.087 E34.63811
G1 X147.17 Y203.1 E34.66689
G1 X88.207 Y203.1 E37.41245
G1 X87.372 Y203.09 E37.45134
G1 X86.453 Y203.038 E37.4942
G1 X85.542 Y202.907 E37.53705
G1 X84.646 Y202.697 E37.57991
G1 X83.771 Y202.41 E37.62279
G1 X82.924 Y202.048 E37.66568
G1 X82.112 Y201.614 E37.70855
G1 X81.341 Y201.112 E37.75139
G1 X80.616 Y200.544 E37.79427
G1 X79.943 Y199.915 E37.83717
G1 X79.328 Y199.231 E37.88
G1 X78.774 Y198.496 E37.92286
G1 X78.286 Y197.715 E37.96574
G1 X77.867 Y196.895 E38.00862
G1 X77.521 Y196.042 E38.05148
G1 X77.251 Y195.162 E38.09434
G1 X77.058 Y194.261 E38.13725
G1 X76.944 Y193.348 E38.18009
G1 X76.913 Y192.777 E38.20672
G1 X76.9 Y192.158 E38.23555
G1 X76.9 Y43.174 E45.17287
G1 X76.91 Y42.366 E45.21049
G1 X76.962 Y41.446 E45.2534
G1 X77.094 Y40.535 E45.29627
G1 X77.305 Y39.639 E45.33913
G1 X77.592 Y38.764 E45.38201
G1 X77.955 Y37.918 E45.42487
G0 F6000 X78.353 Y38.014
G1 F1200 X78.786 Y37.222 E45.4669
G1 X79.288 Y36.471 E45.50897
G1 X79.855 Y35.767 E45.55106
G1 X80.481 Y35.117 E45.59308
G1 X81.162 Y34.524 E45.63513
G1 X81.894 Y33.994 E45.67721
G1 X82.669 Y33.531 E45.71924
G1 X83.482 Y33.138 E45.76129
G1 X84.327 Y32.818 E45.80337
G1 X85.196 Y32.575 E45.84538
G1 X86.084 Y32.409 E45.88745
G1 X87.223 Y32.313 E45.94067
G1 X87.83 Y32.3 E45.96894
G1 X146.793 Y32.3 E48.71451
G1 X146.939 Y32.301 E48.72131
G1 X147.637 Y32.311 E48.75381
G1 X148.539 Y32.364 E48.79588
G1 X149.432 Y32.496 E48.83792
G1 X150.31 Y32.707 E48.87997
G1 X151.166 Y32.995 E48.92202
G1 X151.993 Y33.357 E48.96406
G1 X152.785 Y33.792 E49.00613
G1 X153.536 Y34.294 E49.04819
G1 X154.239 Y34.861 E49.09025
G1 X154.889 Y35.488 E49.1323
G1 X155.481 Y36.17 E49.17435
G1 X156.011 Y36.901 E49.2164
G1 X156.473 Y37.677 E49.25845
G1 X156.866 Y38.49 E49.3005
G1 X157.184 Y39.335 E49.34254
G1 X157.427 Y40.205 E49.3846
G1 X157.592 Y41.093 E49.42666
G1 X157.687 Y42.223 E49.47946
G1 X157.7 Y42.83 E49.50773
G1 X157.7 Y191.764 E56.44272
G1 X157.69 Y192.617 E56.48244
G1 X157.639 Y193.519 E56.52451
G1 X157.508 Y194.413 E56.56659
G1 X157.299 Y195.291 E56.60861
G1 X157.013 Y196.148 E56.65068
G1 X156.652 Y196.976 E56.69274
G1 X156.22 Y197.768 E56.73475
G1 X155.719 Y198.52 E56.77682
G1 X155.153 Y199.224 E56.81889
G1 X154.528 Y199.875 E56.86091
G1 X153.847 Y200.469 E56.90299
G1 X153.116 Y201 E56.94506
G1 X152.342 Y201.464 E56.98708
G1 X151.529 Y201.858 E57.02915
G1 X150.685 Y202.178 E57.07118
G1 X149.815 Y202.423 E57.11326
G1 X148.928 Y202.589 E57.15528
G1 X147.777 Y202.687 E57.20907
G1 X147.17 Y202.7 E57.23734
G1 X88.207 Y202.7 E59.98291
G1 X87.377 Y202.69 E60.02156
G1 X86.476 Y202.639 E60.06358
G1 X85.582 Y202.507 E60.10566
G1 X84.704 Y202.298 E60.14769
G1 X83.847 Y202.011 E60.18977
G1 X83.02 Y201.65 E60.23179
G1 X82.227 Y201.217 E60.27386
G1 X81.476 Y200.716 E60.31589
G1 X80.772 Y200.15 E60.35796
G1 X80.121 Y199.524 E60.40001
G1 X79.528 Y198.843 E60.44206
G1 X78.998 Y198.112 E60.4841
G1 X78.534 Y197.337 E60.52616
G1 X78.14 Y196.524 E60.56823
G1 X77.82 Y195.68 E60.61026
G1 X77.576 Y194.81 E60.65234
G1 X77.41 Y193.922 E60.6944
G1 X77.313 Y192.767 E60.74837
G1 X77.3 Y192.158 E60.77674
G1 X77.3 Y43.174 E67.71405
G1 X77.31 Y42.371 E67.75145
G1 X77.362 Y41.469 E67.79352
G1 X77.494 Y40.576 E67.83555
G1 X77.704 Y39.698 E67.87759
G1 X77.991 Y38.841 E67.91967
G1 X78.353 Y38.014 E67.96171
G1 F1500 E61.46171
;MESH:bottle-opener-gj-mt.stl
G0 F6000 X109.165 Y163.899
G0 X107.73 Y163.899
G0 X107.9 Y170.1
;TYPE:WALL-INNER
G1 F1500 E67.96171
G1 F1200 X127.1 Y170.1 E68.85574
G1 X127.1 Y64.9 E73.75429
G1 X107.9 Y64.9 E74.64833
G1 X107.9 Y170.1 E79.54688
G0 F6000 X108.3 Y169.7
;TYPE:WALL-OUTER
G1 F1200 X126.7 Y169.7 E80.40366
G1 X126.7 Y65.3 E85.26496
G1 X108.3 Y65.3 E86.12174
G1 X108.3 Y169.7 E90.98304
G1 F1500 E84.48304
G0 F6000 X108 Y169.7
G0 X107.73 Y168.173
G0 X109.165 Y168.173
G0 X86.835 Y170.296
G0 X88.31 Y170.296
G0 X88.1 Y191.9
;TYPE:WALL-INNER
G1 F1500 E90.98304
G1 F1200 X88.1 Y43.1 E97.9118
G1 X146.9 Y43.1 E100.64977
G1 X146.9 Y191.9 E107.57852
G1 X88.1 Y191.9 E110.3165
G0 F6000 X87.7 Y192.3
;TYPE:WALL-OUTER
G1 F1200 X87.7 Y42.7 E117.2825
G1 X147.3 Y42.7 E120.05772
G1 X147.3 Y192.3 E127.02373
G1 X87.7 Y192.3 E129.79895
G0 F6000 X87.97 Y192.03
G0 X88.21 Y191.51
G0 X88.49 Y191.51
;TYPE:SKIN
G1 F1200 X88.49 Y43.49 E136.69138
G1 X146.51 Y43.49 E139.39304
G1 X146.51 Y191.51 E146.28547
G1 X88.49 Y191.51 E148.98712
G1 F1500 E142.48712
G0 F6000 X88.21 Y191.51
G0 X88.31 Y170.24
G0 X86.835 Y170.24
G0 X109.153 Y168.847
G0 X107.71 Y170.24
G0 X107.79 Y170.24
G0 X107.51 Y170.49
G1 F1500 E148.98712
G1 F1200 X127.49 Y170.49 E149.91748
G1 X127.49 Y64.51 E154.85235
G1 X107.51 Y64.51 E155.7827
G1 X107.51 Y170.49 E160.71757
G1 F1500 E154.21757
G0 F6000 X107.79 Y170.24
G0 X110.214 Y170.27
G0 X110.214 Y168.835
G0 X107.704 Y193.165
G0 X107.704 Y191.69
G0 X88.959 Y191.79
G0 X88.959 Y191.348
G1 F1500 E160.71757
G1 F1200 X88.649 Y191.038 E160.73799
G0 F6000 X88.649 Y190.472
G1 F1200 X89.525 Y191.348 E160.79567
G0 F6000 X90.091 Y191.348
G1 F1200 X88.649 Y189.906 E160.89063
G0 F6000 X88.649 Y189.341
G1 F1200 X90.656 Y191.348 E161.0228
G0 F6000 X91.222 Y191.348
G1 F1200 X88.649 Y188.775 E161.19223
G0 F6000 X88.649 Y188.209
G1 F1200 X91.788 Y191.348 E161.39894
G0 F6000 X92.353 Y191.348
G1 F1200 X88.649 Y187.644 E161.64286
G0 F6000 X88.649 Y187.078
G1 F1200 X92.919 Y191.348 E161.92404
G0 F6000 X93.485 Y191.348
G1 F1200 X88.649 Y186.512 E162.2425
G0 F6000 X88.649 Y185.947
G1 F1200 X94.05 Y191.348 E162.59817
G0 F6000 X94.616 Y191.348
G1 F1200 X88.649 Y185.381 E162.9911
G0 F6000 X88.649 Y184.815
G1 F1200 X95.182 Y191.348 E163.42131
G0 F6000 X95.747 Y191.348
G1 F1200 X88.649 Y184.25 E163.88873
G0 F6000 X88.649 Y183.684
G1 F1200 X96.313 Y191.348 E164.39342
G0 F6000 X96.879 Y191.348
G1 F1200 X88.649 Y183.118 E164.93538
G0 F6000 X88.649 Y182.553
G1 F1200 X97.444 Y191.348 E165.51454
G0 F6000 X98.01 Y191.348
G1 F1200 X88.649 Y181.987 E166.13098
G0 F6000 X88.649 Y181.421
G1 F1200 X98.576 Y191.348 E166.78469
G0 F6000 X99.142 Y191.348
G1 F1200 X88.649 Y180.855 E167.47567
G0 F6000 X88.649 Y180.29
G1 F1200 X99.707 Y191.348 E168.20386
G0 F6000 X100.273 Y191.348
G1 F1200 X88.649 Y179.724 E168.96932
G0 F6000 X88.649 Y179.158
G1 F1200 X100.839 Y191.348 E169.77205
G0 F6000 X101.404 Y191.348
G1 F1200 X88.649 Y178.593 E170.61199
G0 F6000 X88.649 Y178.027
G1 F1200 X101.97 Y191.348 E171.4892
G0 F6000 X102.536 Y191.348
G1 F1200 X88.649 Y177.461 E172.40368
G0 F6000 X88.649 Y176.896
G1 F1200 X103.101 Y191.348 E173.35537
G0 F6000 X103.667 Y191.348
G1 F1200 X88.649 Y176.33 E174.34433
G0 F6000 X88.649 Y175.764
G1 F1200 X104.233 Y191.348 E175.37057
G0 F6000 X104.798 Y191.348
G1 F1200 X88.649 Y175.199 E176.43401
G0 F6000 X88.649 Y174.633
G1 F1200 X105.364 Y191.348 E177.53472
G0 F6000 X105.93 Y191.348
G1 F1200 X88.649 Y174.067 E178.6727
G0 F6000 X88.649 Y173.502
G1 F1200 X106.495 Y191.348 E179.84789
G0 F6000 X107.061 Y191.348
G1 F1200 X88.649 Y172.936 E181.06035
G0 F6000 X88.649 Y172.37
G1 F1200 X107.627 Y191.348 E182.31009
G0 F6000 X108.192 Y191.348
G1 F1200 X88.649 Y171.805 E183.59703
G0 F6000 X88.649 Y171.239
G1 F1200 X108.758 Y191.348 E184.92124
G0 F6000 X109.324 Y191.348
G1 F1200 X88.649 Y170.673 E186.28272
G0 F6000 X88.649 Y170.107
G1 F1200 X109.89 Y191.348 E187.68148
G0 F6000 X110.455 Y191.348
G1 F1200 X88.649 Y169.542 E189.11744
G0 F6000 X88.649 Y168.976
G1 F1200 X111.021 Y191.348 E190.59067
G0 F6000 X111.587 Y191.348
G1 F1200 X88.649 Y168.41 E192.10118
G0 F6000 X88.649 Y167.845
G1 F1200 X112.152 Y191.348 E193.64889
G0 F6000 X112.718 Y191.348
G1 F1200 X88.649 Y167.279 E195.23388
G0 F6000 X88.649 Y166.713
G1 F1200 X113.284 Y191.348 E196.85613
G0 F6000 X113.849 Y191.348
G1 F1200 X88.649 Y166.148 E198.5156
G0 F6000 X88.649 Y165.582
G1 F1200 X114.415 Y191.348 E200.21233
G0 F6000 X114.981 Y191.348
G1 F1200 X88.649 Y165.016 E201.94634
G0 F6000 X88.649 Y164.451
G1 F1200 X115.546 Y191.348 E203.71755
G0 F6000 X116.112 Y191.348
G1 F1200 X88.649 Y163.885 E205.52604
G0 F6000 X88.649 Y163.319
G1 F1200 X116.678 Y191.348 E207.3718
G0 F6000 X117.243 Y191.348
G1 F1200 X88.649 Y162.754 E209.25476
G0 F6000 X88.649 Y162.188
G1 F1200 X117.809 Y191.348 E211.175
G0 F6000 X118.375 Y191.348
G1 F1200 X88.649 Y161.622 E213.1325
G0 F6000 X88.649 Y161.057
G1 F1200 X118.941 Y191.348 E215.12725
G0 F6000 X119.506 Y191.348
G1 F1200 X88.649 Y160.491 E217.15924
G0 F6000 X88.649 Y159.925
G1 F1200 X120.072 Y191.348 E219.2285
G0 F6000 X120.638 Y191.348
G1 F1200 X88.649 Y159.359 E221.33503
G0 F6000 X88.649 Y158.794
G1 F1200 X121.203 Y191.348 E223.47876
G0 F6000 X121.769 Y191.348
G1 F1200 X88.649 Y158.228 E225.65977
G0 F6000 X88.649 Y157.662
G1 F1200 X122.335 Y191.348 E227.87805
G0 F6000 X122.9 Y191.348
G1 F1200 X88.649 Y157.097 E230.13354
G0 F6000 X88.649 Y156.531
G1 F1200 X123.466 Y191.348 E232.4263
G0 F6000 X124.032 Y191.348
G1 F1200 X88.649 Y155.965 E234.75633
G0 F6000 X88.649 Y155.4
G1 F1200 X124.597 Y191.348 E237.12357
G0 F6000 X125.163 Y191.348
G1 F1200 X88.649 Y154.834 E239.52807
G0 F6000 X88.649 Y154.268
G1 F1200 X125.729 Y191.348 E241.96986
G0 F6000 X126.294 Y191.348
G1 F1200 X88.649 Y153.703 E244.44884
G0 F6000 X88.649 Y153.137
G1 F1200 X126.86 Y191.348 E246.9651
G0 F6000 X127.426 Y191.348
G1 F1200 X88.649 Y152.571 E249.51863
G0 F6000 X88.649 Y152.006
G1 F1200 X127.991 Y191.348 E252.10937
G0 F6000 X128.557 Y191.348
G1 F1200 X107.857 Y170.648 E253.4725
G0 F6000 X108.423 Y170.648
G1 F1200 X129.123 Y191.348 E254.83563
G0 F6000 X129.689 Y191.348
G1 F1200 X108.989 Y170.648 E256.19876
G0 F6000 X109.554 Y170.648
G1 F1200 X130.254 Y191.348 E257.56189
G0 F6000 X130.82 Y191.348
G1 F1200 X110.12 Y170.648 E258.92502
G0 F6000 X110.686 Y170.648
G1 F1200 X131.386 Y191.348 E260.28815
G0 F6000 X131.951 Y191.348
G1 F1200 X111.251 Y170.648 E261.65128
G0 F6000 X111.817 Y170.648
G1 F1200 X132.517 Y191.348 E263.01442
G0 F6000 X133.083 Y191.348
G1 F1200 X112.383 Y170.648 E264.37755
G0 F6000 X112.948 Y170.648
G1 F1200 X133.648 Y191.348 E265.74068
G0 F6000 X134.214 Y191.348
G1 F1200 X113.514 Y170.648 E267.10381
G0 F6000 X114.08 Y170.648
G1 F1200 X134.78 Y191.348 E268.46694
G0 F6000 X135.345 Y191.348
G1 F1200 X114.646 Y170.648 E269.83003
G0 F6000 X115.211 Y170.648
G1 F1200 X135.911 Y191.348 E271.19316
G0 F6000 X136.477 Y191.348
G1 F1200 X115.777 Y170.648 E272.55629
G0 F6000 X116.343 Y170.648
G1 F1200 X137.042 Y191.348 E273.91939
G0 F6000 X137.608 Y191.348
G1 F1200 X116.908 Y170.648 E275.28252
G0 F6000 X117.474 Y170.648
G1 F1200 X138.174 Y191.348 E276.64565
G0 F6000 X138.74 Y191.348
G1 F1200 X118.04 Y170.648 E278.00878
G0 F6000 X118.605 Y170.648
G1 F1200 X139.305 Y191.348 E279.37191
G0 F6000 X139.871 Y191.348
G1 F1200 X119.171 Y170.648 E280.73504
G0 F6000 X119.737 Y170.648
G1 F1200 X140.437 Y191.348 E282.09817
G0 F6000 X141.002 Y191.348
G1 F1200 X120.302 Y170.648 E283.4613
G0 F6000 X120.868 Y170.648
G1 F1200 X141.568 Y191.348 E284.82443
G0 F6000 X142.134 Y191.348
G1 F1200 X121.434 Y170.648 E286.18757
G0 F6000 X121.999 Y170.648
G1 F1200 X142.699 Y191.348 E287.5507
G0 F6000 X143.265 Y191.348
G1 F1200 X122.565 Y170.648 E288.91383
