;FLAVOR:Marlin
;TIME:36585
;Filament used: 45.4146m
;Layer height: 0.28
;MINX:11.5
;MINY:11.5
;MINZ:0.28
;MAXX:223.5
;MAXY:223.5
;MAXZ:14.84
;Generated with Cura_SteamEngine master
M140 S60
M105
M190 S60
M104 S200
M105
M109 S200
M82 ;absolute extrusion mode
; Ender 3 Custom Start G-code
G92 E0 ; Reset Extruder
G28 ; Home all axes
G1 Z2.0 F3000 ; Move Z Axis up little to prevent scratching of Heat Bed
G1 X0.1 Y20 Z0.3 F5000.0 ; Move to start position
G1 X0.1 Y200.0 Z0.3 F1500.0 E15 ; Draw the first line
G1 X0.4 Y200.0 Z0.3 F5000.0 ; Move to side a little
G1 X0.4 Y20 Z0.3 F1500.0 E30 ; Draw the second line
G92 E0 ; Reset Extruder
G1 Z2.0 F3000 ; Move Z Axis up little to prevent scratching of Heat Bed
G1 X5 Y20 Z0.3 F5000.0 ; Move over to prevent blob squish
G92 E0
G92 E0
G1 F1500 E-6.5
;LAYER_COUNT:53
;LAYER:0
M107
G0 F6000 X14.698 Y14.764 Z0.28
;TYPE:SKIRT
G1 F1500 E0
G1 F1200 X15.386 Y14.127 E0.04366
G1 X16.126 Y13.551 E0.08732
G1 X16.912 Y13.039 E0.131
G1 X17.739 Y12.597 E0.17467
G1 X18.601 Y12.227 E0.21835
G1 X19.491 Y11.931 E0.26202
G1 X20.403 Y11.713 E0.30568
G1 X21.33 Y11.572 E0.34935
G1 X22.201 Y11.513 E0.39
G1 X22.83 Y11.5 E0.41929
G1 X211.793 Y11.5 E9.2182
G1 X211.951 Y11.501 E9.22556
G1 X212.649 Y11.511 E9.25806
G1 X213.585 Y11.565 E9.30172
G1 X214.513 Y11.697 E9.34537
G1 X215.427 Y11.909 E9.38906
G1 X216.319 Y12.198 E9.43272
G1 X217.184 Y12.561 E9.4764
G1 X218.014 Y12.997 E9.52005
G1 X218.805 Y13.502 E9.56375
G1 X219.549 Y14.073 E9.60742
G1 X220.242 Y14.705 E9.6511
G1 X220.879 Y15.393 E9.69475
G1 X221.454 Y16.134 E9.73843
G1 X221.965 Y16.92 E9.78208
G1 X222.407 Y17.748 E9.82579
G1 X222.776 Y18.61 E9.86945
G1 X223.071 Y19.5 E9.91311
G1 X223.289 Y20.412 E9.95677
G1 X223.429 Y21.34 E10.00047
G1 X223.487 Y22.201 E10.04065
G1 X223.5 Y22.83 E10.06995
G1 X223.5 Y211.764 E18.86751
G1 X223.49 Y212.627 E18.90769
G1 X223.439 Y213.564 E18.95139
G1 X223.307 Y214.492 E18.99504
G1 X223.098 Y215.406 E19.03869
G1 X222.811 Y216.299 E19.08237
G1 X222.449 Y217.165 E19.12608
G1 X222.015 Y217.996 E19.16973
G1 X221.511 Y218.787 E19.21341
G1 X220.942 Y219.532 E19.25706
G1 X220.311 Y220.227 E19.30077
G1 X219.624 Y220.865 E19.34442
G1 X218.885 Y221.442 E19.38808
G1 X218.099 Y221.954 E19.43176
G1 X217.273 Y222.397 E19.4754
G1 X216.411 Y222.769 E19.51912
G1 X215.522 Y223.065 E19.56275
G1 X214.61 Y223.285 E19.60644
G1 X213.683 Y223.426 E19.6501
G1 X212.799 Y223.487 E19.69136
G1 X212.17 Y223.5 E19.72065
G1 X23.207 Y223.5 E28.51956
G1 X22.367 Y223.49 E28.55868
G1 X21.431 Y223.438 E28.60233
G1 X20.502 Y223.306 E28.64602
G1 X19.588 Y223.096 E28.68969
G1 X18.695 Y222.809 E28.73337
G1 X17.83 Y222.446 E28.77705
G1 X16.999 Y222.012 E28.8207
G1 X16.208 Y221.508 E28.86438
G1 X15.463 Y220.938 E28.90806
G1 X14.769 Y220.307 E28.95173
G1 X14.132 Y219.62 E28.99536
G1 X13.555 Y218.88 E29.03905
G1 X13.043 Y218.094 E29.08273
G1 X12.6 Y217.267 E29.12642
G1 X12.229 Y216.406 E29.17007
G1 X11.933 Y215.516 E29.21374
G1 X11.714 Y214.604 E29.25742
G1 X11.573 Y213.677 E29.30108
G1 X11.513 Y212.788 E29.34257
G1 X11.5 Y212.158 E29.37191
G1 X11.5 Y23.174 E38.1718
G1 X11.51 Y22.36 E38.2097
G1 X11.563 Y21.424 E38.25336
G1 X11.695 Y20.495 E38.29705
G1 X11.906 Y19.581 E38.34073
G1 X12.194 Y18.689 E38.38438
G1 X12.557 Y17.824 E38.42806
G1 X12.992 Y16.993 E38.47173
G1 X13.496 Y16.203 E38.51537
G1 X14.066 Y15.458 E38.55905
G1 X14.698 Y14.764 E38.60275
G0 F6000 X15.089 Y14.939
G1 F1200 X15.774 Y14.323 E38.64565
G1 X16.51 Y13.77 E38.68852
G1 X17.291 Y13.282 E38.7314
G1 X18.111 Y12.864 E38.77426
G1 X18.965 Y12.519 E38.81715
G1 X19.845 Y12.249 E38.86001
G1 X20.745 Y12.057 E38.90286
G1 X21.659 Y11.943 E38.94575
G1 X22.212 Y11.913 E38.97154
G1 X22.83 Y11.9 E39.00032
G1 X211.793 Y11.9 E47.79923
G1 X211.945 Y11.901 E47.80631
G1 X212.643 Y11.911 E47.83881
G1 X213.562 Y11.964 E47.88167
G1 X214.473 Y12.097 E47.92454
G1 X215.369 Y12.308 E47.96741
G1 X216.243 Y12.596 E48.01026
G1 X217.09 Y12.959 E48.05317
G1 X217.901 Y13.394 E48.09602
G1 X218.671 Y13.898 E48.13887
G1 X219.395 Y14.467 E48.18175
G1 X220.067 Y15.097 E48.22464
G1 X220.682 Y15.782 E48.26751
G1 X221.235 Y16.518 E48.31037
G1 X221.722 Y17.299 E48.35323
G1 X222.139 Y18.12 E48.39611
G1 X222.484 Y18.974 E48.439
G1 X222.753 Y19.854 E48.48184
G1 X222.945 Y20.755 E48.52474
G1 X223.058 Y21.668 E48.56758
G1 X223.087 Y22.212 E48.59295
G1 X223.1 Y22.83 E48.62173
G1 X223.1 Y211.764 E57.41929
G1 X223.09 Y212.622 E57.45924
G1 X223.039 Y213.541 E57.5021
G1 X222.908 Y214.453 E57.545
G1 X222.698 Y215.349 E57.58785
G1 X222.412 Y216.224 E57.63072
G1 X222.051 Y217.071 E57.67359
G1 X221.617 Y217.883 E57.71646
G1 X221.115 Y218.655 E57.75934
G1 X220.547 Y219.38 E57.80223
G1 X219.919 Y220.053 E57.84509
G1 X219.235 Y220.669 E57.88795
G1 X218.5 Y221.223 E57.93081
G1 X217.72 Y221.712 E57.97368
G1 X216.9 Y222.131 E58.01656
G1 X216.047 Y222.477 E58.05942
G1 X215.167 Y222.748 E58.10229
G1 X214.267 Y222.941 E58.14516
G1 X213.353 Y223.056 E58.18805
G1 X212.788 Y223.087 E58.2144
G1 X212.17 Y223.1 E58.24318
G1 X23.207 Y223.1 E67.04209
G1 X22.372 Y223.09 E67.08097
G1 X21.453 Y223.038 E67.12384
G1 X20.542 Y222.907 E67.16669
G1 X19.646 Y222.697 E67.20954
G1 X18.771 Y222.41 E67.25242
G1 X17.924 Y222.048 E67.29531
G1 X17.112 Y221.614 E67.33819
G1 X16.341 Y221.112 E67.38103
G1 X15.616 Y220.544 E67.42391
G1 X14.943 Y219.915 E67.46681
G1 X14.328 Y219.231 E67.50964
G1 X13.774 Y218.496 E67.5525
G1 X13.286 Y217.715 E67.59538
G1 X12.867 Y216.895 E67.63826
G1 X12.521 Y216.042 E67.68112
G1 X12.251 Y215.162 E67.72398
G1 X12.058 Y214.261 E67.76689
G1 X11.944 Y213.348 E67.80973
G1 X11.913 Y212.777 E67.83636
G1 X11.9 Y212.158 E67.86519
G1 X11.9 Y23.174 E76.66507
G1 X11.91 Y22.366 E76.7027
G1 X11.962 Y21.446 E76.74561
G1 X12.094 Y20.535 E76.78847
G1 X12.305 Y19.639 E76.83133
G1 X12.592 Y18.764 E76.87421
G1 X12.955 Y17.918 E76.91708
G1 X13.389 Y17.106 E76.95995
G1 X13.892 Y16.335 E77.00282
G1 X14.461 Y15.611 E77.04569
G1 X15.089 Y14.939 E77.08852
G0 F6000 X15.481 Y15.117
G1 F1200 X16.162 Y14.524 E77.13057
G1 X16.894 Y13.994 E77.17265
G1 X17.669 Y13.531 E77.21469
G1 X18.482 Y13.138 E77.25674
G1 X19.327 Y12.818 E77.29881
G1 X20.196 Y12.575 E77.34083
G1 X21.084 Y12.409 E77.38289
G1 X22.223 Y12.313 E77.43612
G1 X22.83 Y12.3 E77.46439
G1 X211.793 Y12.3 E86.2633
G1 X211.939 Y12.301 E86.27009
G1 X212.637 Y12.311 E86.3026
G1 X213.539 Y12.364 E86.34467
G1 X214.432 Y12.496 E86.38671
G1 X215.31 Y12.707 E86.42875
G1 X216.166 Y12.995 E86.47081
G1 X216.993 Y13.357 E86.51284
G1 X217.785 Y13.792 E86.55492
G1 X218.536 Y14.294 E86.59698
G1 X219.239 Y14.861 E86.63904
G1 X219.889 Y15.488 E86.68109
G1 X220.481 Y16.17 E86.72314
G1 X221.011 Y16.901 E86.76519
G1 X221.473 Y17.677 E86.80724
G1 X221.866 Y18.49 E86.84929
G1 X222.184 Y19.335 E86.89133
G1 X222.427 Y20.205 E86.93339
G1 X222.592 Y21.093 E86.97545
G1 X222.687 Y22.223 E87.02825
G1 X222.7 Y22.83 E87.05652
G1 X222.7 Y211.764 E95.85408
G1 X222.69 Y212.617 E95.8938
G1 X222.639 Y213.519 E95.93587
G1 X222.508 Y214.413 E95.97794
G1 X222.299 Y215.291 E96.01997
G1 X222.013 Y216.148 E96.06204
G1 X221.652 Y216.976 E96.1041
G1 X221.22 Y217.768 E96.1461
G1 X220.719 Y218.52 E96.18818
G1 X220.153 Y219.224 E96.23024
G1 X219.528 Y219.875 E96.27226
G1 X218.847 Y220.469 E96.31434
G1 X218.116 Y221 E96.35641
G1 X217.342 Y221.464 E96.39843
G1 X216.529 Y221.858 E96.4405
G1 X215.685 Y222.178 E96.48253
G1 X214.815 Y222.423 E96.52462
G1 X213.928 Y222.589 E96.56664
G1 X212.777 Y222.687 E96.62043
G1 X212.17 Y222.7 E96.6487
G1 X23.207 Y222.7 E105.44761
G1 X22.377 Y222.69 E105.48626
G1 X21.476 Y222.639 E105.52828
G1 X20.582 Y222.507 E105.57036
G1 X19.704 Y222.298 E105.61239
G1 X18.847 Y222.011 E105.65447
G1 X18.02 Y221.65 E105.69649
G1 X17.227 Y221.217 E105.73856
G1 X16.476 Y220.716 E105.78059
G1 X15.772 Y220.15 E105.82266
G1 X15.121 Y219.524 E105.86471
G1 X14.528 Y218.843 E105.90676
G1 X13.998 Y218.112 E105.9488
G1 X13.534 Y217.337 E105.99086
G1 X13.14 Y216.524 E106.03293
G1 X12.82 Y215.68 E106.07496
G1 X12.576 Y214.81 E106.11703
G1 X12.41 Y213.922 E106.1591
G1 X12.313 Y212.767 E106.21307
G1 X12.3 Y212.158 E106.24144
G1 X12.3 Y23.174 E115.04132
G1 X12.31 Y22.371 E115.07872
G1 X12.362 Y21.469 E115.12079
G1 X12.494 Y20.576 E115.16282
G1 X12.704 Y19.698 E115.20486
G1 X12.991 Y18.841 E115.24694
G1 X13.353 Y18.014 E115.28898
G1 X13.786 Y17.222 E115.33101
G1 X14.288 Y16.471 E115.37307
G1 X14.855 Y15.767 E115.41516
G1 X15.481 Y15.117 E115.45718
G1 F1500 E108.95718
;MESH:teapot-gj-mt.stl
G0 F6000 X72.443 Y97.409
G0 X71.115 Y96.811
G0 X69.026 Y103.565
G0 X68.171 Y106.979
G0 X67.559 Y110.447
G0 X67.187 Y113.949
G0 X67.062 Y117.466
G0 X67.181 Y120.984
G0 X67.548 Y124.487
G0 X68.155 Y127.953
G0 X69.006 Y131.37
G0 X70.091 Y134.718
G0 X71.408 Y137.984
G0 X72.949 Y141.15
G0 X74.708 Y144.2
G0 X76.674 Y147.12
G0 X78.841 Y149.895
G0 X81.24 Y152.561
G0 X83.749 Y154.984
G0 X86.447 Y157.248
G0 X89.294 Y159.317
G0 X92.28 Y161.181
G0 X95.388 Y162.835
G0 X98.606 Y164.268
G0 X101.913 Y165.471
G0 X105.299 Y166.441
G0 X108.742 Y167.173
G0 X109.73 Y167.311
G0 X115.734 Y168.07
;TYPE:WALL-INNER
G1 F1500 E115.45718
G1 F1200 X119.266 Y168.07 E115.62165
G1 X122.789 Y167.823 E115.7861
G1 X126.286 Y167.331 E115.95053
G1 X129.741 Y166.597 E116.115
G1 X133.137 Y165.624 E116.2795
G1 X136.455 Y164.416 E116.44392
G1 X139.682 Y162.98 E116.60839
G1 X142.8 Y161.321 E116.77285
G1 X145.796 Y159.45 E116.93732
G1 X148.652 Y157.374 E117.10173
G1 X151.359 Y155.103 E117.26626
G1 X153.899 Y152.65 E117.43069
G1 X156.239 Y150.05 E117.59357
G1 X158.416 Y147.27 E117.75798
G1 X160.392 Y144.342 E117.92247
G1 X162.16 Y141.285 E118.0869
G1 X163.711 Y138.112 E118.25136
G1 X165.036 Y134.838 E118.41582
G1 X166.129 Y131.48 E118.58026
G1 X166.985 Y128.054 E118.74469
G1 X167.6 Y124.576 E118.90915
G1 X167.973 Y121.063 E119.07365
G1 X168.098 Y117.534 E119.23808
G1 X167.979 Y114.004 E119.40255
G1 X167.611 Y110.491 E119.56702
G1 X167.002 Y107.013 E119.73144
G1 X166.149 Y103.586 E119.89588
G1 X165.06 Y100.226 E120.06035
G1 X163.739 Y96.95 E120.22483
G1 X162.193 Y93.774 E120.38931
G1 X160.429 Y90.715 E120.55373
G1 X158.456 Y87.786 E120.71818
G1 X156.283 Y85.002 E120.88262
G1 X153.876 Y82.327 E121.05019
G1 X151.359 Y79.897 E121.21309
G1 X148.652 Y77.626 E121.37763
G1 X145.796 Y75.55 E121.54204
G1 X142.8 Y73.679 E121.70651
G1 X139.682 Y72.02 E121.87097
G1 X136.455 Y70.584 E122.03544
G1 X133.137 Y69.376 E122.19986
G1 X129.741 Y68.403 E122.36435
G1 X126.286 Y67.669 E122.52882
G1 X122.789 Y67.177 E122.69326
G1 X119.266 Y66.93 E122.85771
G1 X115.734 Y66.93 E123.02218
G1 X112.211 Y67.177 E123.18662
G1 X108.714 Y67.669 E123.35106
G1 X105.259 Y68.403 E123.51553
G1 X101.863 Y69.376 E123.68003
G1 X98.545 Y70.584 E123.84445
G1 X95.318 Y72.02 E124.00892
G1 X92.2 Y73.679 E124.17338
G1 X89.204 Y75.55 E124.33785
G1 X86.348 Y77.626 E124.50226
G1 X83.641 Y79.897 E124.66679
G1 X81.101 Y82.35 E124.83122
G1 X78.761 Y84.95 E124.9941
G1 X76.584 Y87.73 E125.15851
G1 X74.608 Y90.658 E125.32299
G1 X72.84 Y93.715 E125.48743
G1 X71.289 Y96.888 E125.65189
G1 X69.964 Y100.162 E125.81635
G1 X68.871 Y103.52 E125.98079
G1 X68.015 Y106.946 E126.14522
G1 X67.4 Y110.424 E126.30968
G1 X67.027 Y113.937 E126.47418
G1 X66.902 Y117.466 E126.63861
G1 X67.021 Y120.996 E126.80308
G1 X67.389 Y124.509 E126.96755
G1 X67.998 Y127.987 E127.13197
G1 X68.851 Y131.414 E127.29641
G1 X69.94 Y134.774 E127.46088
G1 X71.261 Y138.05 E127.62536
G1 X72.807 Y141.226 E127.78984
G1 X74.571 Y144.285 E127.95426
G1 X76.544 Y147.214 E128.1187
G1 X78.717 Y149.998 E128.28315
G1 X81.124 Y152.673 E128.45071
G1 X83.641 Y155.103 E128.61362
G1 X86.348 Y157.374 E128.77816
G1 X89.204 Y159.45 E128.94257
G1 X92.2 Y161.321 E129.10704
G1 X95.318 Y162.98 E129.2715
G1 X98.545 Y164.416 E129.43597
G1 X101.863 Y165.624 E129.60039
G1 X105.259 Y166.597 E129.76488
G1 X108.714 Y167.331 E129.92935
G1 X112.211 Y167.823 E130.09379
G1 X115.734 Y168.07 E130.25824
G0 F6000 X115.748 Y167.67
;TYPE:WALL-OUTER
G1 F1200 X119.252 Y167.67 E130.4214
G1 X122.747 Y167.425 E130.58454
G1 X126.217 Y166.937 E130.74771
G1 X129.644 Y166.209 E130.91085
G1 X133.013 Y165.243 E131.07404
G1 X136.305 Y164.045 E131.23717
G1 X139.507 Y162.62 E131.40036
G1 X142.6 Y160.974 E131.56351
G1 X145.572 Y159.118 E131.72667
G1 X148.406 Y157.059 E131.88978
G1 X151.091 Y154.806 E132.05299
G1 X153.611 Y152.372 E132.21613
G1 X155.932 Y149.793 E132.37769
G1 X158.092 Y147.034 E132.54085
G1 X160.053 Y144.13 E132.70402
G1 X161.807 Y141.097 E132.86716
G1 X163.345 Y137.949 E133.0303
G1 X164.66 Y134.701 E133.19347
G1 X165.744 Y131.369 E133.35663
G1 X166.594 Y127.971 E133.51973
G1 X167.204 Y124.52 E133.68291
G1 X167.574 Y121.035 E133.8461
G1 X167.698 Y117.534 E134.00922
G1 X167.58 Y114.032 E134.17238
G1 X167.215 Y110.546 E134.33559
G1 X166.61 Y107.096 E134.49869
G1 X165.764 Y103.696 E134.66184
G1 X164.684 Y100.363 E134.82498
G1 X163.373 Y97.113 E134.98816
G1 X161.839 Y93.962 E135.15135
G1 X160.089 Y90.927 E135.31448
G1 X158.132 Y88.021 E135.47762
G1 X155.976 Y85.259 E135.64077
G1 X153.588 Y82.605 E135.80702
G1 X151.091 Y80.194 E135.96864
G1 X148.406 Y77.941 E136.13185
G1 X145.572 Y75.882 E136.29496
G1 X142.6 Y74.026 E136.45812
G1 X139.507 Y72.38 E136.62127
G1 X136.305 Y70.955 E136.78447
G1 X133.013 Y69.757 E136.94759
G1 X129.644 Y68.791 E137.11079
G1 X126.217 Y68.063 E137.27392
G1 X122.747 Y67.575 E137.43709
G1 X119.252 Y67.33 E137.60023
G1 X115.748 Y67.33 E137.76339
G1 X112.253 Y67.575 E137.92653
G1 X108.783 Y68.063 E138.0897
G1 X105.356 Y68.791 E138.25284
G1 X101.987 Y69.757 E138.41603
G1 X98.695 Y70.955 E138.57916
G1 X95.493 Y72.38 E138.74236
G1 X92.4 Y74.026 E138.9055
G1 X89.428 Y75.882 E139.06866
G1 X86.594 Y77.941 E139.23177
G1 X83.909 Y80.194 E139.39498
G1 X81.389 Y82.628 E139.55812
G1 X79.068 Y85.207 E139.71968
G1 X76.908 Y87.966 E139.88284
G1 X74.947 Y90.87 E140.04601
G1 X73.193 Y93.903 E140.20915
G1 X71.655 Y97.051 E140.3723
G1 X70.34 Y100.299 E140.53546
G1 X69.256 Y103.631 E140.69862
G1 X68.406 Y107.029 E140.86172
G1 X67.796 Y110.48 E141.0249
G1 X67.426 Y113.965 E141.18809
G1 X67.302 Y117.466 E141.35121
G1 X67.42 Y120.968 E141.51437
G1 X67.785 Y124.454 E141.67758
G1 X68.39 Y127.904 E141.84068
G1 X69.236 Y131.304 E142.00383
G1 X70.316 Y134.637 E142.16697
G1 X71.627 Y137.887 E142.33015
G1 X73.161 Y141.038 E142.49334
G1 X74.911 Y144.073 E142.65647
G1 X76.868 Y146.979 E142.81961
G1 X79.024 Y149.741 E142.98276
G1 X81.412 Y152.395 E143.14901
G1 X83.909 Y154.806 E143.31063
G1 X86.594 Y157.059 E143.47384
G1 X89.428 Y159.118 E143.63696
G1 X92.4 Y160.974 E143.80011
G1 X95.493 Y162.62 E143.96326
G1 X98.695 Y164.045 E144.12646
G1 X101.987 Y165.243 E144.28958
G1 X105.356 Y166.209 E144.45278
G1 X108.783 Y166.937 E144.61591
G1 X112.253 Y167.425 E144.77908
G1 X115.748 Y167.67 E144.94222
G0 F6000 X115.733 Y168.109
G1 F1500 E138.44222
G0 F6000 X112.191 Y168.013
G0 X112.351 Y166.566
G0 X112.191 Y213.165
G0 X112.191 Y211.69
G0 X23.1 Y211.9
;TYPE:WALL-INNER
G1 F1500 E144.94222
G1 F1200 X23.1 Y23.1 E153.73354
G1 X211.9 Y23.1 E162.52486
G1 X211.9 Y211.9 E171.31618
G1 X23.1 Y211.9 E180.1075
G0 F6000 X22.7 Y212.3
;TYPE:WALL-OUTER
G1 F1200 X22.7 Y22.7 E188.93607
G1 X212.3 Y22.7 E197.76464
G1 X212.3 Y212.3 E206.59321
G1 X22.7 Y212.3 E215.42178
G0 F6000 X22.97 Y212.03
G0 X23.21 Y211.51
G0 X23.49 Y211.51
;TYPE:SKIN
G1 F1200 X23.49 Y23.49 E224.17678
G1 X211.51 Y23.49 E232.93178
G1 X211.51 Y211.51 E241.68678
G1 X23.49 Y211.51 E250.44178
G1 F1500 E243.94178
G0 F6000 X23.21 Y211.51
G0 X23.31 Y152.751
G0 X21.835 Y152.751
G0 X79.689 Y149.188
G0 X78.571 Y150.121
G0 X81.045 Y152.751
G0 X80.843 Y152.944
G1 F1500 E250.44178
G1 F1200 X83.38 Y155.393 E250.60597
G1 X86.108 Y157.682 E250.77179
G1 X88.986 Y159.774 E250.93746
G1 X92.005 Y161.659 E251.10319
G1 X95.147 Y163.331 E251.26892
G1 X98.399 Y164.778 E251.43466
G1 X101.742 Y165.995 E251.60032
G1 X105.165 Y166.975 E251.76612
G1 X108.646 Y167.715 E251.93183
G1 X112.17 Y168.211 E252.09754
G1 X115.72 Y168.46 E252.26325
G1 X119.28 Y168.46 E252.42901
G1 X122.83 Y168.211 E252.59472
G1 X126.354 Y167.715 E252.76043
G1 X129.835 Y166.975 E252.92615
G1 X133.258 Y165.995 E253.09194
G1 X136.601 Y164.778 E253.2576
G1 X139.853 Y163.331 E253.42334
