;FLAVOR:Marlin
;TIME:30725
;Filament used: 38.2241m
;Layer height: 0.28
;MINX:21.5
;MINY:21.5
;MINZ:0.28
;MAXX:213.5
;MAXY:213.5
;MAXZ:17.92
;Generated with Cura_SteamEngine master
M140 S60
M105
M190 S60
M104 S200
M105
M109 S200
M82 ;absolute extrusion mode
; Ender 3 Custom Start G-code
G92 E0 ; Reset Extruder
G28 ; Home all axes
G1 Z2.0 F3000 ; Move Z Axis up little to prevent scratching of Heat Bed
G1 X0.1 Y20 Z0.3 F5000.0 ; Move to start position
G1 X0.1 Y200.0 Z0.3 F1500.0 E15 ; Draw the first line
G1 X0.4 Y200.0 Z0.3 F5000.0 ; Move to side a little
G1 X0.4 Y20 Z0.3 F1500.0 E30 ; Draw the second line
G92 E0 ; Reset Extruder
G1 Z2.0 F3000 ; Move Z Axis up little to prevent scratching of Heat Bed
G1 X5 Y20 Z0.3 F5000.0 ; Move over to prevent blob squish
G92 E0
G92 E0
G1 F1500 E-6.5
;LAYER_COUNT:64
;LAYER:0
M107
G0 F6000 X24.698 Y24.764 Z0.28
;TYPE:SKIRT
G1 F1500 E0
G1 F1200 X25.386 Y24.127 E0.04366
G1 X26.126 Y23.551 E0.08732
G1 X26.912 Y23.039 E0.131
G1 X27.739 Y22.597 E0.17467
G1 X28.601 Y22.227 E0.21835
G1 X29.491 Y21.931 E0.26202
G1 X30.403 Y21.713 E0.30568
G1 X31.33 Y21.572 E0.34935
G1 X32.201 Y21.513 E0.39
G1 X32.83 Y21.5 E0.41929
G1 X201.793 Y21.5 E8.28692
G1 X201.951 Y21.501 E8.29427
G1 X202.649 Y21.511 E8.32678
G1 X203.585 Y21.565 E8.37044
G1 X204.513 Y21.697 E8.41408
G1 X205.427 Y21.909 E8.45777
G1 X206.319 Y22.198 E8.50143
G1 X207.184 Y22.561 E8.54511
G1 X208.014 Y22.997 E8.58877
G1 X208.805 Y23.502 E8.63247
G1 X209.549 Y24.073 E8.67614
G1 X210.242 Y24.705 E8.71981
G1 X210.879 Y25.393 E8.76347
G1 X211.454 Y26.134 E8.80714
G1 X211.965 Y26.92 E8.8508
G1 X212.407 Y27.748 E8.8945
G1 X212.776 Y28.61 E8.93816
G1 X213.071 Y29.5 E8.98182
G1 X213.289 Y30.412 E9.02549
G1 X213.429 Y31.34 E9.06919
G1 X213.487 Y32.201 E9.10937
G1 X213.5 Y32.83 E9.13867
G1 X213.5 Y201.764 E17.00494
G1 X213.49 Y202.627 E17.04513
G1 X213.439 Y203.564 E17.08882
G1 X213.307 Y204.492 E17.13247
G1 X213.098 Y205.406 E17.17613
G1 X212.811 Y206.299 E17.2198
G1 X212.449 Y207.165 E17.26351
G1 X212.015 Y207.996 E17.30716
G1 X211.511 Y208.787 E17.35084
G1 X210.942 Y209.532 E17.39449
G1 X210.311 Y210.227 E17.4382
G1 X209.624 Y210.865 E17.48186
G1 X208.885 Y211.442 E17.52551
G1 X208.099 Y211.954 E17.56919
G1 X207.273 Y212.397 E17.61284
G1 X206.411 Y212.769 E17.65655
G1 X205.522 Y213.065 E17.70018
G1 X204.61 Y213.285 E17.74387
G1 X203.683 Y213.426 E17.78753
G1 X202.799 Y213.487 E17.82879
G1 X202.17 Y213.5 E17.85809
G1 X33.207 Y213.5 E25.72571
G1 X32.367 Y213.49 E25.76483
G1 X31.431 Y213.438 E25.80848
G1 X30.502 Y213.306 E25.85217
G1 X29.588 Y213.096 E25.89584
G1 X28.695 Y212.809 E25.93952
G1 X27.83 Y212.446 E25.9832
G1 X26.999 Y212.012 E26.02685
G1 X26.208 Y211.508 E26.07052
G1 X25.463 Y210.938 E26.1142
G1 X24.769 Y210.307 E26.15788
G1 X24.132 Y209.62 E26.20151
G1 X23.555 Y208.88 E26.2452
G1 X23.043 Y208.094 E26.28888
G1 X22.6 Y207.267 E26.33256
G1 X22.229 Y206.406 E26.37622
G1 X21.933 Y205.516 E26.41989
G1 X21.714 Y204.604 E26.46357
G1 X21.573 Y203.677 E26.50723
G1 X21.513 Y202.788 E26.54872
G1 X21.5 Y202.158 E26.57806
G1 X21.5 Y33.174 E34.44666
G1 X21.51 Y32.36 E34.48457
G1 X21.563 Y31.424 E34.52822
G1 X21.695 Y30.495 E34.57192
G1 X21.906 Y29.581 E34.61559
G1 X22.194 Y28.689 E34.65924
G1 X22.557 Y27.824 E34.70292
G1 X22.992 Y26.993 E34.7466
G1 X23.496 Y26.203 E34.79023
G1 X24.066 Y25.458 E34.83391
G1 X24.698 Y24.764 E34.87762
G0 F6000 X25.089 Y24.939
G1 F1200 X25.774 Y24.323 E34.92052
G1 X26.51 Y23.77 E34.96338
G1 X27.291 Y23.282 E35.00626
G1 X28.111 Y22.864 E35.04912
G1 X28.965 Y22.519 E35.09201
G1 X29.845 Y22.249 E35.13487
G1 X30.745 Y22.057 E35.17772
G1 X31.659 Y21.943 E35.22061
G1 X32.212 Y21.913 E35.2464
G1 X32.83 Y21.9 E35.27518
G1 X201.793 Y21.9 E43.14281
G1 X201.945 Y21.901 E43.14989
G1 X202.643 Y21.911 E43.18239
G1 X203.562 Y21.964 E43.22526
G1 X204.473 Y22.097 E43.26812
G1 X205.369 Y22.308 E43.31099
G1 X206.243 Y22.596 E43.35384
G1 X207.09 Y22.959 E43.39675
G1 X207.901 Y23.394 E43.4396
G1 X208.671 Y23.898 E43.48245
G1 X209.395 Y24.467 E43.52533
G1 X210.067 Y25.097 E43.56822
G1 X210.682 Y25.782 E43.61109
G1 X211.235 Y26.518 E43.65395
G1 X211.722 Y27.299 E43.69681
G1 X212.139 Y28.12 E43.73969
G1 X212.484 Y28.974 E43.78258
G1 X212.753 Y29.854 E43.82543
G1 X212.945 Y30.755 E43.86832
G1 X213.058 Y31.668 E43.91116
G1 X213.087 Y32.212 E43.93653
G1 X213.1 Y32.83 E43.96531
G1 X213.1 Y201.764 E51.83158
G1 X213.09 Y202.622 E51.87154
G1 X213.039 Y203.541 E51.9144
G1 X212.908 Y204.453 E51.9573
G1 X212.698 Y205.349 E52.00015
G1 X212.412 Y206.224 E52.04302
G1 X212.051 Y207.071 E52.08589
G1 X211.617 Y207.883 E52.12876
G1 X211.115 Y208.655 E52.17164
G1 X210.547 Y209.38 E52.21453
G1 X209.919 Y210.053 E52.25739
G1 X209.235 Y210.669 E52.30025
G1 X208.5 Y211.223 E52.34311
G1 X207.72 Y211.712 E52.38598
G1 X206.9 Y212.131 E52.42885
G1 X206.047 Y212.477 E52.47172
G1 X205.167 Y212.748 E52.51459
G1 X204.267 Y212.941 E52.55745
G1 X203.353 Y213.056 E52.60035
G1 X202.788 Y213.087 E52.6267
G1 X202.17 Y213.1 E52.65548
G1 X33.207 Y213.1 E60.5231
G1 X32.372 Y213.09 E60.56199
G1 X31.453 Y213.038 E60.60485
G1 X30.542 Y212.907 E60.64771
G1 X29.646 Y212.697 E60.69056
G1 X28.771 Y212.41 E60.73344
G1 X27.924 Y212.048 E60.77633
G1 X27.112 Y211.614 E60.8192
G1 X26.341 Y211.112 E60.86204
G1 X25.616 Y210.544 E60.90493
G1 X24.943 Y209.915 E60.94782
G1 X24.328 Y209.231 E60.99065
G1 X23.774 Y208.496 E61.03351
G1 X23.286 Y207.715 E61.07639
G1 X22.867 Y206.895 E61.11927
G1 X22.521 Y206.042 E61.16213
G1 X22.251 Y205.162 E61.20499
G1 X22.058 Y204.261 E61.2479
G1 X21.944 Y203.348 E61.29074
G1 X21.913 Y202.777 E61.31737
G1 X21.9 Y202.158 E61.3462
G1 X21.9 Y33.174 E69.2148
G1 X21.91 Y32.366 E69.25243
G1 X21.962 Y31.446 E69.29534
G1 X22.094 Y30.535 E69.3382
G1 X22.305 Y29.639 E69.38106
G1 X22.592 Y28.764 E69.42394
G1 X22.955 Y27.918 E69.46681
G1 X23.389 Y27.106 E69.50968
G1 X23.892 Y26.335 E69.55255
G1 X24.461 Y25.611 E69.59542
G1 X25.089 Y24.939 E69.63825
G0 F6000 X25.481 Y25.117
G1 F1200 X26.162 Y24.524 E69.6803
G1 X26.894 Y23.994 E69.72238
G1 X27.669 Y23.531 E69.76442
G1 X28.482 Y23.138 E69.80647
G1 X29.327 Y22.818 E69.84854
G1 X30.196 Y22.575 E69.89056
G1 X31.084 Y22.409 E69.93262
G1 X32.223 Y22.313 E69.98585
G1 X32.83 Y22.3 E70.01412
G1 X201.793 Y22.3 E77.88174
G1 X201.939 Y22.301 E77.88854
G1 X202.637 Y22.311 E77.92105
G1 X203.539 Y22.364 E77.96312
G1 X204.432 Y22.496 E78.00515
G1 X205.31 Y22.707 E78.0472
G1 X206.166 Y22.995 E78.08925
G1 X206.993 Y23.357 E78.13129
G1 X207.785 Y23.792 E78.17337
G1 X208.536 Y24.294 E78.21543
G1 X209.239 Y24.861 E78.25748
G1 X209.889 Y25.488 E78.29954
G1 X210.481 Y26.17 E78.34159
G1 X211.011 Y26.901 E78.38363
G1 X211.473 Y27.677 E78.42568
G1 X211.866 Y28.49 E78.46773
G1 X212.184 Y29.335 E78.50977
G1 X212.427 Y30.205 E78.55183
G1 X212.592 Y31.093 E78.59389
G1 X212.687 Y32.223 E78.64669
G1 X212.7 Y32.83 E78.67497
G1 X212.7 Y201.764 E86.54124
G1 X212.69 Y202.617 E86.58096
G1 X212.639 Y203.519 E86.62303
G1 X212.508 Y204.413 E86.6651
G1 X212.299 Y205.291 E86.70713
G1 X212.013 Y206.148 E86.7492
G1 X211.652 Y206.976 E86.79126
G1 X211.22 Y207.768 E86.83327
G1 X210.719 Y208.52 E86.87534
G1 X210.153 Y209.224 E86.9174
G1 X209.528 Y209.875 E86.95943
G1 X208.847 Y210.469 E87.0015
G1 X208.116 Y211 E87.04358
G1 X207.342 Y211.464 E87.0856
G1 X206.529 Y211.858 E87.12766
G1 X205.685 Y212.178 E87.16969
G1 X204.815 Y212.423 E87.21178
G1 X203.928 Y212.589 E87.2538
G1 X202.777 Y212.687 E87.30759
G1 X202.17 Y212.7 E87.33586
G1 X33.207 Y212.7 E95.20349
G1 X32.377 Y212.69 E95.24214
G1 X31.476 Y212.639 E95.28416
G1 X30.582 Y212.507 E95.32624
G1 X29.704 Y212.298 E95.36826
G1 X28.847 Y212.011 E95.41035
G1 X28.02 Y211.65 E95.45236
G1 X27.227 Y211.217 E95.49444
G1 X26.476 Y210.716 E95.53647
G1 X25.772 Y210.15 E95.57854
G1 X25.121 Y209.524 E95.62059
G1 X24.528 Y208.843 E95.66264
G1 X23.998 Y208.112 E95.70468
G1 X23.534 Y207.337 E95.74674
G1 X23.14 Y206.524 E95.78881
G1 X22.82 Y205.68 E95.83084
G1 X22.576 Y204.81 E95.87291
G1 X22.41 Y203.922 E95.91498
G1 X22.313 Y202.767 E95.96895
G1 X22.3 Y202.158 E95.99731
G1 X22.3 Y33.174 E103.86592
G1 X22.31 Y32.371 E103.90331
G1 X22.362 Y31.469 E103.94538
G1 X22.494 Y30.576 E103.98741
G1 X22.704 Y29.698 E104.02945
G1 X22.991 Y28.841 E104.07154
G1 X23.353 Y28.014 E104.11357
G1 X23.786 Y27.222 E104.1556
G1 X24.288 Y26.471 E104.19766
G1 X24.855 Y25.767 E104.23976
G1 X25.481 Y25.117 E104.28178
G1 F1500 E97.78178
;MESH:teapot-gj-mt.stl
G0 F6000 X73.957 Y94.31
G0 X72.671 Y93.629
G0 X70.113 Y100.222
G0 X69.024 Y103.57
G0 X68.17 Y106.985
G0 X67.558 Y110.452
G0 X67.187 Y113.954
G0 X67.062 Y117.472
G0 X67.181 Y120.99
G0 X67.548 Y124.492
G0 X68.156 Y127.958
G0 X69.007 Y131.376
G0 X70.093 Y134.723
G0 X71.41 Y137.989
G0 X72.951 Y141.155
G0 X74.71 Y144.204
G0 X76.677 Y147.124
G0 X78.844 Y149.9
G0 X81.237 Y152.557
G0 X83.749 Y154.984
G0 X86.447 Y157.248
G0 X89.294 Y159.317
G0 X92.28 Y161.181
G0 X95.388 Y162.835
G0 X98.606 Y164.268
G0 X101.913 Y165.471
G0 X105.299 Y166.441
G0 X108.742 Y167.173
G0 X109.73 Y167.311
G0 X115.734 Y168.07
;TYPE:WALL-INNER
G1 F1500 E104.28178
G1 F1200 X119.266 Y168.07 E104.44624
G1 X122.789 Y167.823 E104.61069
G1 X126.286 Y167.331 E104.77513
G1 X129.741 Y166.597 E104.9396
G1 X133.137 Y165.624 E105.10409
G1 X136.455 Y164.416 E105.26851
G1 X139.682 Y162.98 E105.43298
G1 X142.8 Y161.321 E105.59744
G1 X145.796 Y159.45 E105.76192
G1 X148.652 Y157.374 E105.92633
G1 X151.359 Y155.103 E106.09086
G1 X153.899 Y152.65 E106.25528
G1 X156.243 Y150.046 E106.41842
G1 X158.419 Y147.264 E106.58288
G1 X160.395 Y144.338 E106.74729
G1 X162.162 Y141.281 E106.91171
G1 X163.713 Y138.107 E107.0762
G1 X165.038 Y134.833 E107.24067
G1 X166.131 Y131.474 E107.40515
G1 X166.986 Y128.048 E107.56957
G1 X167.601 Y124.571 E107.73398
G1 X167.973 Y121.058 E107.89848
G1 X168.098 Y117.528 E108.06295
G1 X167.979 Y113.998 E108.22742
G1 X167.611 Y110.485 E108.39189
G1 X167.001 Y107.008 E108.55627
G1 X166.148 Y103.58 E108.72076
G1 X165.058 Y100.221 E108.8852
G1 X163.737 Y96.945 E109.04968
G1 X162.191 Y93.769 E109.21416
G1 X160.427 Y90.711 E109.37854
G1 X158.453 Y87.782 E109.54301
G1 X156.28 Y84.997 E109.7075
G1 X153.879 Y82.331 E109.87456
G1 X151.359 Y79.897 E110.0377
G1 X148.652 Y77.626 E110.20223
G1 X145.796 Y75.55 E110.36664
G1 X142.8 Y73.679 E110.53112
G1 X139.682 Y72.02 E110.69557
G1 X136.455 Y70.584 E110.86004
G1 X133.137 Y69.376 E111.02446
G1 X129.741 Y68.403 E111.18896
G1 X126.286 Y67.669 E111.35343
G1 X122.789 Y67.177 E111.51787
G1 X119.266 Y66.93 E111.68232
G1 X115.734 Y66.93 E111.84678
G1 X112.211 Y67.177 E112.01123
G1 X108.714 Y67.669 E112.17567
G1 X105.259 Y68.403 E112.34014
G1 X101.863 Y69.376 E112.50463
G1 X98.545 Y70.584 E112.66905
G1 X95.318 Y72.02 E112.83352
G1 X92.2 Y73.679 E112.99798
G1 X89.204 Y75.55 E113.16246
G1 X86.348 Y77.626 E113.32686
G1 X83.641 Y79.897 E113.4914
G1 X81.101 Y82.35 E113.65582
G1 X78.757 Y84.954 E113.81896
G1 X76.581 Y87.736 E113.98342
G1 X74.605 Y90.662 E114.14783
G1 X72.838 Y93.719 E114.31224
G1 X71.287 Y96.893 E114.47674
G1 X69.962 Y100.167 E114.6412
G1 X68.869 Y103.526 E114.80568
G1 X68.014 Y106.952 E114.97011
G1 X67.399 Y110.429 E115.13452
G1 X67.027 Y113.942 E115.29902
G1 X66.902 Y117.472 E115.46349
G1 X67.021 Y121.002 E115.62796
G1 X67.389 Y124.515 E115.79243
G1 X67.999 Y127.992 E115.95681
G1 X68.852 Y131.42 E116.1213
G1 X69.942 Y134.779 E116.28574
G1 X71.263 Y138.055 E116.45022
G1 X72.809 Y141.231 E116.61469
G1 X74.573 Y144.289 E116.77908
G1 X76.547 Y147.218 E116.94355
G1 X78.72 Y150.003 E117.10803
G1 X81.121 Y152.669 E117.2751
G1 X83.641 Y155.103 E117.43824
G1 X86.348 Y157.374 E117.60277
G1 X89.204 Y159.45 E117.76718
G1 X92.2 Y161.321 E117.93165
G1 X95.318 Y162.98 E118.09611
G1 X98.545 Y164.416 E118.26058
G1 X101.863 Y165.624 E118.425
G1 X105.259 Y166.597 E118.5895
G1 X108.714 Y167.331 E118.75397
G1 X112.211 Y167.823 E118.91841
G1 X115.734 Y168.07 E119.08285
G0 F6000 X115.748 Y167.67
;TYPE:WALL-OUTER
G1 F1200 X119.252 Y167.67 E119.24601
G1 X122.747 Y167.425 E119.40916
G1 X126.217 Y166.937 E119.57232
G1 X129.644 Y166.209 E119.73546
G1 X133.013 Y165.243 E119.89866
G1 X136.305 Y164.045 E120.06178
G1 X139.507 Y162.62 E120.22498
G1 X142.6 Y160.974 E120.38812
G1 X145.572 Y159.118 E120.55128
G1 X148.406 Y157.059 E120.7144
G1 X151.091 Y154.806 E120.87761
G1 X153.611 Y152.372 E121.04074
G1 X155.936 Y149.789 E121.20257
G1 X158.095 Y147.029 E121.36573
G1 X160.056 Y144.126 E121.52886
G1 X161.809 Y141.093 E121.69198
G1 X163.347 Y137.944 E121.85517
G1 X164.662 Y134.696 E122.01833
G1 X165.746 Y131.364 E122.18149
G1 X166.595 Y127.965 E122.34462
G1 X167.205 Y124.515 E122.50776
G1 X167.574 Y121.03 E122.67095
G1 X167.698 Y117.528 E122.83412
G1 X167.58 Y114.026 E122.99728
G1 X167.215 Y110.541 E123.16044
G1 X166.609 Y107.091 E123.32355
G1 X165.763 Y103.69 E123.48674
G1 X164.682 Y100.358 E123.64985
G1 X163.371 Y97.108 E123.81303
G1 X161.837 Y93.957 E123.97622
G1 X160.087 Y90.923 E124.13931
G1 X158.129 Y88.017 E124.30248
G1 X155.973 Y85.254 E124.46567
G1 X153.591 Y82.609 E124.63141
G1 X151.091 Y80.194 E124.79327
G1 X148.406 Y77.941 E124.95647
G1 X145.572 Y75.882 E125.11959
G1 X142.6 Y74.026 E125.28275
G1 X139.507 Y72.38 E125.44589
G1 X136.305 Y70.955 E125.60909
G1 X133.013 Y69.757 E125.77221
G1 X129.644 Y68.791 E125.93541
G1 X126.217 Y68.063 E126.09855
G1 X122.747 Y67.575 E126.26172
G1 X119.252 Y67.33 E126.42486
G1 X115.748 Y67.33 E126.58802
G1 X112.253 Y67.575 E126.75116
G1 X108.783 Y68.063 E126.91433
G1 X105.356 Y68.791 E127.07746
G1 X101.987 Y69.757 E127.24066
G1 X98.695 Y70.955 E127.40378
G1 X95.493 Y72.38 E127.56698
G1 X92.4 Y74.026 E127.73013
G1 X89.428 Y75.882 E127.89328
G1 X86.594 Y77.941 E128.0564
G1 X83.909 Y80.194 E128.21961
G1 X81.389 Y82.628 E128.38275
G1 X79.064 Y85.211 E128.54457
G1 X76.905 Y87.971 E128.70774
G1 X74.944 Y90.874 E128.87086
G1 X73.191 Y93.907 E129.03399
G1 X71.653 Y97.056 E129.19717
G1 X70.338 Y100.304 E129.36034
G1 X69.254 Y103.636 E129.52349
G1 X68.405 Y107.035 E129.68663
G1 X67.795 Y110.485 E129.84976
G1 X67.426 Y113.97 E130.01295
G1 X67.302 Y117.472 E130.17612
G1 X67.42 Y120.974 E130.33928
G1 X67.785 Y124.459 E130.50244
G1 X68.391 Y127.909 E130.66555
G1 X69.237 Y131.31 E130.82874
G1 X70.318 Y134.642 E130.99185
G1 X71.629 Y137.892 E131.15503
G1 X73.163 Y141.043 E131.31822
G1 X74.913 Y144.077 E131.48131
G1 X76.871 Y146.983 E131.64448
G1 X79.027 Y149.746 E131.80767
G1 X81.409 Y152.391 E131.97341
G1 X83.909 Y154.806 E132.13527
G1 X86.594 Y157.059 E132.29848
G1 X89.428 Y159.118 E132.46159
G1 X92.4 Y160.974 E132.62475
G1 X95.493 Y162.62 E132.7879
G1 X98.695 Y164.045 E132.95109
G1 X101.987 Y165.243 E133.11422
G1 X105.356 Y166.209 E133.27741
G1 X108.783 Y166.937 E133.44055
G1 X112.253 Y167.425 E133.60372
G1 X115.748 Y167.67 E133.76686
G0 F6000 X115.733 Y168.109
G1 F1500 E127.26686
G0 F6000 X112.191 Y168.013
G0 X112.351 Y166.566
G0 X112.191 Y203.165
G0 X112.191 Y201.69
G0 X33.1 Y201.9
;TYPE:WALL-INNER
G1 F1500 E133.76686
G1 F1200 X33.1 Y33.1 E141.62689
G1 X201.9 Y33.1 E149.48693
G1 X201.9 Y201.9 E157.34696
G1 X33.1 Y201.9 E165.207
G0 F6000 X32.7 Y202.3
;TYPE:WALL-OUTER
G1 F1200 X32.7 Y32.7 E173.10429
G1 X202.3 Y32.7 E181.00157
G1 X202.3 Y202.3 E188.89886
G1 X32.7 Y202.3 E196.79615
G0 F6000 X32.97 Y202.03
G0 X33.21 Y201.51
G0 X33.49 Y201.51
;TYPE:SKIN
G1 F1200 X33.49 Y33.49 E204.61986
G1 X201.51 Y33.49 E212.44358
G1 X201.51 Y201.51 E220.26729
G1 X33.49 Y201.51 E228.09101
G1 F1500 E221.59101
G0 F6000 X33.21 Y201.51
G0 X33.31 Y152.747
G0 X31.835 Y152.747
G0 X79.693 Y149.195
G0 X78.574 Y150.126
G0 X81.042 Y152.747
G0 X80.84 Y152.94
G1 F1500 E228.09101
G1 F1200 X83.38 Y155.393 E228.25543
G1 X86.108 Y157.682 E228.42125
G1 X88.986 Y159.774 E228.58692
G1 X92.005 Y161.659 E228.75265
G1 X95.147 Y163.331 E228.91838
G1 X98.399 Y164.778 E229.08412
G1 X101.742 Y165.995 E229.24978
G1 X105.165 Y166.975 E229.41558
G1 X108.646 Y167.715 E229.58129
G1 X112.17 Y168.211 E229.747
G1 X115.72 Y168.46 E229.91271
G1 X119.28 Y168.46 E230.07847
G1 X122.83 Y168.211 E230.24418
G1 X126.354 Y167.715 E230.40989
G1 X129.835 Y166.975 E230.57561
G1 X133.258 Y165.995 E230.7414
G1 X136.601 Y164.778 E230.90706
