;FLAVOR:Marlin
;TIME:4864
;Filament used: 3.00498m
;Layer height: 0.2
;MINX:87.514
;MINY:87.524
;MINZ:0.2
;MAXX:147.486
;MAXY:147.476
;MAXZ:55
;Generated with Cura_SteamEngine master
M140 S60
M105
M190 S60
M104 S200
M105
M109 S200
M82 ;absolute extrusion mode
; Ender 3 Custom Start G-code
G92 E0 ; Reset Extruder
G28 ; Home all axes
G1 Z2.0 F3000 ; Move Z Axis up little to prevent scratching of Heat Bed
G1 X0.1 Y20 Z0.3 F5000.0 ; Move to start position
G1 X0.1 Y200.0 Z0.3 F1500.0 E15 ; Draw the first line
G1 X0.4 Y200.0 Z0.3 F5000.0 ; Move to side a little
G1 X0.4 Y20 Z0.3 F1500.0 E30 ; Draw the second line
G92 E0 ; Reset Extruder
G1 Z2.0 F3000 ; Move Z Axis up little to prevent scratching of Heat Bed
G1 X5 Y20 Z0.3 F5000.0 ; Move over to prevent blob squish
G92 E0
G92 E0
G1 F1500 E-6.5
;LAYER_COUNT:275
;LAYER:0
M107
G0 F6000 X96.59 Y96.013 Z0.2
;TYPE:SKIRT
G1 F1500 E0
G1 F1200 X96.898 Y95.711 E0.01435
G1 X97.229 Y95.399 E0.02948
G1 X97.738 Y94.941 E0.05225
G1 X98.339 Y94.432 E0.07844
G1 X98.612 Y94.21 E0.09015
G1 X98.902 Y93.982 E0.10242
G1 X99.852 Y93.261 E0.14208
G1 X100.452 Y92.836 E0.16654
G1 X101.571 Y92.099 E0.2111
G1 X101.936 Y91.869 E0.22545
G1 X102.312 Y91.642 E0.24006
G1 X103.046 Y91.236 E0.26796
G1 X104.673 Y90.416 E0.32856
G1 X105.072 Y90.225 E0.34327
G1 X105.765 Y89.91 E0.36859
G1 X106.381 Y89.652 E0.3908
G1 X107.143 Y89.36 E0.41795
G1 X107.749 Y89.144 E0.43934
G1 X108.091 Y89.032 E0.45131
G1 X109.202 Y88.688 E0.49
G1 X109.578 Y88.579 E0.50302
G1 X110.283 Y88.392 E0.52727
G1 X110.643 Y88.304 E0.5396
G1 X111.05 Y88.212 E0.55348
G1 X111.7 Y88.079 E0.57555
G1 X112.165 Y87.995 E0.59126
G1 X113.301 Y87.813 E0.62953
G1 X114.011 Y87.722 E0.65334
G1 X115.362 Y87.595 E0.69847
G1 X116.12 Y87.55 E0.72372
G1 X117.17 Y87.524 E0.75866
G1 X117.896 Y87.53 E0.78281
G1 X119.39 Y87.593 E0.83254
G1 X119.995 Y87.627 E0.85269
G1 X120.622 Y87.681 E0.87363
G1 X121.369 Y87.766 E0.89863
G1 X121.793 Y87.822 E0.91286
G1 X122.171 Y87.88 E0.92558
G1 X122.565 Y87.948 E0.93887
G1 X123.697 Y88.164 E0.9772
G1 X124.079 Y88.244 E0.99018
G1 X124.802 Y88.412 E1.01487
G1 X125.12 Y88.493 E1.02579
G1 X125.861 Y88.702 E1.05139
G1 X126.265 Y88.824 E1.06543
G1 X126.63 Y88.941 E1.07818
G1 X127.705 Y89.307 E1.11595
G1 X128.056 Y89.433 E1.12835
G1 X128.526 Y89.611 E1.14507
G1 X129.364 Y89.956 E1.17521
G1 X129.829 Y90.164 E1.19215
G1 X130.184 Y90.329 E1.20517
G1 X130.506 Y90.485 E1.21707
G1 X131.532 Y91.003 E1.2553
G1 X131.876 Y91.184 E1.26823
G1 X132.285 Y91.409 E1.28376
G1 X133.015 Y91.848 E1.31209
G1 X134.505 Y92.825 E1.37135
G1 X134.857 Y93.066 E1.38554
G1 X135.546 Y93.557 E1.41368
G1 X136.087 Y93.968 E1.43628
G1 X136.651 Y94.425 E1.46042
G1 X136.928 Y94.658 E1.47246
G1 X137.616 Y95.258 E1.50282
G1 X138.076 Y95.682 E1.52363
G1 X138.424 Y96.018 E1.53972
G1 X138.716 Y96.309 E1.55343
G1 X138.978 Y96.58 E1.56597
G1 X139.752 Y97.406 E1.60361
G1 X140.219 Y97.937 E1.62713
G1 X141.074 Y98.976 E1.67189
G1 X141.542 Y99.588 E1.69751
G1 X142.295 Y100.646 E1.7407
G1 X142.707 Y101.269 E1.76555
G1 X143.27 Y102.186 E1.80134
G1 X143.572 Y102.709 E1.82142
G1 X143.949 Y103.409 E1.84787
G1 X144.463 Y104.395 E1.88485
G1 X144.82 Y105.147 E1.91254
G1 X145.273 Y106.204 E1.95079
G1 X145.534 Y106.873 E1.97467
G1 X145.983 Y108.144 E2.0195
G1 X146.213 Y108.875 E2.04499
G1 X146.563 Y110.14 E2.08865
G1 X146.741 Y110.886 E2.11416
G1 X147.011 Y112.217 E2.15933
G1 X147.14 Y112.995 E2.18556
G1 X147.308 Y114.296 E2.22919
G1 X147.379 Y115.047 E2.25428
G1 X147.458 Y116.366 E2.29823
G1 X147.476 Y116.791 E2.31237
G1 X147.486 Y117.262 E2.32804
G1 X147.481 Y117.875 E2.34843
G1 X147.45 Y118.732 E2.37695
G1 X147.433 Y119.037 E2.38711
G1 X147.399 Y119.75 E2.41086
G1 X147.38 Y120.025 E2.42002
G1 X147.337 Y120.498 E2.43582
G1 X147.278 Y121.022 E2.45336
G1 X147.218 Y121.468 E2.46833
G1 X147.032 Y122.674 E2.50891
G1 X146.9 Y123.378 E2.53274
G1 X146.63 Y124.596 E2.57423
G1 X146.53 Y125.01 E2.5884
G1 X146.31 Y125.832 E2.6167
G1 X146.224 Y126.126 E2.62689
G1 X146.105 Y126.506 E2.64013
G1 X145.9 Y127.123 E2.66176
G1 X145.748 Y127.55 E2.67683
G1 X145.316 Y128.691 E2.71741
G1 X145.03 Y129.376 E2.7421
G1 X144.496 Y130.542 E2.78475
G1 X144.177 Y131.183 E2.80857
G1 X143.668 Y132.127 E2.84424
G1 X143.336 Y132.7 E2.86626
G1 X142.796 Y133.555 E2.8999
G1 X142.185 Y134.503 E2.93741
G1 X141.744 Y135.137 E2.9631
G1 X141.161 Y135.915 E2.99543
G1 X140.712 Y136.476 E3.01933
G1 X139.839 Y137.495 E3.06396
G1 X139.338 Y138.041 E3.08861
G1 X138.41 Y138.987 E3.13268
G1 X138.102 Y139.289 E3.14703
G1 X137.771 Y139.601 E3.16216
G1 X137.262 Y140.059 E3.18493
G1 X136.661 Y140.568 E3.21113
G1 X136.388 Y140.79 E3.22283
G1 X136.098 Y141.018 E3.2351
G1 X135.148 Y141.739 E3.27477
G1 X134.548 Y142.164 E3.29922
G1 X133.429 Y142.901 E3.34379
G1 X133.064 Y143.131 E3.35814
G1 X132.688 Y143.358 E3.37275
G1 X131.954 Y143.764 E3.40064
G1 X130.327 Y144.584 E3.46124
G1 X129.928 Y144.775 E3.47596
G1 X129.235 Y145.09 E3.50127
G1 X128.619 Y145.348 E3.52349
G1 X127.857 Y145.64 E3.55063
G1 X127.251 Y145.856 E3.57203
G1 X126.909 Y145.968 E3.584
G1 X125.798 Y146.312 E3.62268
G1 X125.422 Y146.421 E3.6357
G1 X124.717 Y146.608 E3.65996
G1 X124.357 Y146.696 E3.67228
G1 X123.95 Y146.788 E3.68616
G1 X123.3 Y146.921 E3.70823
G1 X122.835 Y147.005 E3.72395
G1 X121.699 Y147.187 E3.76221
G1 X120.989 Y147.278 E3.78602
G1 X119.638 Y147.405 E3.83115
G1 X118.88 Y147.45 E3.85641
G1 X117.83 Y147.476 E3.89134
G1 X117.104 Y147.47 E3.91549
G1 X115.61 Y147.407 E3.96522
G1 X115.005 Y147.373 E3.98538
G1 X114.38 Y147.32 E4.00624
G1 X113.632 Y147.235 E4.03128
G1 X113.201 Y147.177 E4.04574
G1 X112.824 Y147.119 E4.05843
G1 X112.435 Y147.052 E4.07156
G1 X111.303 Y146.836 E4.10989
G1 X110.921 Y146.756 E4.12287
G1 X110.198 Y146.588 E4.14756
G1 X109.88 Y146.507 E4.15847
G1 X109.139 Y146.298 E4.18408
G1 X108.735 Y146.176 E4.19812
G1 X108.37 Y146.059 E4.21086
G1 X107.295 Y145.693 E4.24863
G1 X106.944 Y145.567 E4.26104
G1 X106.474 Y145.389 E4.27775
G1 X105.636 Y145.044 E4.30789
G1 X105.155 Y144.829 E4.32542
G1 X104.795 Y144.661 E4.33863
G1 X104.493 Y144.514 E4.3498
G1 X103.472 Y143.999 E4.38784
G1 X103.126 Y143.817 E4.40084
G1 X102.715 Y143.591 E4.41644
G1 X101.986 Y143.153 E4.44473
G1 X100.495 Y142.176 E4.50402
G1 X100.145 Y141.937 E4.51811
G1 X99.458 Y141.448 E4.54616
G1 X98.895 Y141.019 E4.5697
G1 X98.332 Y140.561 E4.59384
G1 X98.072 Y140.342 E4.60515
G1 X97.384 Y139.742 E4.63551
G1 X96.924 Y139.318 E4.65632
G1 X96.576 Y138.982 E4.67241
G1 X96.284 Y138.691 E4.68612
G1 X96.022 Y138.42 E4.69865
G1 X95.248 Y137.594 E4.7363
G1 X94.781 Y137.063 E4.75982
G1 X93.926 Y136.024 E4.80458
G1 X93.458 Y135.412 E4.8302
G1 X92.705 Y134.354 E4.87339
G1 X92.29 Y133.727 E4.8984
G1 X91.727 Y132.809 E4.93422
G1 X91.428 Y132.289 E4.95417
G1 X91.045 Y131.579 E4.981
G1 X90.538 Y130.607 E5.01746
G1 X90.18 Y129.853 E5.04522
G1 X89.727 Y128.796 E5.08347
G1 X89.466 Y128.127 E5.10736
G1 X89.017 Y126.856 E5.15219
G1 X88.787 Y126.125 E5.17768
G1 X88.437 Y124.86 E5.22133
G1 X88.259 Y124.114 E5.24684
G1 X87.989 Y122.783 E5.29201
G1 X87.86 Y122.006 E5.31821
G1 X87.692 Y120.706 E5.36181
G1 X87.621 Y119.953 E5.38696
G1 X87.542 Y118.633 E5.43095
G1 X87.524 Y118.209 E5.44506
G1 X87.514 Y117.738 E5.46073
G1 X87.519 Y117.125 E5.48112
G1 X87.55 Y116.268 E5.50964
G1 X87.569 Y115.92 E5.52123
G1 X87.603 Y115.216 E5.54468
G1 X87.622 Y114.95 E5.55355
G1 X87.663 Y114.503 E5.56848
G1 X87.722 Y113.979 E5.58601
G1 X87.781 Y113.536 E5.60088
G1 X87.967 Y112.328 E5.64153
G1 X88.102 Y111.613 E5.66573
G1 X88.381 Y110.359 E5.70846
G1 X88.483 Y109.936 E5.72293
G1 X88.696 Y109.149 E5.75005
G1 X88.868 Y108.577 E5.76992
G1 X89.13 Y107.788 E5.79757
G1 X89.252 Y107.449 E5.80955
G1 X89.685 Y106.306 E5.8502
G1 X89.969 Y105.627 E5.87468
G1 X90.506 Y104.453 E5.91762
G1 X90.836 Y103.792 E5.94219
G1 X91.346 Y102.85 E5.97782
G1 X91.662 Y102.303 E5.99883
G1 X92.165 Y101.504 E6.03024
G1 X92.82 Y100.49 E6.07039
G1 X93.251 Y99.872 E6.09544
G1 X93.838 Y99.087 E6.12805
G1 X94.298 Y98.513 E6.15251
G1 X95.166 Y97.501 E6.19686
G1 X95.662 Y96.959 E6.22129
G1 X96.59 Y96.013 E6.26537
G0 F6000 X96.876 Y96.293
G1 F1200 X97.172 Y96.003 E6.27915
G1 X97.735 Y95.478 E6.30475
G1 X98.206 Y95.065 E6.32559
G1 X98.591 Y94.742 E6.3423
G1 X98.864 Y94.52 E6.35401
G1 X99.144 Y94.3 E6.36585
G1 X100.094 Y93.579 E6.40552
G1 X100.672 Y93.171 E6.42905
G1 X101.791 Y92.434 E6.47361
G1 X102.143 Y92.212 E6.48746
G1 X102.519 Y91.985 E6.50206
G1 X103.226 Y91.593 E6.52895
G1 X104.853 Y90.773 E6.58955
G1 X105.238 Y90.589 E6.60374
G1 X105.931 Y90.274 E6.62906
G1 X106.524 Y90.026 E6.65044
G1 X107.286 Y89.734 E6.67758
G1 X107.88 Y89.522 E6.69856
G1 X108.21 Y89.414 E6.71011
G1 X109.321 Y89.07 E6.74879
G1 X109.683 Y88.965 E6.76133
G1 X110.378 Y88.78 E6.78525
G1 X110.738 Y88.692 E6.79757
G1 X111.13 Y88.604 E6.81094
G1 X111.78 Y88.471 E6.833
G1 X112.228 Y88.389 E6.84815
G1 X113.364 Y88.207 E6.88642
G1 X114.049 Y88.121 E6.90938
G1 X115.4 Y87.994 E6.95451
G1 X116.13 Y87.95 E6.97883
G1 X117.18 Y87.924 E7.01377
G1 X117.88 Y87.93 E7.03705
G1 X119.368 Y87.993 E7.08659
G1 X119.973 Y88.027 E7.10674
G1 X120.576 Y88.078 E7.12687
G1 X121.323 Y88.163 E7.15187
G1 X121.733 Y88.218 E7.16563
G1 X122.111 Y88.276 E7.17835
G1 X122.49 Y88.341 E7.19114
G1 X123.622 Y88.557 E7.22947
G1 X123.99 Y88.634 E7.24198
G1 X124.703 Y88.8 E7.26633
G1 X125.322 Y88.962 E7.28761
G1 X126.149 Y89.207 E7.31629
G1 X126.501 Y89.32 E7.32859
G1 X127.576 Y89.686 E7.36636
G1 X127.914 Y89.807 E7.3783
G1 X128.69 Y90.106 E7.40596
G1 X129.203 Y90.322 E7.42447
G1 X129.661 Y90.527 E7.44116
G1 X130.016 Y90.692 E7.45418
G1 X130.325 Y90.842 E7.46561
G1 X131.351 Y91.36 E7.50384
G1 X131.683 Y91.535 E7.51632
G1 X132.092 Y91.76 E7.53184
G1 X132.795 Y92.183 E7.55913
G1 X134.285 Y93.16 E7.61839
G1 X134.625 Y93.392 E7.63208
G1 X135.314 Y93.883 E7.66022
G1 X135.835 Y94.279 E7.68199
G1 X136.399 Y94.736 E7.70613
G1 X136.666 Y94.96 E7.71772
G1 X137.347 Y95.554 E7.74778
G1 X137.799 Y95.971 E7.76823
G1 X138.141 Y96.302 E7.78406
G1 X138.433 Y96.593 E7.79778
G1 X138.686 Y96.853 E7.80984
G1 X139.46 Y97.679 E7.84749
G1 X139.91 Y98.192 E7.87019
G1 X140.765 Y99.231 E7.91494
G1 X141.216 Y99.82 E7.93962
G1 X141.969 Y100.878 E7.98281
G1 X142.366 Y101.478 E8.00674
G1 X142.929 Y102.395 E8.04253
G1 X143.22 Y102.899 E8.06188
G1 X143.594 Y103.594 E8.08813
G1 X144.108 Y104.58 E8.12512
G1 X144.452 Y105.304 E8.15178
G1 X144.905 Y106.361 E8.19002
G1 X145.157 Y107.006 E8.21306
G1 X145.606 Y108.277 E8.25789
G1 X145.827 Y108.981 E8.28243
G1 X146.177 Y110.246 E8.32609
G1 X146.349 Y110.966 E8.35071
G1 X146.619 Y112.297 E8.39588
G1 X146.744 Y113.046 E8.42113
G1 X146.912 Y114.347 E8.46477
G1 X146.98 Y115.071 E8.48895
G1 X147.059 Y116.39 E8.5329
G1 X147.076 Y116.799 E8.54652
G1 X147.086 Y117.27 E8.56218
G1 X147.082 Y117.861 E8.58184
G1 X147.05 Y118.71 E8.6101
G1 X147.034 Y118.997 E8.61966
G1 X147 Y119.723 E8.64383
G1 X146.981 Y119.998 E8.653
G1 X146.939 Y120.453 E8.6682
G1 X146.88 Y120.977 E8.68574
G1 X146.823 Y121.407 E8.70017
G1 X146.637 Y122.613 E8.74075
G1 X146.51 Y123.291 E8.76369
G1 X146.24 Y124.509 E8.80519
G1 X146.143 Y124.909 E8.81888
G1 X145.926 Y125.72 E8.8468
G1 X145.84 Y126.014 E8.85699
G1 X145.725 Y126.38 E8.86975
G1 X145.52 Y126.997 E8.89137
G1 X145.374 Y127.408 E8.90588
G1 X144.942 Y128.549 E8.94646
G1 X144.666 Y129.21 E8.97028
G1 X144.132 Y130.376 E9.01294
G1 X143.825 Y130.993 E9.03586
G1 X143.316 Y131.937 E9.07153
G1 X142.996 Y132.49 E9.09278
G1 X142.503 Y133.272 E9.12353
G1 X141.849 Y134.286 E9.16366
G1 X141.424 Y134.898 E9.18844
G1 X140.841 Y135.676 E9.22078
G1 X140.408 Y136.215 E9.24377
G1 X139.535 Y137.234 E9.2884
G1 X139.052 Y137.761 E9.31218
G1 X138.124 Y138.707 E9.35625
G1 X137.828 Y138.997 E9.37004
G1 X137.265 Y139.522 E9.39564
G1 X136.794 Y139.935 E9.41648
G1 X136.409 Y140.258 E9.43319
G1 X136.136 Y140.48 E9.44489
G1 X135.856 Y140.7 E9.45674
G1 X134.906 Y141.421 E9.4964
G1 X134.328 Y141.829 E9.51993
G1 X133.209 Y142.566 E9.5645
G1 X132.857 Y142.788 E9.57834
G1 X132.481 Y143.015 E9.59295
G1 X131.774 Y143.407 E9.61984
G1 X130.147 Y144.227 E9.68044
G1 X129.762 Y144.411 E9.69463
G1 X129.069 Y144.726 E9.71995
G1 X128.476 Y144.974 E9.74133
G1 X127.714 Y145.266 E9.76847
G1 X127.12 Y145.478 E9.78944
G1 X126.79 Y145.586 E9.80099
G1 X125.679 Y145.93 E9.83968
G1 X125.317 Y146.035 E9.85221
G1 X124.622 Y146.22 E9.87613
G1 X124.262 Y146.308 E9.88846
G1 X123.87 Y146.396 E9.90182
G1 X123.22 Y146.529 E9.92389
G1 X122.772 Y146.611 E9.93904
G1 X121.636 Y146.793 E9.9773
G1 X120.951 Y146.879 E10.00026
G1 X119.6 Y147.006 E10.0454
G1 X118.87 Y147.05 E10.06972
G1 X117.82 Y147.076 E10.10465
G1 X117.12 Y147.07 E10.12794
G1 X115.632 Y147.007 E10.17747
G1 X115.027 Y146.973 E10.19763
G1 X114.425 Y146.922 E10.21772
G1 X113.677 Y146.837 E10.24276
G1 X113.262 Y146.782 E10.25668
G1 X112.885 Y146.724 E10.26937
G1 X112.51 Y146.659 E10.28203
G1 X111.378 Y146.443 E10.32036
G1 X111.01 Y146.366 E10.33286
G1 X110.297 Y146.2 E10.35721
G1 X109.678 Y146.038 E10.37849
G1 X108.851 Y145.793 E10.40718
G1 X108.499 Y145.68 E10.41948
G1 X107.424 Y145.314 E10.45725
G1 X107.086 Y145.193 E10.46919
G1 X106.31 Y144.894 E10.49685
G1 X105.797 Y144.678 E10.51536
G1 X105.324 Y144.467 E10.53259
G1 X104.964 Y144.299 E10.5458
G1 X104.673 Y144.157 E10.55657
G1 X103.652 Y143.642 E10.5946
G1 X103.319 Y143.466 E10.60713
G1 X102.908 Y143.24 E10.62273
G1 X102.205 Y142.818 E10.65
G1 X100.714 Y141.841 E10.70929
G1 X100.377 Y141.611 E10.72286
G1 X99.69 Y141.122 E10.75091
G1 X99.148 Y140.709 E10.77357
G1 X98.585 Y140.251 E10.79771
G1 X98.334 Y140.04 E10.80862
G1 X97.653 Y139.446 E10.83867
G1 X97.201 Y139.029 E10.85913
G1 X96.859 Y138.698 E10.87496
G1 X96.567 Y138.407 E10.88867
G1 X96.314 Y138.147 E10.90074
G1 X95.54 Y137.321 E10.93838
G1 X95.09 Y136.808 E10.96108
G1 X94.235 Y135.769 E11.00584
G1 X93.784 Y135.18 E11.03051
G1 X93.031 Y134.122 E11.0737
G1 X92.631 Y133.518 E11.0978
G1 X92.068 Y132.6 E11.13361
G1 X91.779 Y132.099 E11.15285
G1 X91.4 Y131.394 E11.17947
G1 X90.893 Y130.422 E11.21593
G1 X90.548 Y129.696 E11.24267
G1 X90.095 Y128.639 E11.28092
G1 X89.843 Y127.994 E11.30395
G1 X89.394 Y126.723 E11.34878
G1 X89.173 Y126.019 E11.37333
G1 X88.823 Y124.754 E11.41698
G1 X88.651 Y124.034 E11.4416
G1 X88.381 Y122.703 E11.48677
G1 X88.256 Y121.955 E11.512
G1 X88.088 Y120.655 E11.55559
G1 X88.02 Y119.929 E11.57985
G1 X87.941 Y118.609 E11.62383
G1 X87.924 Y118.201 E11.63741
G1 X87.914 Y117.73 E11.65308
G1 X87.918 Y117.139 E11.67274
G1 X87.984 Y115.552 E11.72557
G1 X88.021 Y114.979 E11.74466
G1 X88.061 Y114.548 E11.75906
G1 X88.12 Y114.024 E11.7766
G1 X88.176 Y113.597 E11.79092
G1 X88.362 Y112.389 E11.83157
G1 X88.492 Y111.7 E11.85489
G1 X88.771 Y110.446 E11.89762
G1 X88.87 Y110.038 E11.91159
G1 X89.079 Y109.262 E11.93832
G1 X89.248 Y108.7 E11.95783
G1 X89.509 Y107.917 E11.98529
G1 X89.626 Y107.591 E11.99681
G1 X90.059 Y106.448 E12.03746
G1 X90.333 Y105.794 E12.06104
G1 X90.87 Y104.62 E12.10398
G1 X91.187 Y103.982 E12.12768
G1 X91.697 Y103.04 E12.1633
G1 X92.003 Y102.513 E12.18357
G1 X92.501 Y101.721 E12.21469
G1 X93.156 Y100.707 E12.25484
G1 X93.571 Y100.111 E12.279
G1 X94.158 Y99.326 E12.3116
G1 X94.601 Y98.773 E12.33516
G1 X95.469 Y97.761 E12.37951
G1 X95.948 Y97.239 E12.40307
G1 X96.876 Y96.293 E12.44715
G0 F6000 X97.162 Y96.573
G1 F1200 X97.447 Y96.294 E12.46041
G1 X98.001 Y95.777 E12.48562
G1 X98.464 Y95.371 E12.5061
G1 X98.844 Y95.052 E12.5226
G1 X99.117 Y94.83 E12.5343
G1 X99.386 Y94.619 E12.54567
G1 X100.336 Y93.898 E12.58534
G1 X100.892 Y93.505 E12.60799
G1 X102.011 Y92.768 E12.65255
G1 X102.349 Y92.554 E12.66586
G1 X102.725 Y92.327 E12.68047
G1 X103.406 Y91.95 E12.70635
G1 X105.033 Y91.13 E12.76695
G1 X105.403 Y90.953 E12.78059
G1 X106.096 Y90.638 E12.80591
G1 X106.667 Y90.399 E12.8265
G1 X107.429 Y90.107 E12.85364
G1 X108.011 Y89.9 E12.87419
G1 X108.328 Y89.796 E12.88528
G1 X109.439 Y89.452 E12.92397
G1 X109.787 Y89.351 E12.93602
G1 X110.473 Y89.169 E12.95963
G1 X110.833 Y89.081 E12.97195
G1 X111.21 Y88.996 E12.98481
G1 X111.86 Y88.863 E13.00687
G1 X112.291 Y88.784 E13.02145
G1 X113.427 Y88.602 E13.05971
G1 X114.086 Y88.519 E13.0818
G1 X115.437 Y88.392 E13.12694
G1 X116.14 Y88.35 E13.15036
