;FLAVOR:Marlin
;TIME:3006
;Filament used: 2.35673m
;Layer height: 0.28
;MINX:63.6
;MINY:96.3
;MINZ:0.28
;MAXX:171.4
;MAXY:138.698
;MAXZ:47.88
;Generated with Cura_SteamEngine master
M140 S50
M105
M190 S50
M104 S210
M105
M109 S210
M82 ;absolute extrusion mode
; Ender 3 Custom Start G-code
G92 E0 ; Reset Extruder
G28 ; Home all axes
G1 Z2.0 F3000 ; Move Z Axis up little to prevent scratching of Heat Bed
G1 X0.1 Y20 Z0.3 F5000.0 ; Move to start position
G1 X0.1 Y200.0 Z0.3 F1500.0 E15 ; Draw the first line
G1 X0.4 Y200.0 Z0.3 F5000.0 ; Move to side a little
G1 X0.4 Y20 Z0.3 F1500.0 E30 ; Draw the second line
G92 E0 ; Reset Extruder
G1 Z2.0 F3000 ; Move Z Axis up little to prevent scratching of Heat Bed
G1 X5 Y20 Z0.3 F5000.0 ; Move over to prevent blob squish
G92 E0
G92 E0
G1 F2700 E-5
;LAYER_COUNT:171
;LAYER:0
M107
G0 F6000 X153.137 Y97.111 Z0.28
;TYPE:SKIRT
G1 F2700 E0
G1 F1200 X154.039 Y97.164 E0.04207
G1 X154.932 Y97.296 E0.08411
G1 X155.81 Y97.507 E0.12615
G1 X156.666 Y97.795 E0.16821
G1 X157.493 Y98.157 E0.21025
G1 X158.285 Y98.592 E0.25232
G1 X159.036 Y99.094 E0.29438
G1 X159.739 Y99.661 E0.33644
G1 X160.389 Y100.288 E0.37849
G1 X160.981 Y100.97 E0.42054
G1 X161.511 Y101.701 E0.46259
G1 X161.973 Y102.477 E0.50464
G1 X162.366 Y103.29 E0.54669
G1 X162.684 Y104.135 E0.58873
G1 X162.803 Y104.498 E0.60652
G1 X163.639 Y106.969 E0.72798
G1 X164.531 Y109.379 E0.84764
G1 X165.48 Y111.735 E0.96591
G1 X166.484 Y114.037 E1.08286
G1 X167.569 Y116.345 E1.20161
G1 X168.819 Y118.81 E1.3303
G1 X169.424 Y119.966 E1.39106
G1 X169.807 Y120.784 E1.43312
G1 X170.116 Y121.633 E1.47519
G1 X170.349 Y122.505 E1.51721
G1 X170.504 Y123.395 E1.55928
G1 X170.579 Y124.299 E1.60152
G1 X170.592 Y124.633 E1.61708
G1 X170.6 Y125.03 E1.63557
G1 X170.599 Y127.08 E1.73103
G1 X170.59 Y127.807 E1.76488
G1 X170.539 Y128.709 E1.80695
G1 X170.408 Y129.603 E1.84903
G1 X170.199 Y130.481 E1.89105
G1 X169.913 Y131.338 E1.93312
G1 X169.552 Y132.166 E1.97518
G1 X169.12 Y132.958 E2.01719
G1 X168.619 Y133.71 E2.05926
G1 X168.053 Y134.414 E2.10133
G1 X167.428 Y135.065 E2.14335
G1 X166.747 Y135.659 E2.18543
G1 X166.016 Y136.19 E2.2275
G1 X165.242 Y136.654 E2.26952
G1 X164.429 Y137.048 E2.31159
G1 X163.585 Y137.368 E2.35362
G1 X162.715 Y137.613 E2.3957
G1 X161.828 Y137.779 E2.43772
G1 X160.674 Y137.877 E2.49165
G1 X160.077 Y137.89 E2.51946
G1 X150.54 Y137.898 E2.96354
G1 X149.899 Y137.89 E2.99339
G1 X148.997 Y137.839 E3.03546
G1 X148.103 Y137.708 E3.07753
G1 X147.225 Y137.499 E3.11956
G1 X146.368 Y137.213 E3.16162
G1 X145.514 Y136.839 E3.20504
G1 X144.415 Y136.297 E3.2621
G1 X142.061 Y135.156 E3.38391
G1 X139.743 Y134.111 E3.5023
G1 X137.393 Y133.132 E3.62084
G1 X135.003 Y132.212 E3.74009
G1 X132.662 Y131.391 E3.85561
G1 X130.205 Y130.604 E3.97574
G1 X127.78 Y129.901 E4.09331
G1 X125.315 Y129.262 E4.21188
G1 X122.819 Y128.691 E4.33111
G1 X120.326 Y128.191 E4.44951
G1 X117.848 Y127.771 E4.56654
G1 X115.345 Y127.417 E4.68425
G1 X112.812 Y127.132 E4.80294
G1 X110.271 Y126.919 E4.92168
G1 X107.789 Y126.781 E5.03743
G1 X103.906 Y126.7 E5.21827
G1 X75.161 Y126.699 E6.55676
G1 X74.463 Y126.689 E6.58927
G1 X73.561 Y126.636 E6.63134
G1 X72.668 Y126.504 E6.67337
G1 X71.79 Y126.293 E6.71542
G1 X70.934 Y126.005 E6.75748
G1 X70.107 Y125.643 E6.79951
G1 X69.315 Y125.208 E6.84159
G1 X68.564 Y124.706 E6.88365
G1 X67.861 Y124.139 E6.92571
G1 X67.211 Y123.512 E6.96776
G1 X66.619 Y122.83 E7.00981
G1 X66.089 Y122.099 E7.05185
G1 X65.627 Y121.323 E7.09391
G1 X65.234 Y120.51 E7.13595
G1 X64.916 Y119.665 E7.178
G1 X64.673 Y118.795 E7.22006
G1 X64.508 Y117.907 E7.26211
G1 X64.413 Y116.766 E7.31543
G1 X64.4 Y116.158 E7.34374
G1 X64.401 Y113.761 E7.45536
G1 X64.411 Y113.063 E7.48786
G1 X64.464 Y112.161 E7.52994
G1 X64.596 Y111.268 E7.57197
G1 X64.807 Y110.39 E7.61402
G1 X65.095 Y109.534 E7.65607
G1 X65.457 Y108.707 E7.69811
G1 X65.892 Y107.915 E7.74018
G1 X66.394 Y107.164 E7.78225
G1 X66.961 Y106.461 E7.8243
G1 X67.588 Y105.811 E7.86636
G1 X68.523 Y105.024 E7.92326
G1 X70.565 Y103.506 E8.04174
G1 X72.551 Y101.947 E8.15931
G1 X74.581 Y100.257 E8.2823
G1 X75.365 Y99.585 E8.33038
G1 X76.076 Y99.028 E8.37244
G1 X76.834 Y98.536 E8.41452
G1 X77.632 Y98.113 E8.45658
G1 X78.464 Y97.762 E8.49862
G1 X79.324 Y97.487 E8.54067
G1 X80.205 Y97.288 E8.58272
G1 X81.182 Y97.161 E8.6286
G1 X81.466 Y97.138 E8.64187
G1 X82.165 Y97.106 E8.67445
G1 X82.7 Y97.1 E8.69936
G1 X152.293 Y97.1 E11.9399
G1 X152.439 Y97.101 E11.9467
G1 X153.137 Y97.111 E11.97921
G0 F6000 X153.143 Y96.711
G1 F1200 X154.062 Y96.764 E12.02207
G1 X154.973 Y96.897 E12.06494
G1 X155.869 Y97.108 E12.1078
G1 X156.743 Y97.396 E12.15065
G1 X157.59 Y97.759 E12.19356
G1 X158.401 Y98.194 E12.23641
G1 X159.171 Y98.698 E12.27927
G1 X159.895 Y99.267 E12.32214
G1 X160.567 Y99.897 E12.36504
G1 X161.182 Y100.582 E12.4079
G1 X161.735 Y101.318 E12.45077
G1 X162.222 Y102.099 E12.49363
G1 X162.639 Y102.92 E12.5365
G1 X163.064 Y104.01 E12.59098
G1 X163.183 Y104.372 E12.60872
G1 X164.017 Y106.839 E12.72999
G1 X164.901 Y109.227 E12.84856
G1 X165.847 Y111.574 E12.96638
G1 X166.855 Y113.886 E13.08383
G1 X167.93 Y116.173 E13.2015
G1 X169.092 Y118.474 E13.32153
G1 X169.174 Y118.625 E13.32953
G1 X169.779 Y119.781 E13.39029
G1 X170.17 Y120.614 E13.43313
G1 X170.487 Y121.479 E13.47603
G1 X170.728 Y122.367 E13.51888
G1 X170.891 Y123.273 E13.56174
G1 X170.979 Y124.284 E13.60899
G1 X170.992 Y124.618 E13.62456
G1 X171 Y125.03 E13.64375
G1 X170.999 Y127.085 E13.73944
G1 X170.99 Y127.812 E13.77329
G1 X170.939 Y128.731 E13.81615
G1 X170.808 Y129.643 E13.85905
G1 X170.598 Y130.539 E13.9019
G1 X170.312 Y131.414 E13.94477
G1 X169.951 Y132.261 E13.98764
G1 X169.517 Y133.073 E14.03051
G1 X169.015 Y133.845 E14.07339
G1 X168.447 Y134.57 E14.11628
G1 X167.819 Y135.243 E14.15914
G1 X167.135 Y135.859 E14.202
G1 X166.4 Y136.413 E14.24486
G1 X165.62 Y136.902 E14.28773
G1 X164.8 Y137.321 E14.33061
G1 X163.947 Y137.667 E14.37347
G1 X163.067 Y137.938 E14.41634
G1 X162.167 Y138.131 E14.45921
G1 X161.253 Y138.246 E14.5021
G1 X160.685 Y138.277 E14.52859
G1 X160.077 Y138.29 E14.55691
G1 X150.535 Y138.298 E15.00122
G1 X149.894 Y138.29 E15.03107
G1 X148.975 Y138.239 E15.07393
G1 X148.063 Y138.108 E15.11683
G1 X147.167 Y137.898 E15.15968
G1 X146.292 Y137.611 E15.20256
G1 X145.338 Y137.198 E15.25097
G1 X144.302 Y136.687 E15.30476
G1 X141.887 Y135.516 E15.42973
G1 X139.573 Y134.474 E15.5479
G1 X137.275 Y133.515 E15.66385
G1 X134.863 Y132.588 E15.78417
G1 X132.512 Y131.763 E15.90019
G1 X130.077 Y130.983 E16.01925
G1 X127.682 Y130.289 E16.13536
G1 X125.23 Y129.653 E16.25331
G1 X122.757 Y129.087 E16.37144
G1 X120.245 Y128.584 E16.49074
G1 X117.797 Y128.169 E16.60635
G1 X115.28 Y127.813 E16.72472
G1 X112.767 Y127.53 E16.84247
G1 X110.252 Y127.319 E16.95999
G1 X107.759 Y127.18 E17.07626
G1 X103.898 Y127.1 E17.25608
G1 X75.155 Y127.099 E18.59448
G1 X74.457 Y127.089 E18.62698
G1 X73.538 Y127.036 E18.66985
G1 X72.627 Y126.903 E18.71272
G1 X71.731 Y126.692 E18.75558
G1 X70.857 Y126.404 E18.79843
G1 X70.01 Y126.041 E18.84134
G1 X69.199 Y125.606 E18.88419
G1 X68.429 Y125.102 E18.92704
G1 X67.705 Y124.533 E18.96992
G1 X67.033 Y123.903 E19.01281
G1 X66.418 Y123.218 E19.05568
G1 X65.865 Y122.482 E19.09854
G1 X65.378 Y121.701 E19.1414
G1 X64.961 Y120.88 E19.18428
G1 X64.616 Y120.026 E19.22717
G1 X64.347 Y119.146 E19.27002
G1 X64.155 Y118.245 E19.31291
G1 X64.042 Y117.332 E19.35575
G1 X64.013 Y116.777 E19.38163
G1 X64 Y116.158 E19.41046
G1 X64.001 Y113.755 E19.52235
G1 X64.011 Y113.057 E19.55486
G1 X64.064 Y112.138 E19.59772
G1 X64.197 Y111.227 E19.64059
G1 X64.408 Y110.331 E19.68345
G1 X64.696 Y109.457 E19.7263
G1 X65.059 Y108.61 E19.76921
G1 X65.494 Y107.799 E19.81206
G1 X65.998 Y107.029 E19.85492
G1 X66.567 Y106.305 E19.89779
G1 X67.197 Y105.633 E19.94069
G1 X67.882 Y105.018 E19.98355
G1 X68.284 Y104.703 E20.00733
G1 X70.319 Y103.19 E20.12541
G1 X72.314 Y101.624 E20.24351
G1 X74.308 Y99.965 E20.36429
G1 X75.105 Y99.281 E20.4132
G1 X75.829 Y98.713 E20.45605
G1 X76.6 Y98.209 E20.49894
G1 X77.412 Y97.775 E20.54181
G1 X78.258 Y97.412 E20.58467
G1 X79.133 Y97.125 E20.62755
G1 X80.029 Y96.914 E20.67042
G1 X81.149 Y96.763 E20.72304
G1 X81.433 Y96.74 E20.73631
G1 X82.16 Y96.706 E20.7702
G1 X82.7 Y96.7 E20.79534
G1 X152.293 Y96.7 E24.03589
G1 X152.445 Y96.701 E24.04296
G1 X153.143 Y96.711 E24.07547
G0 F6000 X153.149 Y96.311
G1 F1200 X154.085 Y96.365 E24.11912
G1 X155.013 Y96.497 E24.16277
G1 X155.927 Y96.709 E24.20646
G1 X156.819 Y96.998 E24.25012
G1 X157.684 Y97.361 E24.2938
G1 X158.514 Y97.797 E24.33746
G1 X159.305 Y98.302 E24.38116
G1 X160.049 Y98.873 E24.42483
G1 X160.742 Y99.505 E24.4685
G1 X161.379 Y100.193 E24.51216
G1 X161.954 Y100.934 E24.55583
G1 X162.465 Y101.72 E24.59949
G1 X162.907 Y102.548 E24.64319
G1 X163.276 Y103.41 E24.68685
G1 X163.444 Y103.886 E24.71036
G1 X163.544 Y104.192 E24.72535
G1 X164.399 Y106.72 E24.84961
G1 X165.271 Y109.076 E24.96659
G1 X166.22 Y111.431 E25.08482
G1 X167.212 Y113.706 E25.20039
G1 X168.291 Y116.002 E25.31851
G1 X169.528 Y118.439 E25.44577
G1 X170.133 Y119.595 E25.50653
G1 X170.532 Y120.444 E25.55021
G1 X170.857 Y121.324 E25.59389
G1 X171.107 Y122.228 E25.63756
G1 X171.278 Y123.15 E25.68123
G1 X171.379 Y124.268 E25.7335
G1 X171.392 Y124.602 E25.74906
G1 X171.4 Y125.03 E25.769
G1 X171.399 Y127.09 E25.86492
G1 X171.39 Y127.817 E25.89877
G1 X171.339 Y128.754 E25.94247
G1 X171.207 Y129.682 E25.98611
G1 X170.998 Y130.596 E26.02977
G1 X170.711 Y131.489 E26.07345
G1 X170.349 Y132.355 E26.11716
G1 X169.915 Y133.186 E26.16081
G1 X169.411 Y133.977 E26.20448
G1 X168.842 Y134.722 E26.24813
G1 X168.211 Y135.417 E26.29184
G1 X167.524 Y136.055 E26.3355
G1 X166.785 Y136.632 E26.37916
G1 X165.999 Y137.144 E26.42284
G1 X165.173 Y137.587 E26.46648
G1 X164.311 Y137.959 E26.5102
G1 X163.422 Y138.255 E26.55383
G1 X162.51 Y138.475 E26.59751
G1 X161.583 Y138.616 E26.64118
G1 X160.696 Y138.677 E26.68258
G1 X160.078 Y138.69 E26.71136
G1 X150.53 Y138.698 E27.15595
G1 X149.889 Y138.69 E27.1858
G1 X148.952 Y138.638 E27.2295
G1 X148.024 Y138.507 E27.27314
G1 X147.11 Y138.297 E27.31681
G1 X146.217 Y138.01 E27.36049
G1 X145.161 Y137.556 E27.41401
G1 X144.128 Y137.047 E27.46763
G1 X141.728 Y135.883 E27.59184
G1 X139.434 Y134.85 E27.70899
G1 X137.083 Y133.87 E27.82759
G1 X134.724 Y132.963 E27.94527
G1 X132.406 Y132.149 E28.05967
G1 X129.949 Y131.362 E28.1798
G1 X127.576 Y130.674 E28.29485
G1 X125.146 Y130.044 E28.41174
G1 X122.661 Y129.475 E28.53045
G1 X120.172 Y128.977 E28.64865
G1 X117.746 Y128.565 E28.76323
G1 X115.216 Y128.208 E28.8822
G1 X112.725 Y127.928 E28.99892
G1 X110.231 Y127.718 E29.11547
G1 X107.755 Y127.58 E29.23094
G1 X103.89 Y127.5 E29.41095
G1 X75.149 Y127.499 E30.74925
G1 X74.451 Y127.489 E30.78175
G1 X73.515 Y127.435 E30.82541
G1 X72.587 Y127.303 E30.86906
G1 X71.673 Y127.091 E30.91275
G1 X70.781 Y126.802 E30.95641
G1 X69.916 Y126.439 E31.00009
G1 X69.086 Y126.003 E31.04374
G1 X68.295 Y125.498 E31.08744
G1 X67.551 Y124.927 E31.13111
G1 X66.858 Y124.295 E31.17479
G1 X66.221 Y123.607 E31.21845
G1 X65.646 Y122.866 E31.26212
G1 X65.135 Y122.08 E31.30577
G1 X64.693 Y121.252 E31.34948
G1 X64.324 Y120.39 E31.39314
G1 X64.029 Y119.5 E31.4368
G1 X63.811 Y118.588 E31.48046
G1 X63.671 Y117.66 E31.52416
G1 X63.613 Y116.788 E31.56486
G1 X63.6 Y116.158 E31.5942
G1 X63.601 Y113.749 E31.70637
G1 X63.611 Y113.051 E31.73888
G1 X63.665 Y112.115 E31.78253
G1 X63.797 Y111.187 E31.82618
G1 X64.009 Y110.273 E31.86987
G1 X64.298 Y109.381 E31.91353
G1 X64.661 Y108.516 E31.95721
G1 X65.097 Y107.686 E32.00087
G1 X65.602 Y106.895 E32.04456
G1 X66.173 Y106.151 E32.08824
G1 X66.805 Y105.458 E32.13191
G1 X67.493 Y104.821 E32.17557
G1 X68.046 Y104.382 E32.20844
G1 X70.055 Y102.888 E32.32502
G1 X72.057 Y101.317 E32.44352
G1 X74.114 Y99.605 E32.56814
G1 X74.845 Y98.978 E32.61298
G1 X75.582 Y98.398 E32.65665
G1 X76.366 Y97.883 E32.70033
G1 X77.191 Y97.437 E32.744
G1 X78.051 Y97.063 E32.78767
G1 X78.94 Y96.764 E32.83134
G1 X79.851 Y96.541 E32.87501
G1 X81.117 Y96.364 E32.93454
G1 X81.401 Y96.341 E32.94781
G1 X82.155 Y96.306 E32.98295
G1 X82.7 Y96.3 E33.00833
G1 X152.293 Y96.3 E36.24887
G1 X152.451 Y96.301 E36.25623
G1 X153.149 Y96.311 E36.28874
G1 F2700 E31.28874
;MESH:bosch-dust-block.stl
G0 F6000 X152.586 Y106.635
G0 X152.586 Y107.714
G0 X152.218 Y125.482
G0 X159.618 Y125.482
G0 X159.618 Y126.908
G0 X150.6 Y127.1
;TYPE:WALL-INNER
G1 F2700 E36.28874
G1 F1200 X150.6 Y126.901 E36.298
G1 X150.6 Y115.9 E36.81025
G1 X75.2 Y115.9 E40.32119
G1 X75.2 Y113.8 E40.41898
G1 X82.6 Y113.8 E40.76355
G1 X82.6 Y107.9 E41.03828
G1 X152.4 Y107.9 E44.28846
G1 X152.4 Y125.3 E45.09868
G1 X159.8 Y125.3 E45.44325
G1 X159.8 Y127.09 E45.5266
G1 X150.799 Y127.1 E45.94573
G1 X150.6 Y127.1 E45.95172
G0 F6000 X150.2 Y127.5
;TYPE:WALL-OUTER
G1 F1200 X150.2 Y116.3 E46.47324
G1 X74.8 Y116.3 E49.98418
G1 X74.8 Y113.4 E50.11922
G1 X82.2 Y113.4 E50.46379
G1 X82.2 Y107.5 E50.73852
G1 X152.8 Y107.5 E54.02595
G1 X152.8 Y124.9 E54.83617
G1 X160.2 Y124.9 E55.18075
G1 X160.2 Y127.49 E55.30135
G1 X150.2 Y127.5 E55.76699
G0 F6000 X150.47 Y127.23
G0 X150.71 Y126.71
G0 X150.99 Y126.71
;TYPE:SKIN
G1 F1200 X150.99 Y115.51 E56.28851
G1 X75.59 Y115.51 E59.79945
G1 X75.59 Y114.19 E59.86091
G1 X82.99 Y114.19 E60.20549
G1 X82.99 Y108.29 E60.48022
G1 X152.01 Y108.29 E63.69408
G1 X152.01 Y125.69 E64.50429
G1 X159.41 Y125.69 E64.84887
G1 X159.41 Y126.7 E64.8959
G1 X150.99 Y126.71 E65.28797
G1 F2700 E60.28797
G0 F6000 X150.71 Y126.71
G0 X150.782 Y126.918
G0 X159.618 Y126.908
G0 X159.618 Y125.482
G0 X152.218 Y125.482
G0 X152.29 Y108.856
G0 X151.849 Y108.856
G1 F2700 E65.28797
G1 F1200 X151.441 Y108.449 E65.3148
G0 F6000 X150.876 Y108.449
G1 F1200 X151.849 Y109.422 E65.37888
G0 F6000 X151.849 Y109.988
G1 F1200 X150.31 Y108.449 E65.48022
G0 F6000 X149.744 Y108.449
G1 F1200 X151.849 Y110.554 E65.61884
G0 F6000 X151.849 Y111.119
G1 F1200 X149.179 Y108.449 E65.79467
G0 F6000 X148.613 Y108.449
G1 F1200 X151.849 Y111.685 E66.00776
G0 F6000 X151.849 Y112.251
G1 F1200 X148.047 Y108.449 E66.25813
G0 F6000 X147.481 Y108.449
G1 F1200 X151.849 Y112.816 E66.54574
G0 F6000 X151.849 Y113.382
G1 F1200 X146.916 Y108.449 E66.87058
G0 F6000 X146.35 Y108.449
G1 F1200 X151.849 Y113.948 E67.2327
G0 F6000 X151.849 Y114.513
G1 F1200 X145.784 Y108.449 E67.63206
G0 F6000 X145.219 Y108.449
G1 F1200 X151.849 Y115.079 E68.06866
G0 F6000 X151.849 Y115.645
G1 F1200 X144.653 Y108.449 E68.54253
G0 F6000 X144.087 Y108.449
G1 F1200 X150.987 Y115.349 E68.9969
G0 F6000 X151.149 Y115.51
G1 F1200 X151.849 Y116.21 E69.043
G0 F6000 X151.849 Y116.776
G1 F1200 X151.149 Y116.076 E69.0891
G0 F6000 X151.149 Y116.642
G1 F1200 X151.849 Y117.342 E69.13519
G0 F6000 X151.849 Y117.907
G1 F1200 X151.149 Y117.207 E69.18129
G0 F6000 X151.149 Y117.773
G1 F1200 X151.849 Y118.473 E69.22738
G0 F6000 X151.849 Y119.039
G1 F1200 X151.149 Y118.339 E69.27348
G0 F6000 X151.149 Y118.904
G1 F1200 X151.849 Y119.604 E69.31958
G0 F6000 X151.849 Y120.17
G1 F1200 X151.149 Y119.47 E69.36567
G0 F6000 X151.149 Y120.036
G1 F1200 X151.849 Y120.736 E69.41177
G0 F6000 X151.849 Y121.302
G1 F1200 X151.149 Y120.602 E69.45787
G0 F6000 X151.149 Y121.167
G1 F1200 X151.849 Y121.867 E69.50396
G0 F6000 X151.849 Y122.433
G1 F1200 X151.149 Y121.733 E69.55006
G0 F6000 X151.149 Y122.299
G1 F1200 X151.849 Y122.999 E69.59615
G0 F6000 X151.849 Y123.564
G1 F1200 X151.149 Y122.864 E69.64225
G0 F6000 X151.149 Y123.43
G1 F1200 X151.849 Y124.13 E69.68835
G0 F6000 X151.849 Y124.696
G1 F1200 X151.149 Y123.996 E69.73444
G0 F6000 X151.149 Y124.561
G1 F1200 X151.849 Y125.261 E69.78054
G0 F6000 X151.849 Y125.827
G1 F1200 X151.149 Y125.127 E69.82663
G0 F6000 X151.149 Y125.693
G1 F1200 X152.004 Y126.548 E69.88294
G0 F6000 X152.569 Y126.548
G1 F1200 X151.871 Y125.85 E69.9289
G0 F6000 X152.437 Y125.85
G1 F1200 X153.134 Y126.547 E69.9748
G0 F6000 X153.699 Y126.546
G1 F1200 X153.003 Y125.85 E70.02063
G0 F6000 X153.568 Y125.85
G1 F1200 X154.264 Y126.545 E70.06643
G0 F6000 X154.829 Y126.545
G1 F1200 X154.134 Y125.85 E70.1122
G0 F6000 X154.7 Y125.85
G1 F1200 X155.394 Y126.544 E70.1579
G0 F6000 X155.959 Y126.543
G1 F1200 X155.265 Y125.85 E70.20357
G0 F6000 X155.831 Y125.85
