;FLAVOR:Marlin
;TIME:3135
;Filament used: 1.91189m
;Layer height: 0.2
;MINX:63.6
;MINY:82.5
;MINZ:0.2
;MAXX:171.4
;MAXY:152.5
;MAXZ:20.4
;Generated with Cura_SteamEngine master
M140 S50
M105
M190 S50
M104 S210
M105
M109 S210
M82 ;absolute extrusion mode
; Ender 3 Custom Start G-code
G92 E0 ; Reset Extruder
G28 ; Home all axes
G1 Z2.0 F3000 ; Move Z Axis up little to prevent scratching of Heat Bed
G1 X0.1 Y20 Z0.3 F5000.0 ; Move to start position
G1 X0.1 Y200.0 Z0.3 F1500.0 E15 ; Draw the first line
G1 X0.4 Y200.0 Z0.3 F5000.0 ; Move to side a little
G1 X0.4 Y20 Z0.3 F1500.0 E30 ; Draw the second line
G92 E0 ; Reset Extruder
G1 Z2.0 F3000 ; Move Z Axis up little to prevent scratching of Heat Bed
G1 X5 Y20 Z0.3 F5000.0 ; Move over to prevent blob squish
G92 E0
G92 E0
G1 F2700 E-5
;LAYER_COUNT:102
;LAYER:0
M107
G0 F6000 X85.137 Y83.311 Z0.2
;TYPE:SKIRT
G1 F2700 E0
G1 F1200 X86.039 Y83.364 E0.03005
G1 X86.932 Y83.496 E0.06008
G1 X88.217 Y83.833 E0.10426
G1 X88.757 Y84.013 E0.12319
G1 X91.206 Y84.8 E0.20875
G1 X93.661 Y85.514 E0.29379
G1 X96.104 Y86.15 E0.37775
G1 X98.584 Y86.721 E0.46239
G1 X101.071 Y87.219 E0.54675
G1 X103.577 Y87.647 E0.63131
G1 X106.088 Y88.005 E0.71567
G1 X108.621 Y88.293 E0.80046
G1 X111.126 Y88.506 E0.88408
G1 X113.688 Y88.651 E0.96943
G1 X116.221 Y88.723 E1.05371
G1 X118.754 Y88.723 E1.13796
G1 X121.287 Y88.651 E1.22224
G1 X123.851 Y88.506 E1.30765
G1 X126.348 Y88.293 E1.39101
G1 X128.895 Y88.004 E1.47626
G1 X131.388 Y87.649 E1.56002
G1 X133.925 Y87.215 E1.64562
G1 X136.373 Y86.723 E1.72867
G1 X138.845 Y86.155 E1.81303
G1 X141.337 Y85.507 E1.89868
G1 X143.747 Y84.806 E1.98215
G1 X146.162 Y84.031 E2.06651
G1 X146.725 Y83.842 E2.08626
G1 X147.593 Y83.593 E2.1163
G1 X148.479 Y83.421 E2.14632
G1 X149.378 Y83.328 E2.17638
G1 X149.829 Y83.311 E2.19139
G1 X150.667 Y83.3 E2.21926
G1 X159.839 Y83.301 E2.52433
G1 X160.537 Y83.311 E2.54754
G1 X161.439 Y83.364 E2.5776
G1 X162.332 Y83.496 E2.60762
G1 X163.21 Y83.707 E2.63765
G1 X164.066 Y83.995 E2.66769
G1 X164.893 Y84.357 E2.69772
G1 X165.685 Y84.792 E2.72777
G1 X166.436 Y85.294 E2.75782
G1 X167.139 Y85.861 E2.78786
G1 X167.789 Y86.488 E2.81789
G1 X168.381 Y87.17 E2.84793
G1 X168.911 Y87.901 E2.87796
G1 X169.373 Y88.677 E2.908
G1 X169.766 Y89.49 E2.93803
G1 X170.084 Y90.335 E2.96806
G1 X170.327 Y91.205 E2.99811
G1 X170.492 Y92.093 E3.02815
G1 X170.587 Y93.223 E3.06586
G1 X170.6 Y93.83 E3.08606
G1 X170.599 Y140.89 E4.65128
G1 X170.59 Y141.617 E4.67546
G1 X170.539 Y142.519 E4.70551
G1 X170.408 Y143.413 E4.73556
G1 X170.199 Y144.291 E4.76558
G1 X169.913 Y145.148 E4.79563
G1 X169.552 Y145.976 E4.82567
G1 X169.12 Y146.768 E4.85568
G1 X168.619 Y147.52 E4.88573
G1 X168.053 Y148.224 E4.91578
G1 X167.428 Y148.875 E4.94579
G1 X166.747 Y149.469 E4.97585
G1 X166.016 Y150 E5.0059
G1 X165.242 Y150.464 E5.03591
G1 X164.429 Y150.858 E5.06596
G1 X163.585 Y151.178 E5.09598
G1 X162.715 Y151.423 E5.12605
G1 X161.828 Y151.589 E5.15606
G1 X160.677 Y151.687 E5.19448
G1 X160.07 Y151.7 E5.21467
G1 X75.307 Y151.7 E8.0339
G1 X74.477 Y151.69 E8.06151
G1 X73.576 Y151.639 E8.09153
G1 X72.682 Y151.507 E8.12158
G1 X71.804 Y151.298 E8.1516
G1 X70.947 Y151.011 E8.18166
G1 X70.12 Y150.65 E8.21167
G1 X69.327 Y150.217 E8.24173
G1 X68.576 Y149.716 E8.27175
G1 X67.872 Y149.15 E8.3018
G1 X67.221 Y148.524 E8.33183
G1 X66.628 Y147.843 E8.36187
G1 X66.098 Y147.112 E8.3919
G1 X65.634 Y146.337 E8.42194
G1 X65.24 Y145.524 E8.45199
G1 X64.92 Y144.68 E8.48201
G1 X64.676 Y143.81 E8.51207
G1 X64.51 Y142.922 E8.54211
G1 X64.413 Y141.767 E8.58066
G1 X64.4 Y141.158 E8.60092
G1 X64.401 Y94.036 E10.16821
G1 X64.41 Y93.371 E10.19033
G1 X64.462 Y92.469 E10.22038
G1 X64.594 Y91.576 E10.2504
G1 X64.804 Y90.698 E10.28043
G1 X65.091 Y89.841 E10.31049
G1 X65.453 Y89.014 E10.34051
G1 X65.886 Y88.222 E10.37054
G1 X66.388 Y87.471 E10.40058
G1 X66.955 Y86.767 E10.43065
G1 X67.581 Y86.117 E10.46066
G1 X68.262 Y85.524 E10.49069
G1 X68.994 Y84.994 E10.52075
G1 X69.769 Y84.531 E10.55078
G1 X70.582 Y84.138 E10.58081
G1 X71.427 Y83.818 E10.61087
G1 X72.296 Y83.575 E10.64088
G1 X73.184 Y83.409 E10.67092
G1 X74.323 Y83.313 E10.70894
G1 X74.93 Y83.3 E10.72914
G1 X84.439 Y83.301 E11.04541
G1 X85.137 Y83.311 E11.06862
G0 F6000 X85.143 Y82.911
G1 F1200 X86.062 Y82.964 E11.09924
G1 X86.973 Y83.097 E11.12986
G1 X87.869 Y83.308 E11.16048
G1 X88.343 Y83.454 E11.17697
G1 X88.802 Y83.607 E11.19307
G1 X91.335 Y84.421 E11.28156
G1 X93.736 Y85.119 E11.36472
G1 X96.223 Y85.766 E11.45019
G1 X98.681 Y86.333 E11.53409
G1 X101.152 Y86.827 E11.6179
G1 X103.623 Y87.25 E11.70129
G1 X106.158 Y87.611 E11.78645
G1 X108.628 Y87.891 E11.86913
G1 X111.184 Y88.109 E11.95445
G1 X113.686 Y88.251 E12.0378
G1 X116.232 Y88.323 E12.12252
G1 X118.742 Y88.323 E12.206
G1 X121.288 Y88.251 E12.29071
G1 X123.795 Y88.109 E12.37423
G1 X126.341 Y87.892 E12.45922
G1 X128.825 Y87.61 E12.54237
G1 X131.342 Y87.252 E12.62692
G1 X133.81 Y86.829 E12.71021
G1 X136.31 Y86.327 E12.79502
G1 X138.76 Y85.764 E12.87863
G1 X141.23 Y85.122 E12.96351
G1 X143.661 Y84.414 E13.04773
G1 X145.975 Y83.672 E13.12855
G1 X146.597 Y83.463 E13.15037
G1 X147.482 Y83.208 E13.18101
G1 X148.385 Y83.03 E13.21162
G1 X149.3 Y82.932 E13.24223
G1 X149.823 Y82.911 E13.25964
G1 X150.667 Y82.9 E13.28771
G1 X159.845 Y82.901 E13.59297
G1 X160.543 Y82.911 E13.61619
G1 X161.462 Y82.964 E13.64681
G1 X162.373 Y83.097 E13.67743
G1 X163.269 Y83.308 E13.70804
G1 X164.143 Y83.596 E13.73865
G1 X164.99 Y83.959 E13.7693
G1 X165.801 Y84.394 E13.79991
G1 X166.571 Y84.898 E13.83052
G1 X167.295 Y85.467 E13.86114
G1 X167.967 Y86.097 E13.89178
G1 X168.582 Y86.782 E13.9224
G1 X169.135 Y87.518 E13.95302
G1 X169.622 Y88.299 E13.98363
G1 X170.039 Y89.12 E14.01426
G1 X170.384 Y89.974 E14.04489
G1 X170.653 Y90.854 E14.0755
G1 X170.845 Y91.755 E14.10614
G1 X170.958 Y92.668 E14.13674
G1 X170.987 Y93.212 E14.15486
G1 X171 Y93.83 E14.17542
G1 X170.999 Y140.895 E15.7408
G1 X170.99 Y141.622 E15.76499
G1 X170.939 Y142.541 E15.7956
G1 X170.808 Y143.453 E15.82624
G1 X170.598 Y144.349 E15.85685
G1 X170.312 Y145.224 E15.88747
G1 X169.951 Y146.071 E15.91809
G1 X169.517 Y146.883 E15.94872
G1 X169.015 Y147.655 E15.97934
G1 X168.447 Y148.38 E16.00998
G1 X167.819 Y149.053 E16.04059
G1 X167.135 Y149.669 E16.07121
G1 X166.4 Y150.223 E16.10182
G1 X165.62 Y150.712 E16.13244
G1 X164.8 Y151.131 E16.16307
G1 X163.947 Y151.477 E16.19368
G1 X163.067 Y151.748 E16.22431
G1 X162.167 Y151.941 E16.25492
G1 X161.253 Y152.056 E16.28556
G1 X160.688 Y152.087 E16.30438
G1 X160.07 Y152.1 E16.32494
G1 X75.307 Y152.1 E19.14417
G1 X74.472 Y152.09 E19.17195
G1 X73.553 Y152.038 E19.20256
G1 X72.642 Y151.907 E19.23317
G1 X71.746 Y151.697 E19.26378
G1 X70.871 Y151.41 E19.29441
G1 X70.024 Y151.048 E19.32505
G1 X69.212 Y150.614 E19.35567
G1 X68.441 Y150.112 E19.38627
G1 X67.716 Y149.544 E19.4169
G1 X67.043 Y148.915 E19.44754
G1 X66.428 Y148.231 E19.47813
G1 X65.874 Y147.496 E19.50875
G1 X65.386 Y146.715 E19.53938
G1 X64.967 Y145.895 E19.57
G1 X64.621 Y145.042 E19.60062
G1 X64.351 Y144.162 E19.63124
G1 X64.158 Y143.261 E19.66188
G1 X64.044 Y142.348 E19.69249
G1 X64.013 Y141.777 E19.7115
G1 X64 Y141.158 E19.7321
G1 X64.001 Y94.031 E21.29955
G1 X64.01 Y93.366 E21.32167
G1 X64.062 Y92.446 E21.35232
G1 X64.194 Y91.535 E21.38293
G1 X64.405 Y90.639 E21.41355
G1 X64.692 Y89.764 E21.44418
G1 X65.055 Y88.918 E21.4748
G1 X65.489 Y88.106 E21.50542
G1 X65.992 Y87.335 E21.53604
G1 X66.561 Y86.611 E21.56666
G1 X67.189 Y85.939 E21.59726
G1 X67.874 Y85.323 E21.6279
G1 X68.61 Y84.77 E21.65852
G1 X69.391 Y84.282 E21.68915
G1 X70.211 Y83.864 E21.71976
G1 X71.065 Y83.519 E21.75039
G1 X71.945 Y83.249 E21.78101
G1 X72.845 Y83.057 E21.81162
G1 X73.759 Y82.943 E21.84225
G1 X74.312 Y82.913 E21.86067
G1 X74.93 Y82.9 E21.88123
G1 X84.445 Y82.901 E22.1977
G1 X85.143 Y82.911 E22.22092
G0 F6000 X85.149 Y82.511
G1 F1200 X86.085 Y82.565 E22.2521
G1 X87.013 Y82.697 E22.28328
G1 X87.927 Y82.909 E22.31448
G1 X88.47 Y83.074 E22.33336
G1 X88.979 Y83.244 E22.35121
G1 X91.464 Y84.042 E22.43802
G1 X93.843 Y84.734 E22.52042
G1 X96.3 Y85.373 E22.60486
G1 X98.784 Y85.946 E22.68965
G1 X101.192 Y86.428 E22.77133
G1 X103.71 Y86.858 E22.85629
G1 X106.188 Y87.211 E22.93954
G1 X108.706 Y87.497 E23.02383
G1 X111.204 Y87.71 E23.10721
G1 X113.686 Y87.851 E23.1899
G1 X116.243 Y87.923 E23.27498
G1 X118.731 Y87.923 E23.35773
G1 X121.29 Y87.851 E23.44288
G1 X123.773 Y87.71 E23.52559
G1 X126.263 Y87.498 E23.60871
G1 X128.795 Y87.21 E23.69347
G1 X131.284 Y86.856 E23.77709
G1 X133.735 Y86.436 E23.85979
G1 X136.256 Y85.93 E23.94532
G1 X138.643 Y85.382 E24.02677
G1 X141.123 Y84.736 E24.11201
G1 X143.532 Y84.036 E24.19545
G1 X145.873 Y83.285 E24.27722
G1 X146.47 Y83.084 E24.29817
G1 X147.371 Y82.823 E24.32937
G1 X148.29 Y82.64 E24.36054
G1 X149.222 Y82.536 E24.39173
G1 X149.818 Y82.511 E24.41157
G1 X150.667 Y82.5 E24.43981
G1 X159.851 Y82.501 E24.74527
G1 X160.549 Y82.511 E24.76849
G1 X161.485 Y82.565 E24.79967
G1 X162.413 Y82.697 E24.83085
G1 X163.327 Y82.909 E24.86205
G1 X164.219 Y83.198 E24.89324
G1 X165.084 Y83.561 E24.92444
G1 X165.914 Y83.997 E24.95562
G1 X166.705 Y84.502 E24.98684
G1 X167.449 Y85.073 E25.01803
G1 X168.142 Y85.705 E25.04922
G1 X168.779 Y86.393 E25.08041
G1 X169.354 Y87.134 E25.1116
G1 X169.865 Y87.92 E25.14279
G1 X170.307 Y88.748 E25.174
G1 X170.676 Y89.61 E25.20519
G1 X170.971 Y90.5 E25.23638
G1 X171.189 Y91.412 E25.26756
G1 X171.329 Y92.34 E25.29878
G1 X171.387 Y93.201 E25.32748
G1 X171.4 Y93.83 E25.34841
G1 X171.399 Y140.9 E26.91396
G1 X171.39 Y141.627 E26.93814
G1 X171.339 Y142.564 E26.96935
G1 X171.207 Y143.492 E27.00053
G1 X170.998 Y144.406 E27.03171
G1 X170.711 Y145.299 E27.06291
G1 X170.349 Y146.165 E27.09413
G1 X169.915 Y146.996 E27.12531
G1 X169.411 Y147.787 E27.15651
G1 X168.842 Y148.532 E27.18769
G1 X168.211 Y149.227 E27.21891
G1 X167.524 Y149.865 E27.25009
G1 X166.785 Y150.442 E27.28127
G1 X165.999 Y150.954 E27.31247
G1 X165.173 Y151.397 E27.34365
G1 X164.311 Y151.769 E27.37487
G1 X163.422 Y152.065 E27.40604
G1 X162.51 Y152.285 E27.43724
G1 X161.583 Y152.426 E27.46843
G1 X160.699 Y152.487 E27.4979
G1 X160.07 Y152.5 E27.51883
G1 X75.307 Y152.5 E30.33805
G1 X74.467 Y152.49 E30.366
G1 X73.531 Y152.438 E30.39717
G1 X72.602 Y152.306 E30.42838
G1 X71.688 Y152.096 E30.45958
G1 X70.795 Y151.809 E30.49077
G1 X69.93 Y151.446 E30.52197
G1 X69.099 Y151.012 E30.55316
G1 X68.308 Y150.508 E30.58435
G1 X67.563 Y149.938 E30.61555
G1 X66.869 Y149.307 E30.64675
G1 X66.232 Y148.62 E30.67791
G1 X65.655 Y147.88 E30.70912
G1 X65.143 Y147.094 E30.74032
G1 X64.7 Y146.267 E30.77152
G1 X64.329 Y145.406 E30.8027
G1 X64.033 Y144.516 E30.8339
G1 X63.814 Y143.604 E30.8651
G1 X63.673 Y142.677 E30.89628
G1 X63.613 Y141.788 E30.92592
G1 X63.6 Y141.158 E30.94688
G1 X63.601 Y94.025 E32.51453
G1 X63.61 Y93.36 E32.53665
G1 X63.663 Y92.424 E32.56783
G1 X63.795 Y91.495 E32.59904
G1 X64.006 Y90.581 E32.63024
G1 X64.294 Y89.689 E32.66141
G1 X64.657 Y88.824 E32.69261
G1 X65.092 Y87.993 E32.72381
G1 X65.596 Y87.203 E32.75498
G1 X66.166 Y86.458 E32.78618
G1 X66.798 Y85.764 E32.8174
G1 X67.486 Y85.127 E32.84858
G1 X68.226 Y84.551 E32.87977
G1 X69.012 Y84.039 E32.91097
G1 X69.839 Y83.597 E32.94216
G1 X70.701 Y83.227 E32.97336
G1 X71.591 Y82.931 E33.00455
G1 X72.503 Y82.713 E33.03574
G1 X73.43 Y82.572 E33.06693
G1 X74.301 Y82.513 E33.09596
G1 X74.93 Y82.5 E33.11689
G1 X84.451 Y82.501 E33.43356
G1 X85.149 Y82.511 E33.45678
G1 F2700 E28.45678
;MESH:bosch-dust-block.stl
G0 F6000 X84.58 Y92.835
G0 X84.58 Y93.92
G0 X75.382 Y94.282
G0 X75.2 Y140.9
;TYPE:WALL-INNER
G1 F2700 E33.45678
G1 F1200 X75.2 Y94.1 E35.01335
G1 X84.4 Y94.1 E35.31934
G1 X84.4 Y139.058 E36.81465
G1 X87.444 Y139.058 E36.9159
G1 X87.626 Y139.046 E36.92196
G1 X92.322 Y138.717 E37.07854
G1 X92.504 Y138.691 E37.08465
G1 X97.164 Y138.036 E37.24117
G1 X101.946 Y137.019 E37.40377
G1 X102.121 Y136.968 E37.40984
G1 X106.644 Y135.672 E37.56633
G1 X106.815 Y135.61 E37.57238
G1 X111.239 Y134 E37.72896
G1 X115.705 Y132.012 E37.89155
G1 X120.023 Y129.715 E38.05423
G1 X124.169 Y127.126 E38.2168
G1 X128.123 Y124.251 E38.3794
G1 X131.869 Y121.109 E38.54202
G1 X135.386 Y117.713 E38.70462
G1 X138.657 Y114.08 E38.86722
G1 X141.668 Y110.227 E39.02986
G1 X144.401 Y106.174 E39.19245
G1 X146.846 Y101.94 E39.35506
G1 X148.99 Y97.545 E39.51771
G1 X150.381 Y94.1 E39.64128
G1 X159.8 Y94.1 E39.95456
G1 X159.8 Y140.9 E41.51113
G1 X75.2 Y140.9 E44.32494
G0 F6000 X74.8 Y141.3
;TYPE:WALL-OUTER
G1 F1200 X74.8 Y93.7 E45.90812
G1 X84.8 Y93.7 E46.24072
G1 X84.8 Y138.658 E47.73603
G1 X87.431 Y138.658 E47.82354
G1 X87.599 Y138.647 E47.82914
G1 X92.28 Y138.319 E47.98521
G1 X92.447 Y138.295 E47.99082
G1 X97.094 Y137.642 E48.1469
G1 X101.849 Y136.631 E48.30859
G1 X102.011 Y136.584 E48.3142
G1 X106.521 Y135.291 E48.47024
G1 X106.679 Y135.234 E48.47583
G1 X111.089 Y133.629 E48.63192
G1 X115.53 Y131.652 E48.7936
G1 X119.822 Y129.369 E48.95529
G1 X119.965 Y129.279 E48.96091
G1 X123.945 Y126.794 E49.11697
G1 X127.877 Y123.936 E49.27865
G1 X131.601 Y120.812 E49.44032
G1 X135.098 Y117.435 E49.60201
G1 X138.35 Y113.823 E49.76366
G1 X141.344 Y109.992 E49.92538
G1 X144.062 Y105.962 E50.08705
G1 X146.493 Y101.752 E50.24875
G1 X148.624 Y97.382 E50.41045
G1 X150.111 Y93.7 E50.54253
G1 X160.2 Y93.7 E50.87809
G1 X160.2 Y141.3 E52.46127
G1 X74.8 Y141.3 E55.30169
G0 F6000 X75.07 Y141.03
G0 X75.31 Y140.51
G0 X75.59 Y140.51
;TYPE:SKIN
G1 F1200 X75.59 Y94.49 E56.83232
G1 X84.01 Y94.49 E57.11237
G1 X84.01 Y139.448 E58.60768
G1 X87.457 Y139.448 E58.72233
G1 X87.652 Y139.436 E58.72882
G1 X92.363 Y139.105 E58.8859
G1 X92.559 Y139.077 E58.89248
G1 X97.232 Y138.42 E59.04944
G1 X102.041 Y137.397 E59.21296
G1 X102.23 Y137.342 E59.21951
G1 X106.765 Y136.043 E59.37641
G1 X106.948 Y135.977 E59.38288
G1 X111.385 Y134.362 E59.53993
G1 X115.876 Y132.363 E59.70343
G1 X120.218 Y130.053 E59.86701
G1 X124.387 Y127.45 E60.03048
G1 X128.363 Y124.559 E60.19398
G1 X132.13 Y121.399 E60.35752
G1 X135.667 Y117.984 E60.52105
G1 X138.956 Y114.331 E60.68454
G1 X141.984 Y110.457 E60.84808
G1 X144.732 Y106.381 E61.01158
G1 X147.191 Y102.123 E61.17512
G1 X149.347 Y97.703 E61.33868
G1 X150.644 Y94.49 E61.45393
G1 X159.41 Y94.49 E61.74549
G1 X159.41 Y140.51 E63.27612
G1 X75.59 Y140.51 E66.06398
G0 F6000 X75.861 Y140.349
G1 F1200 X75.749 Y140.237 E66.06925
G0 F6000 X75.749 Y139.671
G1 F1200 X76.426 Y140.349 E66.10112
G0 F6000 X76.992 Y140.349
G1 F1200 X75.749 Y139.106 E66.15958
G0 F6000 X75.749 Y138.54
G1 F1200 X77.558 Y140.349 E66.24467
G0 F6000 X78.123 Y140.349
G1 F1200 X75.749 Y137.974 E66.35636
G0 F6000 X75.749 Y137.409
G1 F1200 X78.689 Y140.349 E66.49465
G0 F6000 X79.255 Y140.349
G1 F1200 X75.749 Y136.843 E66.65956
G0 F6000 X75.749 Y136.277
G1 F1200 X79.821 Y140.349 E66.8511
G0 F6000 X80.386 Y140.349
G1 F1200 X75.749 Y135.712 E67.06921
G0 F6000 X75.749 Y135.146
G1 F1200 X80.952 Y140.349 E67.31394
G0 F6000 X81.518 Y140.349
G1 F1200 X75.749 Y134.58 E67.5853
G0 F6000 X75.749 Y134.015
G1 F1200 X82.083 Y140.349 E67.88323
G0 F6000 X82.649 Y140.349
G1 F1200 X75.749 Y133.449 E68.20778
G0 F6000 X75.749 Y132.883
G1 F1200 X83.215 Y140.349 E68.55896
G0 F6000 X83.78 Y140.349
G1 F1200 X75.749 Y132.318 E68.93672
G0 F6000 X75.749 Y131.752
G1 F1200 X84.346 Y140.349 E69.34109
G0 F6000 X84.912 Y140.349
G1 F1200 X84.17 Y139.607 E69.37599
G0 F6000 X83.85 Y139.287
G1 F1200 X75.749 Y131.186 E69.75704
G0 F6000 X75.749 Y130.621
G1 F1200 X83.85 Y138.721 E70.13806
G0 F6000 X83.85 Y138.155
G1 F1200 X75.749 Y130.055 E70.51909
G0 F6000 X75.749 Y129.489
G1 F1200 X83.85 Y137.59 E70.90013
G0 F6000 X83.85 Y137.024
G1 F1200 X75.749 Y128.923 E71.28118
G0 F6000 X75.749 Y128.358
G1 F1200 X83.85 Y136.458 E71.6622
G0 F6000 X83.85 Y135.893
G1 F1200 X75.749 Y127.792 E72.04325
G0 F6000 X75.749 Y127.226
G1 F1200 X83.85 Y135.327 E72.42429
G0 F6000 X83.85 Y134.761
G1 F1200 X75.749 Y126.661 E72.80532
G0 F6000 X75.749 Y126.095
G1 F1200 X83.85 Y134.196 E73.18636
G0 F6000 X83.85 Y133.63
G1 F1200 X75.749 Y125.529 E73.56741
G0 F6000 X75.749 Y124.964
G1 F1200 X83.85 Y133.064 E73.94843
G0 F6000 X83.85 Y132.499
G1 F1200 X75.749 Y124.398 E74.32948
G0 F6000 X75.749 Y123.832
G1 F1200 X83.85 Y131.933 E74.71052
