;FLAVOR:Marlin
;TIME:11819
;Filament used: 4.4398m
;Layer height: 0.12
;MINX:53.5
;MINY:56.5
;MINZ:0.12
;MAXX:181.5
;MAXY:190.5
;MAXZ:2.76
;Generated with Cura_SteamEngine master
M140 S60
M105
M190 S60
M104 S200
M105
M109 S200
M82 ;absolute extrusion mode
; Ender 3 Custom Start G-code
G92 E0 ; Reset Extruder
G28 ; Home all axes
G1 Z2.0 F3000 ; Move Z Axis up little to prevent scratching of Heat Bed
G1 X0.1 Y20 Z0.3 F5000.0 ; Move to start position
G1 X0.1 Y200.0 Z0.3 F1500.0 E15 ; Draw the first line
G1 X0.4 Y200.0 Z0.3 F5000.0 ; Move to side a little
G1 X0.4 Y20 Z0.3 F1500.0 E30 ; Draw the second line
G92 E0 ; Reset Extruder
G1 Z2.0 F3000 ; Move Z Axis up little to prevent scratching of Heat Bed
G1 X5 Y20 Z0.3 F5000.0 ; Move over to prevent blob squish
G92 E0
G92 E0
G1 F1500 E-6.5
;LAYER_COUNT:23
;LAYER:0
M107
G0 F6000 X56.698 Y61.764 Z0.12
;TYPE:SKIRT
G1 F1500 E0
G1 F1200 X57.386 Y61.127 E0.01871
G1 X58.126 Y60.551 E0.03742
G1 X58.912 Y60.039 E0.05614
G1 X59.739 Y59.597 E0.07486
G1 X60.601 Y59.227 E0.09358
G1 X61.491 Y58.931 E0.11229
G1 X62.403 Y58.713 E0.13101
G1 X63.33 Y58.572 E0.14972
G1 X64.201 Y58.513 E0.16714
G1 X64.83 Y58.5 E0.1797
G1 X73.951 Y58.501 E0.36172
G1 X74.648 Y58.511 E0.37563
G1 X75.865 Y58.596 E0.39997
G1 X76.977 Y58.736 E0.42234
G1 X79.558 Y59.029 E0.47418
G1 X82.095 Y59.244 E0.52499
G1 X84.558 Y59.384 E0.57422
G1 X87.108 Y59.455 E0.62513
G1 X89.633 Y59.455 E0.67551
G1 X92.128 Y59.383 E0.72533
G1 X94.645 Y59.241 E0.77563
G1 X97.151 Y59.027 E0.82583
G1 X99.641 Y58.744 E0.87584
G1 X102.14 Y58.388 E0.92621
G1 X104.63 Y57.961 E0.97663
G1 X107.047 Y57.476 E1.02582
G1 X108.728 Y57.078 E1.0603
G1 X110.104 Y56.773 E1.08842
G1 X111.027 Y56.609 E1.10713
G1 X112.103 Y56.519 E1.12868
G1 X112.449 Y56.507 E1.13559
G1 X112.83 Y56.5 E1.14319
G1 X121.951 Y56.501 E1.32521
G1 X122.649 Y56.511 E1.33914
G1 X123.585 Y56.565 E1.35785
G1 X124.513 Y56.697 E1.37656
G1 X125.047 Y56.811 E1.38745
G1 X125.364 Y56.887 E1.39396
G1 X127.899 Y57.471 E1.44587
G1 X130.406 Y57.976 E1.49691
G1 X132.842 Y58.392 E1.54622
G1 X135.358 Y58.751 E1.59694
G1 X137.848 Y59.034 E1.64695
G1 X140.354 Y59.248 E1.69714
G1 X142.871 Y59.39 E1.74745
G1 X145.366 Y59.462 E1.79727
G1 X147.89 Y59.462 E1.84763
G1 X150.441 Y59.391 E1.89856
G1 X152.904 Y59.251 E1.94779
G1 X155.441 Y59.036 E1.9986
G1 X157.964 Y58.75 E2.04927
G1 X158.892 Y58.624 E2.06796
G1 X159.774 Y58.541 E2.08564
G1 X160.236 Y58.516 E2.09488
G1 X160.83 Y58.5 E2.10673
G1 X169.935 Y58.501 E2.28843
G1 X170.633 Y58.51 E2.30237
G1 X171.569 Y58.562 E2.32107
G1 X172.498 Y58.694 E2.3398
G1 X173.412 Y58.904 E2.35851
G1 X174.305 Y59.191 E2.37723
G1 X175.17 Y59.554 E2.39595
G1 X176.001 Y59.988 E2.41466
G1 X176.792 Y60.492 E2.43338
G1 X177.537 Y61.062 E2.4521
G1 X178.231 Y61.693 E2.47082
G1 X178.868 Y62.38 E2.48951
G1 X179.445 Y63.12 E2.50824
G1 X179.957 Y63.906 E2.52696
G1 X180.4 Y64.733 E2.54568
G1 X180.771 Y65.594 E2.56439
G1 X181.067 Y66.484 E2.58311
G1 X181.286 Y67.396 E2.60183
G1 X181.427 Y68.323 E2.62054
G1 X181.487 Y69.201 E2.6381
G1 X181.5 Y69.83 E2.65065
G1 X181.5 Y168.764 E4.62499
G1 X181.499 Y168.915 E4.628
G1 X181.489 Y169.642 E4.64251
G1 X181.436 Y170.579 E4.66124
G1 X181.304 Y171.507 E4.67995
G1 X181.093 Y172.421 E4.69867
G1 X180.804 Y173.313 E4.71738
G1 X180.441 Y174.178 E4.7361
G1 X180.006 Y175.009 E4.75482
G1 X179.501 Y175.799 E4.77353
G1 X178.931 Y176.544 E4.79225
G1 X178.3 Y177.238 E4.81097
G1 X177.611 Y177.875 E4.82969
G1 X176.871 Y178.451 E4.84841
G1 X176.085 Y178.962 E4.86711
G1 X175.056 Y179.498 E4.89027
G1 X174.209 Y179.883 E4.90884
G1 X173.131 Y180.353 E4.9323
G1 X170.837 Y181.431 E4.98289
G1 X168.581 Y182.569 E5.03331
G1 X166.374 Y183.765 E5.0834
G1 X164.198 Y185.022 E5.13355
G1 X162.047 Y186.349 E5.18399
G1 X159.738 Y187.871 E5.23918
G1 X158.675 Y188.591 E5.2648
G1 X157.877 Y189.084 E5.28352
G1 X157.039 Y189.506 E5.30224
G1 X156.169 Y189.856 E5.32096
G1 X155.272 Y190.131 E5.33968
G1 X154.355 Y190.327 E5.35839
G1 X153.029 Y190.472 E5.38501
G1 X152.693 Y190.488 E5.39173
G1 X152.17 Y190.5 E5.40217
G1 X143.05 Y190.499 E5.58416
G1 X142.35 Y190.489 E5.59814
G1 X141.414 Y190.436 E5.61684
G1 X140.485 Y190.303 E5.63557
G1 X139.895 Y190.175 E5.64762
G1 X138.788 Y189.904 E5.67036
G1 X136.272 Y189.324 E5.72189
G1 X133.757 Y188.817 E5.77309
G1 X131.304 Y188.398 E5.82275
G1 X128.818 Y188.043 E5.87286
G1 X126.325 Y187.759 E5.92294
G1 X123.795 Y187.542 E5.97361
G1 X121.292 Y187.401 E6.02364
G1 X118.795 Y187.329 E6.07349
G1 X116.265 Y187.328 E6.12398
G1 X113.749 Y187.397 E6.17421
G1 X111.231 Y187.539 E6.22454
G1 X108.701 Y187.754 E6.27521
G1 X106.246 Y188.032 E6.32451
G1 X103.699 Y188.394 E6.37585
G1 X101.282 Y188.807 E6.42479
G1 X98.774 Y189.309 E6.47583
G1 X96.313 Y189.875 E6.52622
G1 X95.282 Y190.135 E6.54744
G1 X94.363 Y190.326 E6.56617
G1 X93.376 Y190.442 E6.58601
G1 X92.959 Y190.472 E6.59435
G1 X92.17 Y190.5 E6.6101
G1 X83.05 Y190.499 E6.7921
G1 X82.349 Y190.489 E6.80609
G1 X81.413 Y190.436 E6.8248
G1 X80.484 Y190.303 E6.84353
G1 X79.571 Y190.091 E6.86224
G1 X78.678 Y189.803 E6.88096
G1 X77.814 Y189.439 E6.89967
G1 X76.983 Y189.003 E6.9184
G1 X76.182 Y188.491 E6.93737
G1 X73.975 Y187 E6.99052
G1 X71.85 Y185.651 E7.04075
G1 X69.67 Y184.352 E7.09139
G1 X67.493 Y183.138 E7.14114
G1 X65.245 Y181.965 E7.19174
G1 X62.968 Y180.857 E7.24227
G1 X60.664 Y179.817 E7.29272
G1 X60.167 Y179.601 E7.30353
G1 X59.349 Y179.205 E7.32167
G1 X58.501 Y178.704 E7.34132
G1 X57.738 Y178.159 E7.36004
G1 X57.024 Y177.551 E7.37875
G1 X56.365 Y176.884 E7.39746
G1 X55.765 Y176.163 E7.41618
G1 X55.228 Y175.394 E7.4349
G1 X54.759 Y174.582 E7.45361
G1 X54.36 Y173.733 E7.47233
G1 X54.036 Y172.853 E7.49105
G1 X53.787 Y171.949 E7.50976
G1 X53.617 Y171.027 E7.52847
G1 X53.513 Y169.799 E7.55306
G1 X53.5 Y169.17 E7.56562
G1 X53.5 Y70.174 E9.54119
G1 X53.51 Y69.36 E9.55743
G1 X53.563 Y68.424 E9.57614
G1 X53.695 Y67.495 E9.59487
G1 X53.906 Y66.581 E9.61359
G1 X54.194 Y65.689 E9.63229
G1 X54.557 Y64.824 E9.65101
G1 X54.992 Y63.993 E9.66973
G1 X55.496 Y63.203 E9.68843
G1 X56.066 Y62.458 E9.70715
G1 X56.698 Y61.764 E9.72588
G0 F6000 X57.089 Y61.939
G1 F1200 X57.774 Y61.323 E9.74427
G1 X58.51 Y60.77 E9.76264
G1 X59.291 Y60.282 E9.78102
G1 X60.111 Y59.864 E9.79939
G1 X60.965 Y59.519 E9.81777
G1 X61.845 Y59.249 E9.83614
G1 X62.745 Y59.057 E9.8545
G1 X63.659 Y58.943 E9.87288
G1 X64.212 Y58.913 E9.88393
G1 X64.83 Y58.9 E9.89627
G1 X73.945 Y58.901 E10.07817
G1 X74.642 Y58.911 E10.09208
G1 X75.815 Y58.993 E10.11554
G1 X76.961 Y59.137 E10.13859
G1 X79.515 Y59.427 E10.18989
G1 X82.037 Y59.641 E10.2404
G1 X84.56 Y59.784 E10.29083
G1 X87.097 Y59.855 E10.34148
G1 X89.609 Y59.855 E10.39161
G1 X92.161 Y59.782 E10.44256
G1 X94.664 Y59.64 E10.49259
G1 X97.201 Y59.424 E10.5434
G1 X99.707 Y59.139 E10.59373
G1 X102.193 Y58.784 E10.64384
G1 X104.705 Y58.354 E10.6947
G1 X107.135 Y57.866 E10.74417
G1 X108.814 Y57.468 E10.7786
G1 X110.19 Y57.163 E10.80673
G1 X111.097 Y57.003 E10.82511
G1 X112.117 Y56.918 E10.84553
G1 X112.463 Y56.906 E10.85244
G1 X112.83 Y56.9 E10.85977
G1 X121.945 Y56.901 E11.04166
G1 X122.643 Y56.911 E11.0556
G1 X123.562 Y56.964 E11.07397
G1 X124.473 Y57.097 E11.09234
G1 X124.954 Y57.2 E11.10215
G1 X125.293 Y57.281 E11.10911
G1 X127.802 Y57.859 E11.16049
G1 X130.325 Y58.368 E11.21186
G1 X132.796 Y58.79 E11.26188
G1 X135.292 Y59.146 E11.3122
G1 X137.798 Y59.431 E11.36253
G1 X140.335 Y59.647 E11.41334
G1 X142.838 Y59.789 E11.46337
G1 X145.39 Y59.862 E11.51432
G1 X147.901 Y59.862 E11.56443
G1 X150.439 Y59.791 E11.6151
G1 X152.962 Y59.648 E11.66553
G1 X155.484 Y59.434 E11.71604
G1 X158.019 Y59.146 E11.76695
G1 X158.946 Y59.021 E11.78562
G1 X159.795 Y58.94 E11.80264
G1 X160.257 Y58.915 E11.81187
G1 X160.83 Y58.9 E11.82331
G1 X169.93 Y58.901 E12.00491
G1 X170.628 Y58.91 E12.01884
G1 X171.547 Y58.962 E12.03721
G1 X172.458 Y59.093 E12.05558
G1 X173.354 Y59.303 E12.07394
G1 X174.229 Y59.59 E12.09232
G1 X175.076 Y59.952 E12.1107
G1 X175.888 Y60.386 E12.12907
G1 X176.659 Y60.888 E12.14743
G1 X177.384 Y61.456 E12.16581
G1 X178.057 Y62.085 E12.1842
G1 X178.672 Y62.769 E12.20255
G1 X179.226 Y63.504 E12.22092
G1 X179.714 Y64.285 E12.2393
G1 X180.133 Y65.105 E12.25767
G1 X180.479 Y65.958 E12.27604
G1 X180.749 Y66.838 E12.29441
G1 X180.942 Y67.739 E12.3128
G1 X181.056 Y68.652 E12.33116
G1 X181.087 Y69.212 E12.34236
G1 X181.1 Y69.83 E12.35469
G1 X181.1 Y168.764 E14.32903
G1 X181.099 Y168.91 E14.33194
G1 X181.089 Y169.637 E14.34645
G1 X181.036 Y170.556 E14.36482
G1 X180.904 Y171.467 E14.38319
G1 X180.693 Y172.363 E14.40156
G1 X180.406 Y173.238 E14.41994
G1 X180.043 Y174.084 E14.43831
G1 X179.609 Y174.896 E14.45668
G1 X179.105 Y175.667 E14.47506
G1 X178.537 Y176.391 E14.49343
G1 X177.908 Y177.063 E14.5118
G1 X177.223 Y177.678 E14.53017
G1 X176.487 Y178.231 E14.54854
G1 X175.706 Y178.719 E14.56692
G1 X174.89 Y179.135 E14.58519
G1 X174.049 Y179.517 E14.60363
G1 X172.95 Y179.996 E14.62755
G1 X170.666 Y181.07 E14.67792
G1 X168.39 Y182.218 E14.72879
G1 X166.19 Y183.409 E14.77871
G1 X164.01 Y184.669 E14.82896
G1 X161.824 Y186.017 E14.88021
G1 X159.513 Y187.54 E14.93545
G1 X158.45 Y188.26 E14.96107
G1 X157.666 Y188.743 E14.97944
G1 X156.844 Y189.156 E14.9978
G1 X155.988 Y189.496 E15.01618
G1 X155.106 Y189.76 E15.03456
G1 X154.205 Y189.947 E15.05292
G1 X153.01 Y190.072 E15.0769
G1 X152.674 Y190.088 E15.08361
G1 X152.17 Y190.1 E15.09367
G1 X143.056 Y190.099 E15.27555
G1 X142.356 Y190.089 E15.28952
G1 X141.436 Y190.036 E15.30791
G1 X140.525 Y189.903 E15.32628
G1 X139.99 Y189.787 E15.33721
G1 X138.911 Y189.523 E15.35938
G1 X136.327 Y188.927 E15.4123
G1 X133.838 Y188.425 E15.46297
G1 X131.35 Y188 E15.51334
G1 X128.884 Y187.648 E15.56305
G1 X126.337 Y187.358 E15.6142
G1 X123.852 Y187.145 E15.66398
G1 X121.325 Y187.002 E15.71449
G1 X118.771 Y186.929 E15.76547
G1 X116.254 Y186.928 E15.8157
G1 X113.716 Y186.998 E15.86637
G1 X111.209 Y187.139 E15.91648
G1 X108.694 Y187.353 E15.96685
G1 X106.181 Y187.637 E16.01732
G1 X103.647 Y187.997 E16.0684
G1 X101.167 Y188.421 E16.11861
G1 X98.711 Y188.912 E16.16859
G1 X96.222 Y189.485 E16.21956
G1 X95.184 Y189.747 E16.24092
G1 X94.282 Y189.934 E16.25931
G1 X93.348 Y190.043 E16.27807
G1 X92.931 Y190.073 E16.28641
G1 X92.17 Y190.1 E16.30161
G1 X83.056 Y190.099 E16.48349
G1 X82.355 Y190.089 E16.49748
G1 X81.436 Y190.036 E16.51585
G1 X80.525 Y189.903 E16.53422
G1 X79.629 Y189.692 E16.55259
G1 X78.754 Y189.404 E16.57098
G1 X77.908 Y189.041 E16.58935
G1 X77.097 Y188.606 E16.60771
G1 X76.518 Y188.237 E16.62141
G1 X76.35 Y188.122 E16.62548
G1 X74.208 Y186.674 E16.67707
G1 X72.048 Y185.303 E16.72813
G1 X69.89 Y184.017 E16.77826
G1 X67.666 Y182.776 E16.82909
G1 X65.427 Y181.608 E16.87948
G1 X63.157 Y180.504 E16.92986
G1 X60.806 Y179.443 E16.98133
G1 X60.326 Y179.234 E16.99178
G1 X59.538 Y178.852 E17.00925
G1 X58.706 Y178.36 E17.02854
G1 X57.958 Y177.823 E17.04692
G1 X57.259 Y177.223 E17.0653
G1 X56.616 Y176.565 E17.08366
G1 X56.032 Y175.853 E17.10204
G1 X55.511 Y175.094 E17.12041
G1 X55.059 Y174.292 E17.13878
G1 X54.678 Y173.454 E17.15715
G1 X54.371 Y172.586 E17.17552
G1 X54.141 Y171.694 E17.19391
G1 X53.989 Y170.786 E17.21228
G1 X53.913 Y169.788 E17.23225
G1 X53.9 Y169.17 E17.24459
G1 X53.9 Y70.174 E19.22016
G1 X53.91 Y69.366 E19.23629
G1 X53.962 Y68.446 E19.25468
G1 X54.094 Y67.535 E19.27305
G1 X54.305 Y66.639 E19.29142
G1 X54.592 Y65.764 E19.30979
G1 X54.955 Y64.918 E19.32816
G1 X55.389 Y64.106 E19.34654
G1 X55.892 Y63.335 E19.36491
G1 X56.461 Y62.611 E19.38328
G1 X57.089 Y61.939 E19.40164
G0 F6000 X57.481 Y62.117
G1 F1200 X58.162 Y61.524 E19.41966
G1 X58.894 Y60.994 E19.43769
G1 X59.669 Y60.531 E19.45571
G1 X60.482 Y60.138 E19.47373
G1 X61.327 Y59.818 E19.49176
G1 X62.196 Y59.575 E19.50977
G1 X63.084 Y59.409 E19.5278
G1 X64.223 Y59.313 E19.55061
G1 X64.83 Y59.3 E19.56272
G1 X73.939 Y59.301 E19.7445
G1 X74.636 Y59.311 E19.75842
G1 X75.765 Y59.39 E19.781
G1 X76.866 Y59.529 E19.80315
G1 X79.469 Y59.824 E19.85542
G1 X82.019 Y60.04 E19.9065
G1 X84.56 Y60.184 E19.95728
G1 X87.086 Y60.255 E20.00771
G1 X89.621 Y60.255 E20.0583
G1 X92.16 Y60.182 E20.10899
G1 X94.72 Y60.037 E20.16016
G1 X97.244 Y59.822 E20.21071
G1 X99.737 Y59.538 E20.26079
G1 X102.28 Y59.176 E20.31205
G1 X104.752 Y58.752 E20.3621
G1 X107.217 Y58.257 E20.41227
G1 X108.901 Y57.859 E20.4468
G1 X110.277 Y57.554 E20.47493
G1 X111.166 Y57.397 E20.49294
G1 X112.13 Y57.318 E20.51225
G1 X112.476 Y57.306 E20.51916
G1 X112.83 Y57.3 E20.52622
G1 X121.939 Y57.301 E20.708
G1 X122.637 Y57.311 E20.72193
G1 X123.539 Y57.364 E20.73996
G1 X124.861 Y57.589 E20.76672
G1 X125.12 Y57.651 E20.77204
G1 X127.739 Y58.254 E20.82567
G1 X130.25 Y58.761 E20.87679
G1 X132.738 Y59.186 E20.92716
G1 X135.262 Y59.545 E20.97804
G1 X137.755 Y59.829 E21.02811
G1 X140.279 Y60.044 E21.07866
G1 X142.839 Y60.189 E21.12983
G1 X145.378 Y60.262 E21.18052
G1 X147.912 Y60.262 E21.23109
G1 X150.439 Y60.191 E21.28154
G1 X152.98 Y60.047 E21.33233
G1 X155.53 Y59.831 E21.3834
G1 X158.068 Y59.543 E21.43437
G1 X158.999 Y59.417 E21.45312
G1 X159.817 Y59.34 E21.46952
G1 X160.279 Y59.315 E21.47875
G1 X160.83 Y59.3 E21.48975
G1 X169.925 Y59.301 E21.67125
G1 X170.623 Y59.31 E21.68518
G1 X171.524 Y59.361 E21.70319
G1 X172.418 Y59.493 E21.72122
G1 X173.296 Y59.702 E21.73924
G1 X174.153 Y59.989 E21.75727
G1 X174.98 Y60.35 E21.77528
G1 X175.773 Y60.783 E21.79331
G1 X176.524 Y61.284 E21.81133
G1 X177.228 Y61.85 E21.82935
G1 X177.879 Y62.476 E21.84738
G1 X178.472 Y63.157 E21.8654
G1 X179.002 Y63.888 E21.88341
G1 X179.466 Y64.663 E21.90144
G1 X179.86 Y65.476 E21.91947
G1 X180.18 Y66.32 E21.93748
G1 X180.424 Y67.19 E21.95551
G1 X180.59 Y68.078 E21.97354
G1 X180.687 Y69.223 E21.99647
G1 X180.7 Y69.83 E22.00859
G1 X180.7 Y168.764 E23.98292
G1 X180.689 Y169.631 E24.00023
G1 X180.637 Y170.533 E24.01826
G1 X180.505 Y171.426 E24.03627
G1 X180.294 Y172.305 E24.05431
G1 X180.007 Y173.161 E24.07233
G1 X179.645 Y173.988 E24.09034
G1 X179.211 Y174.78 E24.10837
G1 X178.709 Y175.531 E24.12639
G1 X178.143 Y176.234 E24.14441
G1 X177.516 Y176.885 E24.16244
G1 X176.835 Y177.477 E24.18045
G1 X176.104 Y178.007 E24.19847
G1 X175.328 Y178.47 E24.2165
G1 X174.724 Y178.771 E24.22997
G1 X173.889 Y179.15 E24.24827
G1 X172.785 Y179.631 E24.2723
G1 X170.508 Y180.702 E24.32252
G1 X168.184 Y181.874 E24.37446
G1 X165.994 Y183.06 E24.42416
G1 X163.805 Y184.325 E24.47461
G1 X161.616 Y185.675 E24.52593
G1 X159.289 Y187.209 E24.58155
G1 X158.226 Y187.929 E24.60718
G1 X157.457 Y188.402 E24.62519
G1 X156.648 Y188.805 E24.64323
G1 X155.808 Y189.135 E24.66124
G1 X154.941 Y189.389 E24.67927
G1 X154.056 Y189.566 E24.69728
G1 X152.991 Y189.672 E24.71864
G1 X152.655 Y189.688 E24.72535
G1 X152.17 Y189.7 E24.73503
G1 X143.061 Y189.699 E24.91681
G1 X142.361 Y189.689 E24.93078
G1 X141.46 Y189.636 E24.9488
G1 X140.566 Y189.504 E24.96683
G1 X140.085 Y189.398 E24.97666
G1 X139.009 Y189.135 E24.99876
G1 X136.425 Y188.539 E25.05168
G1 X133.913 Y188.032 E25.10282
G1 X131.403 Y187.604 E25.15364
G1 X128.919 Y187.249 E25.20371
G1 X126.415 Y186.964 E25.254
G1 X123.873 Y186.746 E25.30492
G1 X121.324 Y186.602 E25.35587
G1 X118.783 Y186.529 E25.4066
G1 X116.243 Y186.528 E25.45729
G1 X113.717 Y186.598 E25.50771
G1 X111.188 Y186.74 E25.55826
G1 X108.616 Y186.958 E25.60977
G1 X106.112 Y187.242 E25.66006
G1 X103.628 Y187.595 E25.71013
G1 X101.099 Y188.027 E25.76133
G1 X98.649 Y188.517 E25.81119
G1 X96.077 Y189.109 E25.86386
G1 X95.086 Y189.359 E25.88426
G1 X94.201 Y189.541 E25.90229
G1 X93.319 Y189.644 E25.92001
G1 X92.902 Y189.674 E25.92835
G1 X92.17 Y189.7 E25.94297
G1 X83.062 Y189.699 E26.12473
G1 X82.361 Y189.689 E26.13872
G1 X81.459 Y189.636 E26.15675
G1 X80.566 Y189.504 E26.17477
G1 X79.687 Y189.293 E26.19281
G1 X78.831 Y189.005 E26.21083
G1 X78.004 Y188.643 E26.22885
G1 X77.212 Y188.209 E26.24687
G1 X76.744 Y187.907 E26.25798
G1 X76.576 Y187.792 E26.26205
G1 X74.383 Y186.311 E26.31485
G1 X72.262 Y184.964 E26.365
G1 X70.084 Y183.666 E26.41559
G1 X67.867 Y182.43 E26.46625
G1 X65.608 Y181.251 E26.5171
G1 X63.331 Y180.144 E26.56762
G1 X60.973 Y179.079 E26.61926
G1 X60.485 Y178.867 E26.62988
G1 X59.727 Y178.5 E26.64668
G1 X58.91 Y178.016 E26.66563
G1 X58.178 Y177.487 E26.68366
