;FLAVOR:Marlin
;TIME:14873
;Filament used: 8.37563m
;Layer height: 0.16
;MINX:63.5
;MINY:31.5
;MINZ:0.2
;MAXX:153.5
;MAXY:209.5
;MAXZ:3.6
;Generated with Cura_SteamEngine master
M140 S60
M105
M190 S60
M104 S200
M105
M109 S200
M82 ;absolute extrusion mode
; Ender 3 Custom Start G-code
G92 E0 ; Reset Extruder
G28 ; Home all axes
G1 Z2.0 F3000 ; Move Z Axis up little to prevent scratching of Heat Bed
G1 X0.1 Y20 Z0.3 F5000.0 ; Move to start position
G1 X0.1 Y200.0 Z0.3 F1500.0 E15 ; Draw the first line
G1 X0.4 Y200.0 Z0.3 F5000.0 ; Move to side a little
G1 X0.4 Y20 Z0.3 F1500.0 E30 ; Draw the second line
G92 E0 ; Reset Extruder
G1 Z2.0 F3000 ; Move Z Axis up little to prevent scratching of Heat Bed
G1 X5 Y20 Z0.3 F5000.0 ; Move over to prevent blob squish
G92 E0
G92 E0
G1 F1500 E-6.5
;LAYER_COUNT:24
;LAYER:0
M107
G0 F6000 X64.998 Y36.984 Z0.2
;TYPE:SKIRT
G1 F1500 E0
G1 F1200 X65.503 Y36.194 E0.03119
G1 X66.074 Y35.45 E0.06238
G1 X66.706 Y34.757 E0.09357
G1 X67.395 Y34.12 E0.12478
G1 X68.135 Y33.544 E0.15597
G1 X68.922 Y33.034 E0.18716
G1 X69.75 Y32.592 E0.21838
G1 X70.612 Y32.223 E0.24957
G1 X71.502 Y31.928 E0.28075
G1 X72.414 Y31.71 E0.31194
G1 X73.342 Y31.571 E0.34315
G1 X74.201 Y31.513 E0.37179
G1 X74.83 Y31.5 E0.39271
G1 X87.951 Y31.501 E0.82912
G1 X88.649 Y31.511 E0.85234
G1 X89.567 Y31.563 E0.88292
G1 X90.627 Y31.667 E0.91834
G1 X93.263 Y31.891 E1.00633
G1 X95.779 Y32.032 E1.09015
G1 X98.305 Y32.103 E1.17419
G1 X100.829 Y32.103 E1.25814
G1 X103.314 Y32.032 E1.34083
G1 X105.847 Y31.887 E1.42521
G1 X108.367 Y31.673 E1.50933
G1 X109.208 Y31.583 E1.53746
G1 X109.868 Y31.533 E1.55948
G1 X110.323 Y31.512 E1.57463
G1 X110.83 Y31.5 E1.59149
G1 X123.951 Y31.501 E2.0279
G1 X124.649 Y31.511 E2.05112
G1 X125.585 Y31.565 E2.0823
G1 X126.513 Y31.697 E2.11348
G1 X127.427 Y31.909 E2.14468
G1 X128.319 Y32.198 E2.17587
G1 X128.84 Y32.406 E2.19453
G1 X129.378 Y32.638 E2.21402
G1 X131.723 Y33.618 E2.29855
G1 X134.133 Y34.55 E2.38449
G1 X136.474 Y35.374 E2.46703
G1 X138.858 Y36.141 E2.55033
G1 X141.308 Y36.855 E2.63521
G1 X143.802 Y37.504 E2.72092
G1 X145.12 Y37.829 E2.76607
G1 X146.021 Y38.092 E2.79729
G1 X146.895 Y38.43 E2.82846
G1 X147.738 Y38.842 E2.85966
G1 X148.542 Y39.324 E2.89084
G1 X149.303 Y39.873 E2.92205
G1 X150.014 Y40.485 E2.95325
G1 X150.67 Y41.155 E2.98444
G1 X151.267 Y41.878 E3.01563
G1 X151.8 Y42.65 E3.04683
G1 X152.265 Y43.464 E3.07801
G1 X152.66 Y44.315 E3.10921
G1 X152.98 Y45.197 E3.14042
G1 X153.224 Y46.102 E3.17159
G1 X153.39 Y47.025 E3.20279
G1 X153.487 Y48.201 E3.24203
G1 X153.5 Y48.83 E3.26296
G1 X153.5 Y197.764 E8.21652
G1 X153.49 Y198.627 E8.24523
G1 X153.439 Y199.564 E8.27644
G1 X153.307 Y200.492 E8.30762
G1 X153.098 Y201.406 E8.3388
G1 X152.811 Y202.299 E8.37
G1 X152.449 Y203.165 E8.40122
G1 X152.015 Y203.996 E8.4324
G1 X151.511 Y204.787 E8.46359
G1 X150.942 Y205.532 E8.49477
G1 X150.311 Y206.227 E8.52599
G1 X149.624 Y206.865 E8.55718
G1 X148.885 Y207.442 E8.58836
G1 X148.099 Y207.954 E8.61956
G1 X147.273 Y208.397 E8.65074
G1 X146.411 Y208.769 E8.68196
G1 X145.522 Y209.065 E8.71313
G1 X144.61 Y209.285 E8.74433
G1 X143.683 Y209.426 E8.77552
G1 X142.799 Y209.487 E8.80499
G1 X142.17 Y209.5 E8.82591
G1 X129.049 Y209.499 E9.26232
G1 X128.352 Y209.489 E9.2855
G1 X127.435 Y209.437 E9.31605
G1 X126.381 Y209.333 E9.35128
G1 X123.737 Y209.109 E9.43953
G1 X121.221 Y208.968 E9.52335
G1 X118.695 Y208.897 E9.6074
G1 X116.171 Y208.897 E9.69134
G1 X113.686 Y208.968 E9.77403
G1 X111.153 Y209.113 E9.85842
G1 X108.633 Y209.327 E9.94253
G1 X107.792 Y209.417 E9.97066
G1 X107.132 Y209.467 E9.99268
G1 X106.677 Y209.488 E10.00783
G1 X106.17 Y209.5 E10.0247
G1 X93.05 Y209.499 E10.46107
G1 X92.351 Y209.489 E10.48432
G1 X91.414 Y209.435 E10.51554
G1 X90.486 Y209.303 E10.54671
G1 X89.572 Y209.091 E10.57792
G1 X88.68 Y208.802 E10.60911
G1 X88.153 Y208.591 E10.62799
G1 X87.653 Y208.375 E10.6461
G1 X85.277 Y207.382 E10.73175
G1 X82.867 Y206.45 E10.81769
G1 X80.526 Y205.626 E10.90024
G1 X78.142 Y204.859 E10.98353
G1 X75.692 Y204.145 E11.06841
G1 X73.198 Y203.496 E11.15412
G1 X71.88 Y203.171 E11.19927
G1 X70.979 Y202.908 E11.23049
G1 X70.105 Y202.57 E11.26166
G1 X69.262 Y202.158 E11.29287
G1 X68.458 Y201.676 E11.32405
G1 X67.697 Y201.127 E11.35526
G1 X66.986 Y200.515 E11.38646
G1 X66.33 Y199.845 E11.41764
G1 X65.733 Y199.122 E11.44883
G1 X65.2 Y198.35 E11.48003
G1 X64.735 Y197.536 E11.51121
G1 X64.34 Y196.685 E11.54242
G1 X64.02 Y195.803 E11.57362
G1 X63.776 Y194.898 E11.6048
G1 X63.61 Y193.975 E11.63599
G1 X63.513 Y192.785 E11.6757
G1 X63.5 Y192.155 E11.69666
G1 X63.5 Y43.198 E16.65099
G1 X63.501 Y43.038 E16.65631
G1 X63.511 Y42.349 E16.67923
G1 X63.565 Y41.413 E16.71041
G1 X63.698 Y40.485 E16.74159
G1 X63.91 Y39.571 E16.7728
G1 X64.198 Y38.679 E16.80398
G1 X64.562 Y37.814 E16.83519
G1 X64.998 Y36.984 E16.86637
G0 F6000 X65.395 Y37.097
G1 F1200 X65.899 Y36.327 E16.89698
G1 X66.468 Y35.603 E16.92761
G1 X67.098 Y34.931 E16.95825
G1 X67.783 Y34.317 E16.98884
G1 X68.52 Y33.764 E17.01949
G1 X69.301 Y33.277 E17.0501
G1 X70.122 Y32.86 E17.08073
G1 X70.976 Y32.516 E17.11135
G1 X71.856 Y32.247 E17.14196
G1 X72.757 Y32.055 E17.1726
G1 X73.67 Y31.942 E17.20319
G1 X74.212 Y31.913 E17.22125
G1 X74.83 Y31.9 E17.24181
G1 X87.945 Y31.901 E17.67801
G1 X88.643 Y31.911 E17.70123
G1 X89.528 Y31.961 E17.73071
G1 X90.631 Y32.069 E17.76757
G1 X93.241 Y32.291 E17.8547
G1 X95.746 Y32.432 E17.93814
G1 X98.294 Y32.503 E18.02292
G1 X100.805 Y32.503 E18.10644
G1 X103.349 Y32.43 E18.19109
G1 X105.864 Y32.287 E18.27487
G1 X108.445 Y32.067 E18.36103
G1 X109.25 Y31.981 E18.38796
G1 X109.886 Y31.932 E18.40917
G1 X110.341 Y31.911 E18.42432
G1 X110.83 Y31.9 E18.44059
G1 X123.945 Y31.901 E18.8768
G1 X124.643 Y31.911 E18.90001
G1 X125.562 Y31.964 E18.93063
G1 X126.473 Y32.097 E18.96125
G1 X127.369 Y32.308 E18.99187
G1 X128.243 Y32.596 E19.02248
G1 X128.682 Y32.774 E19.03823
G1 X129.2 Y32.997 E19.05699
G1 X131.604 Y34.002 E19.14365
G1 X133.952 Y34.91 E19.22738
G1 X136.367 Y35.76 E19.31254
G1 X138.719 Y36.517 E19.39472
G1 X141.21 Y37.242 E19.481
G1 X143.668 Y37.883 E19.56549
G1 X145.025 Y38.217 E19.61197
G1 X145.908 Y38.476 E19.64258
G1 X146.766 Y38.81 E19.6732
G1 X147.592 Y39.218 E19.70384
G1 X148.379 Y39.696 E19.73447
G1 X149.121 Y40.24 E19.76507
G1 X149.814 Y40.846 E19.79569
G1 X150.451 Y41.511 E19.82632
G1 X151.029 Y42.228 E19.85695
G1 X151.542 Y42.992 E19.88756
G1 X151.986 Y43.798 E19.91816
G1 X152.359 Y44.64 E19.94879
G1 X152.658 Y45.511 E19.97942
G1 X152.88 Y46.404 E20.01003
G1 X153.023 Y47.314 E20.04067
G1 X153.087 Y48.212 E20.07061
G1 X153.1 Y48.83 E20.09117
G1 X153.1 Y197.764 E25.04473
G1 X153.09 Y198.622 E25.07327
G1 X153.039 Y199.541 E25.10389
G1 X152.908 Y200.453 E25.13453
G1 X152.698 Y201.349 E25.16514
G1 X152.412 Y202.224 E25.19576
G1 X152.051 Y203.071 E25.22638
G1 X151.617 Y203.883 E25.257
G1 X151.115 Y204.655 E25.28763
G1 X150.547 Y205.38 E25.31826
G1 X149.919 Y206.053 E25.34888
G1 X149.235 Y206.669 E25.37949
G1 X148.5 Y207.223 E25.41011
G1 X147.72 Y207.712 E25.44073
G1 X146.9 Y208.131 E25.47135
G1 X146.047 Y208.477 E25.50197
G1 X145.167 Y208.748 E25.5326
G1 X144.267 Y208.941 E25.56321
G1 X143.353 Y209.056 E25.59385
G1 X142.788 Y209.087 E25.61267
G1 X142.17 Y209.1 E25.63323
G1 X129.055 Y209.099 E26.06944
G1 X128.358 Y209.089 E26.09262
G1 X127.474 Y209.039 E26.12207
G1 X126.377 Y208.931 E26.15873
G1 X123.759 Y208.709 E26.24612
G1 X121.254 Y208.568 E26.32957
G1 X118.706 Y208.497 E26.41435
G1 X116.195 Y208.497 E26.49786
G1 X113.651 Y208.57 E26.58251
G1 X111.136 Y208.713 E26.6663
G1 X108.555 Y208.933 E26.75245
G1 X107.75 Y209.019 E26.77938
G1 X107.114 Y209.068 E26.8006
G1 X106.659 Y209.089 E26.81575
G1 X106.17 Y209.1 E26.83201
G1 X93.055 Y209.099 E27.26822
G1 X92.356 Y209.089 E27.29147
G1 X91.437 Y209.036 E27.32209
G1 X90.526 Y208.903 E27.35271
G1 X89.63 Y208.692 E27.38333
G1 X88.756 Y208.404 E27.41393
G1 X88.311 Y208.224 E27.4299
G1 X87.766 Y207.989 E27.44964
G1 X85.396 Y206.998 E27.53508
G1 X83.048 Y206.09 E27.61881
G1 X80.633 Y205.24 E27.70396
G1 X78.281 Y204.483 E27.78614
G1 X75.79 Y203.758 E27.87243
G1 X73.332 Y203.117 E27.95692
G1 X71.975 Y202.783 E28.0034
G1 X71.092 Y202.524 E28.03401
G1 X70.234 Y202.19 E28.06463
G1 X69.408 Y201.782 E28.09527
G1 X68.621 Y201.304 E28.1259
G1 X67.879 Y200.76 E28.1565
G1 X67.186 Y200.154 E28.18712
G1 X66.549 Y199.489 E28.21775
G1 X65.971 Y198.772 E28.24838
G1 X65.458 Y198.008 E28.27898
G1 X65.014 Y197.202 E28.30959
G1 X64.641 Y196.36 E28.34022
G1 X64.342 Y195.489 E28.37085
G1 X64.12 Y194.596 E28.40145
G1 X63.977 Y193.686 E28.43209
G1 X63.913 Y192.775 E28.46247
G1 X63.9 Y192.155 E28.48309
G1 X63.9 Y43.198 E33.43742
G1 X63.901 Y43.044 E33.44255
G1 X63.911 Y42.355 E33.46546
G1 X63.964 Y41.436 E33.49608
G1 X64.097 Y40.525 E33.5267
G1 X64.309 Y39.629 E33.55733
G1 X64.597 Y38.755 E33.58793
G1 X64.96 Y37.909 E33.61855
G1 X65.395 Y37.097 E33.64919
G0 F6000 X65.793 Y37.213
G1 F1200 X66.295 Y36.463 E33.67921
G1 X66.862 Y35.76 E33.70925
G1 X67.489 Y35.11 E33.73928
G1 X68.171 Y34.518 E33.76932
G1 X68.903 Y33.988 E33.79938
G1 X69.679 Y33.526 E33.82942
G1 X70.492 Y33.134 E33.85944
G1 X71.337 Y32.815 E33.88948
G1 X72.207 Y32.572 E33.91952
G1 X73.095 Y32.408 E33.94956
G1 X74.223 Y32.313 E33.98721
G1 X74.83 Y32.3 E34.0074
G1 X87.939 Y32.301 E34.44341
G1 X88.637 Y32.311 E34.46663
G1 X89.489 Y32.359 E34.49501
G1 X90.56 Y32.464 E34.5308
G1 X93.22 Y32.69 E34.61959
G1 X95.747 Y32.832 E34.70377
G1 X98.283 Y32.903 E34.78815
G1 X100.817 Y32.903 E34.87243
G1 X103.381 Y32.83 E34.95775
G1 X105.887 Y32.687 E35.04123
G1 X108.477 Y32.466 E35.12769
G1 X109.293 Y32.379 E35.15498
G1 X109.905 Y32.332 E35.1754
G1 X110.36 Y32.311 E35.19055
G1 X110.83 Y32.3 E35.20619
G1 X123.939 Y32.301 E35.64219
G1 X124.637 Y32.311 E35.66541
G1 X125.539 Y32.364 E35.69546
G1 X126.432 Y32.496 E35.72549
G1 X127.31 Y32.707 E35.75552
G1 X128.523 Y33.141 E35.79837
G1 X129.033 Y33.361 E35.81684
G1 X131.454 Y34.373 E35.90412
G1 X133.841 Y35.296 E35.98924
G1 X136.183 Y36.12 E36.07181
G1 X138.632 Y36.909 E36.15739
G1 X141.102 Y37.628 E36.24295
G1 X143.62 Y38.284 E36.3295
G1 X144.929 Y38.606 E36.37433
G1 X145.796 Y38.86 E36.40438
G1 X146.636 Y39.19 E36.4344
G1 X147.444 Y39.594 E36.46445
G1 X148.214 Y40.067 E36.4945
G1 X148.938 Y40.606 E36.52452
G1 X149.612 Y41.207 E36.55456
G1 X150.23 Y41.866 E36.58461
G1 X150.787 Y42.576 E36.61462
G1 X151.28 Y43.333 E36.64467
G1 X151.703 Y44.131 E36.67471
G1 X152.054 Y44.963 E36.70474
G1 X152.331 Y45.823 E36.73479
G1 X152.53 Y46.704 E36.76483
G1 X152.65 Y47.599 E36.79487
G1 X152.687 Y48.223 E36.81566
G1 X152.7 Y48.83 E36.83585
G1 X152.7 Y197.764 E41.78942
G1 X152.69 Y198.617 E41.81779
G1 X152.639 Y199.519 E41.84784
G1 X152.508 Y200.413 E41.87789
G1 X152.299 Y201.291 E41.90791
G1 X152.013 Y202.148 E41.93796
G1 X151.652 Y202.976 E41.968
G1 X151.22 Y203.768 E41.99801
G1 X150.719 Y204.52 E42.02806
G1 X150.153 Y205.224 E42.0581
G1 X149.528 Y205.875 E42.08812
G1 X148.847 Y206.469 E42.11818
G1 X148.116 Y207 E42.14823
G1 X147.342 Y207.464 E42.17824
G1 X146.529 Y207.858 E42.20829
G1 X145.685 Y208.178 E42.23831
G1 X144.815 Y208.423 E42.26837
G1 X143.928 Y208.589 E42.29839
G1 X142.777 Y208.687 E42.33681
G1 X142.17 Y208.7 E42.357
G1 X129.061 Y208.699 E42.79301
G1 X128.364 Y208.689 E42.81619
G1 X127.513 Y208.641 E42.84454
G1 X126.448 Y208.536 E42.88014
G1 X123.78 Y208.31 E42.96919
G1 X121.253 Y208.168 E43.05337
G1 X118.717 Y208.097 E43.13775
G1 X116.183 Y208.097 E43.22204
G1 X113.619 Y208.17 E43.30735
G1 X111.113 Y208.313 E43.39083
G1 X108.523 Y208.534 E43.47729
G1 X107.707 Y208.621 E43.50459
G1 X107.095 Y208.668 E43.525
G1 X106.64 Y208.689 E43.54015
G1 X106.17 Y208.7 E43.55579
G1 X93.061 Y208.699 E43.99179
G1 X92.362 Y208.689 E44.01504
G1 X91.461 Y208.636 E44.04506
G1 X90.567 Y208.504 E44.07512
G1 X89.689 Y208.293 E44.10515
G1 X88.469 Y207.856 E44.14826
G1 X87.963 Y207.638 E44.16658
G1 X85.546 Y206.627 E44.25372
G1 X83.159 Y205.704 E44.33884
G1 X80.817 Y204.88 E44.42142
G1 X78.368 Y204.091 E44.50699
G1 X75.898 Y203.372 E44.59256
G1 X73.38 Y202.716 E44.6791
G1 X72.071 Y202.394 E44.72394
G1 X71.204 Y202.14 E44.75399
G1 X70.364 Y201.81 E44.784
G1 X69.556 Y201.406 E44.81405
G1 X68.786 Y200.933 E44.84411
G1 X68.062 Y200.394 E44.87413
G1 X67.388 Y199.793 E44.90416
G1 X66.77 Y199.134 E44.93421
G1 X66.213 Y198.424 E44.96422
G1 X65.72 Y197.667 E44.99427
G1 X65.297 Y196.869 E45.02431
G1 X64.946 Y196.037 E45.05434
G1 X64.669 Y195.177 E45.0844
G1 X64.47 Y194.296 E45.11444
G1 X64.35 Y193.401 E45.14447
G1 X64.313 Y192.764 E45.16569
G1 X64.3 Y192.155 E45.18595
G1 X64.3 Y43.198 E50.14028
G1 X64.301 Y43.05 E50.14521
G1 X64.311 Y42.361 E50.16812
G1 X64.364 Y41.459 E50.19818
G1 X64.497 Y40.566 E50.2282
G1 X64.708 Y39.688 E50.25824
G1 X64.996 Y38.832 E50.28828
G1 X65.358 Y38.005 E50.3183
G1 X65.793 Y37.213 E50.34836
G1 F1500 E43.84836
;MESH:4.5x100.stl
G0 F6000 X73.835 Y43.71
G0 X75.71 Y43.71
G0 X87.318 Y43.682
G0 X87.5 Y191.5
;TYPE:WALL-INNER
G1 F1500 E50.34836
G1 F1200 X75.5 Y191.5 E50.74748
G1 X75.5 Y43.5 E55.66998
G1 X87.5 Y43.5 E56.0691
G1 X87.5 Y191.5 E60.9916
G0 F6000 X87.9 Y191.9
G1 F1200 X75.1 Y191.9 E61.41733
G1 X75.1 Y43.1 E66.36644
G1 X87.9 Y43.1 E66.79217
G1 X87.9 Y191.9 E71.74128
G0 F6000 X88.3 Y192.3
;TYPE:WALL-OUTER
G1 F1200 X74.7 Y192.3 E72.19361
G1 X74.7 Y42.7 E77.16933
G1 X88.3 Y42.7 E77.62167
G1 X88.3 Y192.3 E82.59738
G0 F6000 X88.03 Y192.03
G0 X87.39 Y191.11
G0 X87.11 Y191.11
;TYPE:SKIN
G1 F1200 X75.89 Y191.11 E82.97056
G1 X75.89 Y43.89 E87.86712
G1 X87.11 Y43.89 E88.2403
G1 X87.11 Y191.11 E93.13686
G0 F6000 X87.39 Y191.11
G0 X87.326 Y191.297
G0 X76.115 Y191.39
G0 X76.115 Y190.949
G1 F1200 X76.049 Y190.883 E93.13996
G0 F6000 X76.049 Y190.317
G1 F1200 X76.68 Y190.949 E93.16966
G0 F6000 X77.246 Y190.949
G1 F1200 X76.049 Y189.752 E93.22597
G0 F6000 X76.049 Y189.186
G1 F1200 X77.812 Y190.949 E93.30889
G0 F6000 X78.377 Y190.949
G1 F1200 X76.049 Y188.62 E93.41842
G0 F6000 X76.049 Y188.055
G1 F1200 X78.943 Y190.949 E93.55454
G0 F6000 X79.509 Y190.949
G1 F1200 X76.049 Y187.489 E93.71729
G0 F6000 X76.049 Y186.923
G1 F1200 X80.074 Y190.949 E93.90664
G0 F6000 X80.64 Y190.949
G1 F1200 X76.049 Y186.357 E94.12261
G0 F6000 X76.049 Y185.792
G1 F1200 X81.206 Y190.949 E94.36518
G0 F6000 X81.771 Y190.949
G1 F1200 X76.049 Y185.226 E94.63435
G0 F6000 X76.049 Y184.66
G1 F1200 X82.337 Y190.949 E94.93014
G0 F6000 X82.903 Y190.949
G1 F1200 X76.049 Y184.095 E95.25253
G0 F6000 X76.049 Y183.529
G1 F1200 X83.469 Y190.949 E95.60154
G0 F6000 X84.034 Y190.949
G1 F1200 X76.049 Y182.963 E95.97716
G0 F6000 X76.049 Y182.398
G1 F1200 X84.6 Y190.949 E96.37937
G0 F6000 X85.166 Y190.949
G1 F1200 X76.049 Y181.832 E96.80821
G0 F6000 X76.049 Y181.266
G1 F1200 X85.731 Y190.949 E97.26364
G0 F6000 X86.297 Y190.949
G1 F1200 X76.049 Y180.701 E97.74568
G0 F6000 X76.049 Y180.135
G1 F1200 X86.863 Y190.949 E98.25433
G0 F6000 X86.949 Y190.469
G1 F1200 X76.049 Y179.569 E98.76704
G0 F6000 X76.049 Y179.004
G1 F1200 X86.949 Y189.904 E99.27974
G0 F6000 X86.949 Y189.338
G1 F1200 X76.049 Y178.438 E99.79244
G0 F6000 X76.049 Y177.872
G1 F1200 X86.949 Y188.772 E100.30514
G0 F6000 X86.949 Y188.207
G1 F1200 X76.049 Y177.307 E100.81785
G0 F6000 X76.049 Y176.741
G1 F1200 X86.949 Y187.641 E101.33055
G0 F6000 X86.949 Y187.075
G1 F1200 X76.049 Y176.175 E101.84325
G0 F6000 X76.049 Y175.609
G1 F1200 X86.949 Y186.51 E102.35598
G0 F6000 X86.949 Y185.944
G1 F1200 X76.049 Y175.044 E102.86868
G0 F6000 X76.049 Y174.478
G1 F1200 X86.949 Y185.378 E103.38138
G0 F6000 X86.949 Y184.812
G1 F1200 X76.049 Y173.912 E103.89409
G0 F6000 X76.049 Y173.347
G1 F1200 X86.949 Y184.247 E104.40679
G0 F6000 X86.949 Y183.681
G1 F1200 X76.049 Y172.781 E104.91949
G0 F6000 X76.049 Y172.215
G1 F1200 X86.949 Y183.115 E105.43219
G0 F6000 X86.949 Y182.55
G1 F1200 X76.049 Y171.65 E105.9449
G0 F6000 X76.049 Y171.084
G1 F1200 X86.949 Y181.984 E106.4576
G0 F6000 X86.949 Y181.418
G1 F1200 X76.049 Y170.518 E106.9703
G0 F6000 X76.049 Y169.953
G1 F1200 X86.949 Y180.853 E107.483
G0 F6000 X86.949 Y180.287
G1 F1200 X76.049 Y169.387 E107.99571
G0 F6000 X76.049 Y168.821
G1 F1200 X86.949 Y179.721 E108.50841
G0 F6000 X86.949 Y179.156
