;FLAVOR:Marlin
;TIME:16389
;Filament used: 6.99067m
;Layer height: 0.12
;MINX:81.5
;MINY:31.5
;MINZ:0.12
;MAXX:153.5
;MAXY:209.5
;MAXZ:4.2
;Generated with Cura_SteamEngine master
M140 S60
M105
M190 S60
M104 S200
M105
M109 S200
M82 ;absolute extrusion mode
; Ender 3 Custom Start G-code
G92 E0 ; Reset Extruder
G28 ; Home all axes
G1 Z2.0 F3000 ; Move Z Axis up little to prevent scratching of Heat Bed
G1 X0.1 Y20 Z0.3 F5000.0 ; Move to start position
G1 X0.1 Y200.0 Z0.3 F1500.0 E15 ; Draw the first line
G1 X0.4 Y200.0 Z0.3 F5000.0 ; Move to side a little
G1 X0.4 Y20 Z0.3 F1500.0 E30 ; Draw the second line
G92 E0 ; Reset Extruder
G1 Z2.0 F3000 ; Move Z Axis up little to prevent scratching of Heat Bed
G1 X5 Y20 Z0.3 F5000.0 ; Move over to prevent blob squish
G92 E0
G92 E0
G1 F1500 E-6.5
;LAYER_COUNT:35
;LAYER:0
M107
G0 F6000 X82.565 Y43.809 Z0.12
;TYPE:SKIRT
G1 F1500 E0
G1 F1200 X83.001 Y42.979 E0.01871
G1 X83.507 Y42.189 E0.03743
G1 X84.078 Y41.445 E0.05615
G1 X84.71 Y40.752 E0.07486
G1 X85.399 Y40.116 E0.09358
G1 X86.14 Y39.541 E0.11229
G1 X86.927 Y39.031 E0.13101
G1 X87.755 Y38.59 E0.14973
G1 X88.617 Y38.221 E0.16844
G1 X89.877 Y37.829 E0.19478
G1 X92.476 Y37.188 E0.2482
G1 X94.956 Y36.504 E0.29953
G1 X97.343 Y35.77 E0.34937
G1 X99.715 Y34.967 E0.39935
G1 X102.062 Y34.098 E0.44929
G1 X104.431 Y33.144 E0.50026
G1 X105.498 Y32.68 E0.52347
G1 X106.239 Y32.37 E0.5395
G1 X107.119 Y32.045 E0.55822
G1 X108.023 Y31.797 E0.57693
G1 X108.945 Y31.626 E0.59564
G1 X109.913 Y31.533 E0.61505
G1 X110.259 Y31.515 E0.62197
G1 X110.83 Y31.5 E0.63336
G1 X123.951 Y31.501 E0.89521
G1 X124.649 Y31.511 E0.90914
G1 X125.585 Y31.565 E0.92785
G1 X126.513 Y31.697 E0.94655
G1 X127.427 Y31.909 E0.96528
G1 X128.319 Y32.198 E0.98399
G1 X128.84 Y32.406 E0.99519
G1 X129.378 Y32.638 E1.00688
G1 X131.723 Y33.618 E1.0576
G1 X134.133 Y34.55 E1.10916
G1 X136.474 Y35.374 E1.15869
G1 X138.858 Y36.141 E1.20867
G1 X141.308 Y36.855 E1.25959
G1 X143.802 Y37.504 E1.31102
G1 X145.12 Y37.829 E1.33811
G1 X146.021 Y38.092 E1.35684
G1 X146.895 Y38.43 E1.37554
G1 X147.738 Y38.842 E1.39427
G1 X148.542 Y39.324 E1.41297
G1 X149.303 Y39.873 E1.4317
G1 X150.014 Y40.485 E1.45042
G1 X150.67 Y41.155 E1.46913
G1 X151.267 Y41.878 E1.48784
G1 X151.8 Y42.65 E1.50656
G1 X152.265 Y43.464 E1.52527
G1 X152.66 Y44.315 E1.544
G1 X152.98 Y45.197 E1.56272
G1 X153.224 Y46.102 E1.58142
G1 X153.39 Y47.025 E1.60014
G1 X153.487 Y48.2 E1.62367
G1 X153.5 Y48.829 E1.63622
G1 X153.5 Y197.764 E4.60838
G1 X153.49 Y198.627 E4.6256
G1 X153.439 Y199.564 E4.64433
G1 X153.307 Y200.492 E4.66304
G1 X153.098 Y201.406 E4.68175
G1 X152.811 Y202.299 E4.70047
G1 X152.449 Y203.165 E4.7192
G1 X152.015 Y203.996 E4.73791
G1 X151.511 Y204.787 E4.75662
G1 X150.942 Y205.532 E4.77533
G1 X150.311 Y206.227 E4.79406
G1 X149.624 Y206.865 E4.81277
G1 X148.885 Y207.442 E4.83148
G1 X148.099 Y207.954 E4.8502
G1 X147.273 Y208.397 E4.86891
G1 X146.411 Y208.769 E4.88764
G1 X145.522 Y209.065 E4.90634
G1 X144.61 Y209.285 E4.92507
G1 X143.683 Y209.426 E4.94378
G1 X142.799 Y209.487 E4.96146
G1 X142.17 Y209.5 E4.97402
G1 X129.049 Y209.499 E5.23586
G1 X128.352 Y209.489 E5.24977
G1 X127.435 Y209.437 E5.2681
G1 X126.381 Y209.333 E5.28924
G1 X123.737 Y209.109 E5.34219
G1 X121.221 Y208.968 E5.39248
G1 X118.695 Y208.897 E5.44291
G1 X116.171 Y208.897 E5.49327
G1 X113.686 Y208.968 E5.54289
G1 X111.153 Y209.113 E5.59352
G1 X108.633 Y209.327 E5.64399
G1 X107.792 Y209.417 E5.66087
G1 X107.132 Y209.467 E5.67407
G1 X106.677 Y209.488 E5.68316
G1 X106.17 Y209.5 E5.69329
G1 X93.049 Y209.499 E5.95513
G1 X92.351 Y209.489 E5.96906
G1 X91.415 Y209.435 E5.98777
G1 X90.487 Y209.303 E6.00648
G1 X89.573 Y209.091 E6.0252
G1 X88.681 Y208.802 E6.04391
G1 X87.816 Y208.439 E6.06263
G1 X86.986 Y208.003 E6.08134
G1 X86.195 Y207.498 E6.10007
G1 X85.451 Y206.927 E6.11879
G1 X84.758 Y206.295 E6.1375
G1 X84.121 Y205.607 E6.15621
G1 X83.546 Y204.866 E6.17493
G1 X83.035 Y204.08 E6.19364
G1 X82.593 Y203.252 E6.21237
G1 X82.224 Y202.39 E6.23108
G1 X81.929 Y201.5 E6.24979
G1 X81.711 Y200.588 E6.26851
G1 X81.571 Y199.66 E6.28723
G1 X81.513 Y198.788 E6.30467
G1 X81.5 Y198.158 E6.31725
G1 X81.5 Y49.174 E9.29039
G1 X81.501 Y49.009 E9.29368
G1 X81.511 Y48.344 E9.30695
G1 X81.565 Y47.407 E9.32568
G1 X81.699 Y46.479 E9.34439
G1 X81.911 Y45.565 E9.36312
G1 X82.2 Y44.673 E9.38183
G1 X82.565 Y43.809 E9.40055
G0 F6000 X82.963 Y43.904
G1 F1200 X83.398 Y43.093 E9.41891
G1 X83.903 Y42.322 E9.4373
G1 X84.472 Y41.599 E9.45567
G1 X85.102 Y40.927 E9.47405
G1 X85.788 Y40.313 E9.49242
G1 X86.524 Y39.761 E9.51078
G1 X87.306 Y39.274 E9.52916
G1 X88.127 Y38.858 E9.54753
G1 X88.981 Y38.514 E9.5659
G1 X89.972 Y38.217 E9.58655
G1 X92.616 Y37.565 E9.64089
G1 X95.043 Y36.895 E9.69114
G1 X97.473 Y36.148 E9.74187
G1 X99.833 Y35.349 E9.79159
G1 X102.225 Y34.463 E9.8425
G1 X104.562 Y33.523 E9.89277
G1 X105.652 Y33.049 E9.91649
G1 X106.393 Y32.739 E9.93252
G1 X107.257 Y32.421 E9.95089
G1 X108.145 Y32.179 E9.96926
G1 X109.051 Y32.015 E9.98763
G1 X109.933 Y31.932 E10.00531
G1 X110.279 Y31.914 E10.01222
G1 X110.83 Y31.9 E10.02322
G1 X123.945 Y31.901 E10.28495
G1 X124.643 Y31.911 E10.29888
G1 X125.562 Y31.964 E10.31725
G1 X126.473 Y32.097 E10.33562
G1 X127.369 Y32.308 E10.35399
G1 X128.243 Y32.596 E10.37235
G1 X128.682 Y32.774 E10.38181
G1 X129.2 Y32.997 E10.39306
G1 X131.604 Y34.002 E10.44506
G1 X133.952 Y34.91 E10.4953
G1 X136.367 Y35.76 E10.54639
G1 X138.719 Y36.517 E10.5957
G1 X141.21 Y37.242 E10.64747
G1 X143.668 Y37.883 E10.69816
G1 X145.025 Y38.217 E10.72605
G1 X145.908 Y38.476 E10.74442
G1 X146.766 Y38.81 E10.76279
G1 X147.592 Y39.218 E10.78118
G1 X148.379 Y39.696 E10.79955
G1 X149.121 Y40.24 E10.81791
G1 X149.814 Y40.846 E10.83628
G1 X150.451 Y41.511 E10.85466
G1 X151.029 Y42.228 E10.87304
G1 X151.542 Y42.992 E10.8914
G1 X151.986 Y43.798 E10.90977
G1 X152.359 Y44.64 E10.92815
G1 X152.658 Y45.511 E10.94652
G1 X152.88 Y46.404 E10.96489
G1 X153.023 Y47.314 E10.98327
G1 X153.087 Y48.211 E11.00121
G1 X153.1 Y48.829 E11.01355
G1 X153.1 Y197.764 E13.98571
G1 X153.09 Y198.622 E14.00283
G1 X153.039 Y199.541 E14.0212
G1 X152.908 Y200.453 E14.03959
G1 X152.698 Y201.349 E14.05795
G1 X152.412 Y202.224 E14.07632
G1 X152.051 Y203.071 E14.0947
G1 X151.617 Y203.883 E14.11307
G1 X151.115 Y204.655 E14.13145
G1 X150.547 Y205.38 E14.14983
G1 X149.919 Y206.053 E14.1682
G1 X149.235 Y206.669 E14.18657
G1 X148.5 Y207.223 E14.20493
G1 X147.72 Y207.712 E14.22331
G1 X146.9 Y208.131 E14.24168
G1 X146.047 Y208.477 E14.26005
G1 X145.167 Y208.748 E14.27843
G1 X144.267 Y208.941 E14.2968
G1 X143.353 Y209.056 E14.31518
G1 X142.788 Y209.087 E14.32647
G1 X142.17 Y209.1 E14.33881
G1 X129.055 Y209.099 E14.60053
G1 X128.358 Y209.089 E14.61444
G1 X127.474 Y209.039 E14.63211
G1 X126.377 Y208.931 E14.65411
G1 X123.759 Y208.709 E14.70654
G1 X121.254 Y208.568 E14.75661
G1 X118.706 Y208.497 E14.80748
G1 X116.195 Y208.497 E14.85759
G1 X113.651 Y208.57 E14.90838
G1 X111.136 Y208.713 E14.95865
G1 X108.555 Y208.933 E15.01034
G1 X107.75 Y209.019 E15.0265
G1 X107.114 Y209.068 E15.03923
G1 X106.659 Y209.089 E15.04832
G1 X106.17 Y209.1 E15.05808
G1 X93.055 Y209.099 E15.3198
G1 X92.357 Y209.089 E15.33373
G1 X91.438 Y209.036 E15.3521
G1 X90.527 Y208.903 E15.37048
G1 X89.631 Y208.692 E15.38885
G1 X88.757 Y208.404 E15.40721
G1 X87.91 Y208.041 E15.4256
G1 X87.099 Y207.606 E15.44396
G1 X86.329 Y207.102 E15.46233
G1 X85.605 Y206.533 E15.48071
G1 X84.933 Y205.903 E15.49909
G1 X84.318 Y205.218 E15.51746
G1 X83.765 Y204.482 E15.53583
G1 X83.278 Y203.701 E15.5542
G1 X82.861 Y202.88 E15.57257
G1 X82.516 Y202.026 E15.59096
G1 X82.247 Y201.146 E15.60932
G1 X82.055 Y200.245 E15.6277
G1 X81.942 Y199.332 E15.64606
G1 X81.913 Y198.777 E15.65715
G1 X81.9 Y198.158 E15.66951
G1 X81.9 Y49.174 E18.64264
G1 X81.901 Y49.015 E18.64582
G1 X81.911 Y48.35 E18.65909
G1 X81.965 Y47.431 E18.67746
G1 X82.098 Y46.52 E18.69583
G1 X82.31 Y45.624 E18.71421
G1 X82.599 Y44.749 E18.7326
G1 X82.963 Y43.904 E18.75096
G0 F6000 X83.361 Y44
G1 F1200 X83.795 Y43.209 E18.76896
G1 X84.298 Y42.458 E18.787
G1 X84.866 Y41.756 E18.80502
G1 X85.493 Y41.106 E18.82305
G1 X86.175 Y40.514 E18.84107
G1 X86.907 Y39.985 E18.85909
G1 X87.683 Y39.523 E18.87711
G1 X88.497 Y39.132 E18.89513
G1 X89.342 Y38.813 E18.91316
G1 X90.068 Y38.606 E18.92822
G1 X92.704 Y37.956 E18.9824
G1 X95.171 Y37.275 E19.03348
G1 X97.571 Y36.537 E19.08359
G1 X99.964 Y35.727 E19.134
G1 X102.396 Y34.827 E19.18575
G1 X104.705 Y33.897 E19.23543
G1 X105.806 Y33.418 E19.25939
G1 X106.547 Y33.108 E19.27542
G1 X107.395 Y32.797 E19.29344
G1 X108.267 Y32.562 E19.31147
G1 X109.156 Y32.405 E19.32948
G1 X109.954 Y32.332 E19.34547
G1 X110.3 Y32.314 E19.35239
G1 X110.83 Y32.3 E19.36297
G1 X123.939 Y32.301 E19.62457
G1 X124.637 Y32.311 E19.6385
G1 X125.539 Y32.364 E19.65653
G1 X126.432 Y32.496 E19.67455
G1 X127.31 Y32.707 E19.69257
G1 X128.523 Y33.141 E19.71828
G1 X129.033 Y33.361 E19.72936
G1 X131.454 Y34.373 E19.78173
G1 X133.841 Y35.296 E19.8328
G1 X136.183 Y36.12 E19.88234
G1 X138.632 Y36.909 E19.93369
G1 X141.102 Y37.628 E19.98503
G1 X143.62 Y38.284 E20.03695
G1 X144.929 Y38.606 E20.06386
G1 X145.796 Y38.86 E20.08188
G1 X146.636 Y39.19 E20.0999
G1 X147.444 Y39.594 E20.11792
G1 X148.214 Y40.067 E20.13596
G1 X148.938 Y40.606 E20.15397
G1 X149.612 Y41.207 E20.17199
G1 X150.23 Y41.866 E20.19002
G1 X150.787 Y42.576 E20.20803
G1 X151.28 Y43.333 E20.22606
G1 X151.703 Y44.131 E20.24408
G1 X152.054 Y44.963 E20.2621
G1 X152.331 Y45.823 E20.28013
G1 X152.53 Y46.704 E20.29816
G1 X152.65 Y47.599 E20.31618
G1 X152.687 Y48.222 E20.32863
G1 X152.7 Y48.829 E20.34075
G1 X152.7 Y197.764 E23.31291
G1 X152.69 Y198.617 E23.32993
G1 X152.639 Y199.519 E23.34796
G1 X152.508 Y200.413 E23.36599
G1 X152.299 Y201.291 E23.384
G1 X152.013 Y202.148 E23.40203
G1 X151.652 Y202.976 E23.42006
G1 X151.22 Y203.768 E23.43806
G1 X150.719 Y204.52 E23.45609
G1 X150.153 Y205.224 E23.47412
G1 X149.528 Y205.875 E23.49213
G1 X148.847 Y206.469 E23.51016
G1 X148.116 Y207 E23.52819
G1 X147.342 Y207.464 E23.5462
G1 X146.529 Y207.858 E23.56423
G1 X145.685 Y208.178 E23.58224
G1 X144.815 Y208.423 E23.60028
G1 X143.928 Y208.589 E23.61829
G1 X142.777 Y208.687 E23.64134
G1 X142.17 Y208.7 E23.65346
G1 X129.061 Y208.699 E23.91506
G1 X128.364 Y208.689 E23.92897
G1 X127.513 Y208.641 E23.94598
G1 X126.448 Y208.536 E23.96734
G1 X123.78 Y208.31 E24.02077
G1 X121.253 Y208.168 E24.07128
G1 X118.717 Y208.097 E24.12191
G1 X116.183 Y208.097 E24.17248
G1 X113.619 Y208.17 E24.22366
G1 X111.113 Y208.313 E24.27376
G1 X108.523 Y208.534 E24.32563
G1 X107.707 Y208.621 E24.34201
G1 X107.095 Y208.668 E24.35426
G1 X106.64 Y208.689 E24.36335
G1 X106.17 Y208.7 E24.37273
G1 X93.061 Y208.699 E24.63433
G1 X92.363 Y208.689 E24.64826
G1 X91.461 Y208.636 E24.66629
G1 X90.568 Y208.504 E24.68431
G1 X89.69 Y208.293 E24.70233
G1 X88.834 Y208.005 E24.72035
G1 X88.007 Y207.643 E24.73837
G1 X87.215 Y207.208 E24.7564
G1 X86.464 Y206.706 E24.77443
G1 X85.761 Y206.139 E24.79245
G1 X85.111 Y205.512 E24.81047
G1 X84.519 Y204.83 E24.8285
G1 X83.989 Y204.099 E24.84651
G1 X83.527 Y203.323 E24.86454
G1 X83.134 Y202.51 E24.88256
G1 X82.816 Y201.665 E24.90057
G1 X82.573 Y200.795 E24.9186
G1 X82.408 Y199.907 E24.93663
G1 X82.313 Y198.766 E24.95947
G1 X82.3 Y198.158 E24.97161
G1 X82.3 Y49.174 E27.94475
G1 X82.301 Y49.021 E27.9478
G1 X82.311 Y48.356 E27.96107
G1 X82.365 Y47.454 E27.97911
G1 X82.498 Y46.561 E27.99712
G1 X82.709 Y45.683 E28.01514
G1 X82.998 Y44.827 E28.03317
G1 X83.361 Y44 E28.0512
G1 F1500 E21.5512
;MESH:6.5x150.stl
G0 F6000 X91.835 Y49.71
G0 X93.71 Y49.71
G0 X105.318 Y49.682
G0 X105.5 Y197.5
;TYPE:WALL-INNER
G1 F1500 E28.0512
G1 F1200 X93.5 Y197.5 E28.29067
G1 X93.5 Y49.5 E31.24417
G1 X105.5 Y49.5 E31.48364
G1 X105.5 Y197.5 E34.43714
G0 F6000 X105.9 Y197.9
G1 F1200 X93.1 Y197.9 E34.69258
G1 X93.1 Y49.1 E37.66204
G1 X105.9 Y49.1 E37.91748
G1 X105.9 Y197.9 E40.88695
G0 F6000 X106.3 Y198.3
;TYPE:WALL-OUTER
G1 F1200 X92.7 Y198.3 E41.15835
G1 X92.7 Y48.7 E44.14378
G1 X106.3 Y48.7 E44.41518
G1 X106.3 Y198.3 E47.40061
G0 F6000 X106.03 Y198.03
G0 X105.39 Y197.11
G0 X105.11 Y197.11
;TYPE:SKIN
G1 F1200 X93.89 Y197.11 E47.62452
G1 X93.89 Y49.89 E50.56245
G1 X105.11 Y49.89 E50.78636
G1 X105.11 Y197.11 E53.7243
G0 F6000 X105.39 Y197.11
G0 X105.326 Y197.297
G0 X94.559 Y197.39
G0 X94.559 Y196.949
G1 F1200 X94.049 Y196.438 E53.7387
G0 F6000 X94.049 Y195.872
G1 F1200 X95.125 Y196.949 E53.76908
G0 F6000 X95.691 Y196.949
G1 F1200 X94.049 Y195.307 E53.81542
G0 F6000 X94.049 Y194.741
G1 F1200 X96.257 Y196.949 E53.87774
G0 F6000 X96.822 Y196.949
G1 F1200 X94.049 Y194.175 E53.95601
G0 F6000 X94.049 Y193.61
G1 F1200 X97.388 Y196.949 E54.05025
G0 F6000 X97.954 Y196.949
G1 F1200 X94.049 Y193.044 E54.16045
G0 F6000 X94.049 Y192.478
G1 F1200 X98.519 Y196.949 E54.28662
G0 F6000 X99.085 Y196.949
G1 F1200 X94.049 Y191.913 E54.42875
G0 F6000 X94.049 Y191.347
G1 F1200 X99.651 Y196.949 E54.58685
G0 F6000 X100.216 Y196.949
G1 F1200 X94.049 Y190.781 E54.76091
G0 F6000 X94.049 Y190.215
G1 F1200 X100.782 Y196.949 E54.95094
G0 F6000 X101.348 Y196.949
G1 F1200 X94.049 Y189.65 E55.15694
G0 F6000 X94.049 Y189.084
G1 F1200 X101.913 Y196.949 E55.37889
G0 F6000 X102.479 Y196.949
G1 F1200 X94.049 Y188.518 E55.61682
G0 F6000 X94.049 Y187.953
G1 F1200 X103.045 Y196.949 E55.8707
G0 F6000 X103.61 Y196.949
G1 F1200 X94.049 Y187.387 E56.14055
G0 F6000 X94.049 Y186.821
G1 F1200 X104.176 Y196.949 E56.42637
G0 F6000 X104.742 Y196.949
G1 F1200 X94.049 Y186.256 E56.72815
G0 F6000 X94.049 Y185.69
G1 F1200 X104.95 Y196.591 E57.0358
G0 F6000 X104.95 Y196.025
G1 F1200 X94.049 Y185.124 E57.34345
G0 F6000 X94.049 Y184.559
G1 F1200 X104.95 Y195.459 E57.65108
G0 F6000 X104.95 Y194.894
G1 F1200 X94.049 Y183.993 E57.95873
G0 F6000 X94.049 Y183.427
G1 F1200 X104.95 Y194.328 E58.26638
G0 F6000 X104.95 Y193.762
G1 F1200 X94.049 Y182.862 E58.57402
G0 F6000 X94.049 Y182.296
G1 F1200 X104.95 Y193.197 E58.88167
G0 F6000 X104.95 Y192.631
G1 F1200 X94.049 Y181.73 E59.18932
G0 F6000 X94.049 Y181.164
G1 F1200 X104.95 Y192.065 E59.49697
G0 F6000 X104.95 Y191.5
G1 F1200 X94.049 Y180.599 E59.80462
G0 F6000 X94.049 Y180.033
G1 F1200 X104.95 Y190.934 E60.11227
G0 F6000 X104.95 Y190.368
G1 F1200 X94.049 Y179.467 E60.41992
G0 F6000 X94.049 Y178.902
G1 F1200 X104.95 Y189.803 E60.72757
G0 F6000 X104.95 Y189.237
G1 F1200 X94.049 Y178.336 E61.03522
G0 F6000 X94.049 Y177.77
G1 F1200 X104.95 Y188.671 E61.34287
G0 F6000 X104.95 Y188.105
G1 F1200 X94.049 Y177.205 E61.6505
G0 F6000 X94.049 Y176.639
G1 F1200 X104.95 Y187.54 E61.95815
G0 F6000 X104.95 Y186.974
G1 F1200 X94.049 Y176.073 E62.2658
G0 F6000 X94.049 Y175.508
G1 F1200 X104.95 Y186.408 E62.57344
G0 F6000 X104.95 Y185.843
G1 F1200 X94.049 Y174.942 E62.88109
G0 F6000 X94.049 Y174.376
G1 F1200 X104.95 Y185.277 E63.18874
G0 F6000 X104.95 Y184.711
G1 F1200 X94.049 Y173.811 E63.49637
G0 F6000 X94.049 Y173.245
G1 F1200 X104.95 Y184.146 E63.80402
G0 F6000 X104.95 Y183.58
G1 F1200 X94.049 Y172.679 E64.11167
G0 F6000 X94.049 Y172.114
G1 F1200 X104.95 Y183.014 E64.41931
G0 F6000 X104.95 Y182.449
G1 F1200 X94.049 Y171.548 E64.72696
G0 F6000 X94.049 Y170.982
G1 F1200 X104.95 Y181.883 E65.03461
G0 F6000 X104.95 Y181.317
G1 F1200 X94.049 Y170.416 E65.34226
G0 F6000 X94.049 Y169.851
G1 F1200 X104.95 Y180.752 E65.64991
G0 F6000 X104.95 Y180.186
G1 F1200 X94.049 Y169.285 E65.95756
G0 F6000 X94.049 Y168.719
G1 F1200 X104.95 Y179.62 E66.26521
G0 F6000 X104.95 Y179.054
G1 F1200 X94.049 Y168.154 E66.57284
G0 F6000 X94.049 Y167.588
G1 F1200 X104.95 Y178.489 E66.88049
G0 F6000 X104.95 Y177.923
G1 F1200 X94.049 Y167.022 E67.18814
G0 F6000 X94.049 Y166.457
G1 F1200 X104.95 Y177.357 E67.49578
G0 F6000 X104.95 Y176.792
G1 F1200 X94.049 Y165.891 E67.80343
G0 F6000 X94.049 Y165.325
G1 F1200 X104.95 Y176.226 E68.11108
G0 F6000 X104.95 Y175.66
G1 F1200 X94.049 Y164.76 E68.41871
G0 F6000 X94.049 Y164.194
G1 F1200 X104.95 Y175.095 E68.72636
G0 F6000 X104.95 Y174.529
G1 F1200 X94.049 Y163.628 E69.03401
G0 F6000 X94.049 Y163.063
G1 F1200 X104.95 Y173.963 E69.34165
G0 F6000 X104.95 Y173.398
G1 F1200 X94.049 Y162.497 E69.6493
G0 F6000 X94.049 Y161.931
