;FLAVOR:Marlin
;TIME:8160
;Filament used: 4.95812m
;Layer height: 0.16
;MINX:81.5
;MINY:31.5
;MINZ:0.2
;MAXX:135.5
;MAXY:209.5
;MAXZ:4.24
;Generated with Cura_SteamEngine master
M140 S60
M105
M190 S60
M104 S200
M105
M109 S200
M82 ;absolute extrusion mode
; Ender 3 Custom Start G-code
G92 E0 ; Reset Extruder
G28 ; Home all axes
G1 Z2.0 F3000 ; Move Z Axis up little to prevent scratching of Heat Bed
G1 X0.1 Y20 Z0.3 F5000.0 ; Move to start position
G1 X0.1 Y200.0 Z0.3 F1500.0 E15 ; Draw the first line
G1 X0.4 Y200.0 Z0.3 F5000.0 ; Move to side a little
G1 X0.4 Y20 Z0.3 F1500.0 E30 ; Draw the second line
G92 E0 ; Reset Extruder
G1 Z2.0 F3000 ; Move Z Axis up little to prevent scratching of Heat Bed
G1 X5 Y20 Z0.3 F5000.0 ; Move over to prevent blob squish
G92 E0
G92 E0
G1 F1500 E-6.5
;LAYER_COUNT:26
;LAYER:0
M107
G0 F6000 X82.562 Y43.814 Z0.2
;TYPE:SKIRT
G1 F1500 E0
G1 F1200 X82.998 Y42.984 E0.03118
G1 X83.503 Y42.194 E0.06237
G1 X84.074 Y41.45 E0.09356
G1 X84.706 Y40.757 E0.12476
G1 X85.395 Y40.12 E0.15597
G1 X86.135 Y39.544 E0.18716
G1 X86.922 Y39.034 E0.21835
G1 X87.75 Y38.592 E0.24956
G1 X88.612 Y38.223 E0.28075
G1 X89.877 Y37.829 E0.32482
G1 X92.476 Y37.188 E0.41385
G1 X94.956 Y36.504 E0.49942
G1 X97.343 Y35.77 E0.58248
G1 X99.715 Y34.967 E0.66577
G1 X102.062 Y34.098 E0.74901
G1 X104.431 Y33.144 E0.83395
G1 X105.498 Y32.68 E0.87265
G1 X106.239 Y32.37 E0.89937
G1 X107.119 Y32.045 E0.93057
G1 X108.023 Y31.797 E0.96175
G1 X108.945 Y31.626 E0.99293
G1 X109.913 Y31.533 E1.02528
G1 X110.259 Y31.515 E1.0368
G1 X110.83 Y31.5 E1.0558
G1 X123.951 Y31.501 E1.49221
G1 X124.649 Y31.511 E1.51542
G1 X125.585 Y31.565 E1.54661
G1 X126.513 Y31.697 E1.57778
G1 X127.427 Y31.909 E1.60899
G1 X128.319 Y32.198 E1.64018
G1 X129.184 Y32.561 E1.67138
G1 X130.014 Y32.997 E1.70256
G1 X130.805 Y33.502 E1.73377
G1 X131.549 Y34.073 E1.76497
G1 X132.242 Y34.705 E1.79616
G1 X132.879 Y35.393 E1.82735
G1 X133.454 Y36.134 E1.85854
G1 X133.965 Y36.92 E1.88972
G1 X134.407 Y37.748 E1.92094
G1 X134.776 Y38.61 E1.95213
G1 X135.071 Y39.5 E1.98331
G1 X135.289 Y40.412 E2.0145
G1 X135.429 Y41.34 E2.04572
G1 X135.487 Y42.201 E2.07442
G1 X135.5 Y42.83 E2.09534
G1 X135.5 Y191.764 E7.04891
G1 X135.499 Y191.915 E7.05393
G1 X135.489 Y192.642 E7.07811
G1 X135.436 Y193.579 E7.10933
G1 X135.304 Y194.507 E7.1405
G1 X135.093 Y195.421 E7.1717
G1 X134.804 Y196.313 E7.20289
G1 X134.441 Y197.178 E7.23409
G1 X134.006 Y198.009 E7.26529
G1 X133.501 Y198.799 E7.29647
G1 X132.931 Y199.544 E7.32767
G1 X132.3 Y200.238 E7.35887
G1 X131.611 Y200.875 E7.39008
G1 X130.871 Y201.451 E7.42127
G1 X130.085 Y201.962 E7.45245
G1 X129.258 Y202.404 E7.48364
G1 X128.396 Y202.774 E7.51484
G1 X127.123 Y203.171 E7.55919
G1 X124.524 Y203.812 E7.64822
G1 X122.044 Y204.496 E7.73379
G1 X119.657 Y205.23 E7.81685
G1 X117.285 Y206.033 E7.90014
G1 X114.938 Y206.902 E7.98338
G1 X112.569 Y207.856 E8.06832
G1 X111.51 Y208.316 E8.10672
G1 X110.762 Y208.629 E8.13369
G1 X109.882 Y208.954 E8.16489
G1 X108.978 Y209.203 E8.19608
G1 X108.056 Y209.374 E8.22727
G1 X107.087 Y209.467 E8.25965
G1 X106.741 Y209.485 E8.27117
G1 X106.17 Y209.5 E8.29017
G1 X93.065 Y209.499 E8.72604
G1 X92.367 Y209.49 E8.74926
G1 X91.431 Y209.438 E8.78044
G1 X90.502 Y209.306 E8.81165
G1 X89.588 Y209.096 E8.84284
G1 X88.695 Y208.809 E8.87404
G1 X87.83 Y208.446 E8.90524
G1 X86.999 Y208.012 E8.93642
G1 X86.208 Y207.508 E8.96762
G1 X85.463 Y206.938 E8.99881
G1 X84.769 Y206.307 E9.03001
G1 X84.132 Y205.62 E9.06117
G1 X83.555 Y204.88 E9.09238
G1 X83.043 Y204.094 E9.12358
G1 X82.6 Y203.267 E9.15479
G1 X82.229 Y202.406 E9.18597
G1 X81.933 Y201.516 E9.21716
G1 X81.714 Y200.604 E9.24836
G1 X81.573 Y199.677 E9.27955
G1 X81.513 Y198.785 E9.30928
G1 X81.5 Y198.154 E9.33027
G1 X81.5 Y49.198 E14.28457
G1 X81.501 Y49.038 E14.28989
G1 X81.511 Y48.349 E14.31281
G1 X81.565 Y47.413 E14.34399
G1 X81.698 Y46.485 E14.37517
G1 X81.91 Y45.571 E14.40638
G1 X82.198 Y44.679 E14.43756
G1 X82.562 Y43.814 E14.46877
G0 F6000 X82.96 Y43.909
G1 F1200 X83.395 Y43.097 E14.49941
G1 X83.899 Y42.327 E14.53002
G1 X84.468 Y41.603 E14.56065
G1 X85.098 Y40.931 E14.59128
G1 X85.783 Y40.317 E14.62188
G1 X86.52 Y39.764 E14.65252
G1 X87.301 Y39.277 E14.68314
G1 X88.122 Y38.86 E14.71376
G1 X88.976 Y38.516 E14.74439
G1 X89.972 Y38.217 E14.77897
G1 X92.616 Y37.565 E14.86955
G1 X95.043 Y36.895 E14.95329
G1 X97.473 Y36.148 E15.03784
G1 X99.833 Y35.349 E15.12071
G1 X102.225 Y34.463 E15.20555
G1 X104.562 Y33.523 E15.28934
G1 X105.652 Y33.049 E15.32887
G1 X106.393 Y32.739 E15.35558
G1 X107.257 Y32.421 E15.38621
G1 X108.145 Y32.179 E15.41682
G1 X109.051 Y32.015 E15.44744
G1 X109.933 Y31.932 E15.47691
G1 X110.279 Y31.914 E15.48843
G1 X110.83 Y31.9 E15.50676
G1 X123.945 Y31.901 E15.94297
G1 X124.643 Y31.911 E15.96619
G1 X125.562 Y31.964 E15.9968
G1 X126.473 Y32.097 E16.02742
G1 X127.369 Y32.308 E16.05804
G1 X128.243 Y32.596 E16.08865
G1 X129.09 Y32.959 E16.1193
G1 X129.901 Y33.394 E16.14991
G1 X130.671 Y33.898 E16.18052
G1 X131.395 Y34.467 E16.21114
G1 X132.067 Y35.097 E16.24178
G1 X132.682 Y35.782 E16.2724
G1 X133.235 Y36.518 E16.30302
G1 X133.722 Y37.299 E16.33363
G1 X134.139 Y38.12 E16.36426
G1 X134.484 Y38.974 E16.39489
G1 X134.753 Y39.854 E16.4255
G1 X134.945 Y40.755 E16.45614
G1 X135.058 Y41.668 E16.48674
G1 X135.087 Y42.212 E16.50485
G1 X135.1 Y42.83 E16.52541
G1 X135.1 Y191.764 E21.47898
G1 X135.099 Y191.91 E21.48383
G1 X135.089 Y192.637 E21.50802
G1 X135.036 Y193.556 E21.53863
G1 X134.904 Y194.467 E21.56925
G1 X134.693 Y195.363 E21.59987
G1 X134.406 Y196.238 E21.63049
G1 X134.043 Y197.084 E21.66111
G1 X133.609 Y197.896 E21.69174
G1 X133.105 Y198.667 E21.72237
G1 X132.537 Y199.391 E21.75298
G1 X131.908 Y200.063 E21.78359
G1 X131.223 Y200.678 E21.81421
G1 X130.487 Y201.231 E21.84483
G1 X129.706 Y201.719 E21.87546
G1 X128.886 Y202.137 E21.90607
G1 X128.032 Y202.482 E21.93671
G1 X127.028 Y202.783 E21.97157
G1 X124.384 Y203.435 E22.06214
G1 X121.957 Y204.105 E22.14589
G1 X119.527 Y204.852 E22.23044
G1 X117.167 Y205.651 E22.31331
G1 X114.775 Y206.537 E22.39815
G1 X112.408 Y207.489 E22.48301
G1 X111.356 Y207.947 E22.52117
G1 X110.608 Y208.26 E22.54814
G1 X109.744 Y208.579 E22.57877
G1 X108.856 Y208.821 E22.60938
G1 X107.95 Y208.985 E22.64001
G1 X107.067 Y209.068 E22.6695
G1 X106.721 Y209.086 E22.68103
G1 X106.17 Y209.1 E22.69936
G1 X93.07 Y209.099 E23.13507
G1 X92.372 Y209.09 E23.15829
G1 X91.453 Y209.038 E23.1889
G1 X90.542 Y208.907 E23.21951
G1 X89.646 Y208.697 E23.25012
G1 X88.771 Y208.41 E23.28075
G1 X87.924 Y208.048 E23.31139
G1 X87.112 Y207.614 E23.34201
G1 X86.341 Y207.112 E23.37261
G1 X85.616 Y206.544 E23.40324
G1 X84.943 Y205.915 E23.43388
G1 X84.328 Y205.231 E23.46447
G1 X83.774 Y204.496 E23.49509
G1 X83.286 Y203.715 E23.52572
G1 X82.867 Y202.895 E23.55634
G1 X82.521 Y202.042 E23.58696
G1 X82.251 Y201.162 E23.61758
G1 X82.058 Y200.261 E23.64822
G1 X81.944 Y199.348 E23.67882
G1 X81.913 Y198.774 E23.69794
G1 X81.9 Y198.154 E23.71857
G1 X81.9 Y49.198 E28.67287
G1 X81.901 Y49.044 E28.67799
G1 X81.911 Y48.355 E28.70091
G1 X81.964 Y47.436 E28.73152
G1 X82.097 Y46.525 E28.76215
G1 X82.309 Y45.629 E28.79277
G1 X82.597 Y44.755 E28.82338
G1 X82.96 Y43.909 E28.85399
G0 F6000 X83.358 Y44.005
G1 F1200 X83.793 Y43.213 E28.88405
G1 X84.295 Y42.463 E28.91407
G1 X84.862 Y41.76 E28.94411
G1 X85.489 Y41.11 E28.97414
G1 X86.171 Y40.518 E29.00418
G1 X86.903 Y39.988 E29.03424
G1 X87.679 Y39.526 E29.06428
G1 X88.492 Y39.134 E29.0943
G1 X89.337 Y38.815 E29.12434
G1 X90.068 Y38.606 E29.14962
G1 X92.704 Y37.956 E29.23992
G1 X95.171 Y37.275 E29.32505
G1 X97.571 Y36.537 E29.40856
G1 X99.964 Y35.727 E29.49259
G1 X102.396 Y34.827 E29.57884
G1 X104.705 Y33.897 E29.66163
G1 X105.806 Y33.418 E29.70156
G1 X106.547 Y33.108 E29.72828
G1 X107.395 Y32.797 E29.75832
G1 X108.267 Y32.562 E29.78836
G1 X109.156 Y32.405 E29.81838
G1 X109.954 Y32.332 E29.84504
G1 X110.3 Y32.314 E29.85656
G1 X110.83 Y32.3 E29.87419
G1 X123.939 Y32.301 E30.3102
G1 X124.637 Y32.311 E30.33342
G1 X125.539 Y32.364 E30.36347
G1 X126.432 Y32.496 E30.3935
G1 X127.31 Y32.707 E30.42353
G1 X128.166 Y32.995 E30.45357
G1 X128.993 Y33.357 E30.48359
G1 X129.785 Y33.792 E30.51365
G1 X130.536 Y34.294 E30.54369
G1 X131.239 Y34.861 E30.57373
G1 X131.889 Y35.488 E30.60377
G1 X132.481 Y36.17 E30.63381
G1 X133.011 Y36.901 E30.66384
G1 X133.473 Y37.677 E30.69388
G1 X133.866 Y38.49 E30.72391
G1 X134.184 Y39.335 E30.75394
G1 X134.427 Y40.205 E30.78398
G1 X134.592 Y41.093 E30.81402
G1 X134.687 Y42.223 E30.85174
G1 X134.7 Y42.83 E30.87193
G1 X134.7 Y191.764 E35.8255
G1 X134.689 Y192.631 E35.85434
G1 X134.637 Y193.533 E35.88439
G1 X134.505 Y194.426 E35.91441
G1 X134.294 Y195.305 E35.94448
G1 X134.007 Y196.161 E35.97451
G1 X133.645 Y196.988 E36.00453
G1 X133.211 Y197.78 E36.03457
G1 X132.709 Y198.531 E36.06461
G1 X132.143 Y199.234 E36.09463
G1 X131.516 Y199.885 E36.1247
G1 X130.835 Y200.477 E36.15471
G1 X130.104 Y201.007 E36.18474
G1 X129.328 Y201.47 E36.21479
G1 X128.515 Y201.863 E36.24483
G1 X127.67 Y202.183 E36.27488
G1 X126.932 Y202.394 E36.30041
G1 X124.296 Y203.044 E36.39071
G1 X121.829 Y203.725 E36.47583
G1 X119.429 Y204.463 E36.55934
G1 X117.036 Y205.273 E36.64337
G1 X114.604 Y206.173 E36.72962
G1 X112.295 Y207.103 E36.81241
G1 X111.201 Y207.578 E36.85208
G1 X110.453 Y207.891 E36.87905
G1 X109.606 Y208.203 E36.90907
G1 X108.734 Y208.438 E36.93911
G1 X107.844 Y208.595 E36.96917
G1 X107.046 Y208.668 E36.99582
G1 X106.7 Y208.686 E37.00735
G1 X106.17 Y208.7 E37.02498
G1 X93.075 Y208.699 E37.46052
G1 X92.377 Y208.69 E37.48374
G1 X91.476 Y208.639 E37.51375
G1 X90.582 Y208.507 E37.54381
G1 X89.704 Y208.298 E37.57383
G1 X88.847 Y208.011 E37.60389
G1 X88.02 Y207.65 E37.6339
G1 X87.227 Y207.217 E37.66395
G1 X86.476 Y206.716 E37.69398
G1 X85.772 Y206.15 E37.72402
G1 X85.121 Y205.524 E37.75406
G1 X84.528 Y204.843 E37.7841
G1 X83.998 Y204.112 E37.81413
G1 X83.534 Y203.337 E37.84417
G1 X83.14 Y202.524 E37.87422
G1 X82.82 Y201.68 E37.90424
G1 X82.576 Y200.81 E37.93429
G1 X82.41 Y199.922 E37.96434
G1 X82.313 Y198.763 E38.00302
G1 X82.3 Y198.154 E38.02328
G1 X82.3 Y49.198 E42.97758
G1 X82.301 Y49.05 E42.9825
G1 X82.311 Y48.361 E43.00542
G1 X82.364 Y47.459 E43.03547
G1 X82.497 Y46.566 E43.0655
G1 X82.708 Y45.688 E43.09554
G1 X82.996 Y44.832 E43.12557
G1 X83.358 Y44.005 E43.1556
G1 F1500 E36.6556
;MESH:6x150.stl
G0 F6000 X91.835 Y49.71
G0 X93.71 Y49.71
G0 X105.318 Y49.682
G0 X105.5 Y197.5
;TYPE:WALL-INNER
G1 F1500 E43.1556
G1 F1200 X93.5 Y197.5 E43.55472
G1 X93.5 Y49.5 E48.47722
G1 X105.5 Y49.5 E48.87634
G1 X105.5 Y197.5 E53.79884
G0 F6000 X105.9 Y197.9
G1 F1200 X93.1 Y197.9 E54.22457
G1 X93.1 Y49.1 E59.17368
G1 X105.9 Y49.1 E59.59941
G1 X105.9 Y197.9 E64.54852
G0 F6000 X106.3 Y198.3
;TYPE:WALL-OUTER
G1 F1200 X92.7 Y198.3 E65.00086
G1 X92.7 Y48.7 E69.97657
G1 X106.3 Y48.7 E70.42891
G1 X106.3 Y198.3 E75.40463
G0 F6000 X106.03 Y198.03
G0 X105.39 Y197.11
G0 X105.11 Y197.11
;TYPE:SKIN
G1 F1200 X93.89 Y197.11 E75.77781
G1 X93.89 Y49.89 E80.67436
G1 X105.11 Y49.89 E81.04754
G1 X105.11 Y197.11 E85.9441
G0 F6000 X105.39 Y197.11
G0 X105.326 Y197.297
G0 X94.559 Y197.39
G0 X94.559 Y196.949
G1 F1200 X94.049 Y196.438 E85.96811
G0 F6000 X94.049 Y195.872
G1 F1200 X95.125 Y196.949 E86.01875
G0 F6000 X95.691 Y196.949
G1 F1200 X94.049 Y195.307 E86.09598
G0 F6000 X94.049 Y194.741
G1 F1200 X96.257 Y196.949 E86.19984
G0 F6000 X96.822 Y196.949
G1 F1200 X94.049 Y194.175 E86.3303
G0 F6000 X94.049 Y193.61
G1 F1200 X97.388 Y196.949 E86.48735
G0 F6000 X97.954 Y196.949
G1 F1200 X94.049 Y193.044 E86.67103
G0 F6000 X94.049 Y192.478
G1 F1200 X98.519 Y196.949 E86.88131
G0 F6000 X99.085 Y196.949
G1 F1200 X94.049 Y191.913 E87.11819
G0 F6000 X94.049 Y191.347
G1 F1200 X99.651 Y196.949 E87.38169
G0 F6000 X100.216 Y196.949
G1 F1200 X94.049 Y190.781 E87.67179
G0 F6000 X94.049 Y190.215
G1 F1200 X100.782 Y196.949 E87.98851
G0 F6000 X101.348 Y196.949
G1 F1200 X94.049 Y189.65 E88.33184
G0 F6000 X94.049 Y189.084
G1 F1200 X101.913 Y196.949 E88.70176
G0 F6000 X102.479 Y196.949
G1 F1200 X94.049 Y188.518 E89.0983
G0 F6000 X94.049 Y187.953
G1 F1200 X103.045 Y196.949 E89.52145
G0 F6000 X103.61 Y196.949
G1 F1200 X94.049 Y187.387 E89.97119
G0 F6000 X94.049 Y186.821
G1 F1200 X104.176 Y196.949 E90.44756
G0 F6000 X104.742 Y196.949
G1 F1200 X94.049 Y186.256 E90.95052
G0 F6000 X94.049 Y185.69
G1 F1200 X104.95 Y196.591 E91.46327
G0 F6000 X104.95 Y196.025
G1 F1200 X94.049 Y185.124 E91.97602
G0 F6000 X94.049 Y184.559
G1 F1200 X104.95 Y195.459 E92.48875
G0 F6000 X104.95 Y194.894
G1 F1200 X94.049 Y183.993 E93.0015
G0 F6000 X94.049 Y183.427
G1 F1200 X104.95 Y194.328 E93.51425
G0 F6000 X104.95 Y193.762
G1 F1200 X94.049 Y182.862 E94.02697
G0 F6000 X94.049 Y182.296
G1 F1200 X104.95 Y193.197 E94.53972
G0 F6000 X104.95 Y192.631
G1 F1200 X94.049 Y181.73 E95.05247
G0 F6000 X94.049 Y181.164
G1 F1200 X104.95 Y192.065 E95.56522
G0 F6000 X104.95 Y191.5
G1 F1200 X94.049 Y180.599 E96.07797
G0 F6000 X94.049 Y180.033
G1 F1200 X104.95 Y190.934 E96.59072
G0 F6000 X104.95 Y190.368
G1 F1200 X94.049 Y179.467 E97.10347
G0 F6000 X94.049 Y178.902
G1 F1200 X104.95 Y189.803 E97.61622
G0 F6000 X104.95 Y189.237
G1 F1200 X94.049 Y178.336 E98.12897
G0 F6000 X94.049 Y177.77
G1 F1200 X104.95 Y188.671 E98.64172
G0 F6000 X104.95 Y188.105
G1 F1200 X94.049 Y177.205 E99.15445
G0 F6000 X94.049 Y176.639
G1 F1200 X104.95 Y187.54 E99.6672
G0 F6000 X104.95 Y186.974
G1 F1200 X94.049 Y176.073 E100.17995
G0 F6000 X94.049 Y175.508
G1 F1200 X104.95 Y186.408 E100.69267
G0 F6000 X104.95 Y185.843
G1 F1200 X94.049 Y174.942 E101.20542
G0 F6000 X94.049 Y174.376
G1 F1200 X104.95 Y185.277 E101.71817
G0 F6000 X104.95 Y184.711
G1 F1200 X94.049 Y173.811 E102.2309
G0 F6000 X94.049 Y173.245
G1 F1200 X104.95 Y184.146 E102.74365
G0 F6000 X104.95 Y183.58
G1 F1200 X94.049 Y172.679 E103.2564
G0 F6000 X94.049 Y172.114
G1 F1200 X104.95 Y183.014 E103.76912
G0 F6000 X104.95 Y182.449
G1 F1200 X94.049 Y171.548 E104.28187
G0 F6000 X94.049 Y170.982
G1 F1200 X104.95 Y181.883 E104.79462
G0 F6000 X104.95 Y181.317
G1 F1200 X94.049 Y170.416 E105.30737
G0 F6000 X94.049 Y169.851
G1 F1200 X104.95 Y180.752 E105.82012
G0 F6000 X104.95 Y180.186
G1 F1200 X94.049 Y169.285 E106.33287
G0 F6000 X94.049 Y168.719
G1 F1200 X104.95 Y179.62 E106.84562
G0 F6000 X104.95 Y179.054
G1 F1200 X94.049 Y168.154 E107.35835
G0 F6000 X94.049 Y167.588
G1 F1200 X104.95 Y178.489 E107.8711
G0 F6000 X104.95 Y177.923
G1 F1200 X94.049 Y167.022 E108.38384
G0 F6000 X94.049 Y166.457
G1 F1200 X104.95 Y177.357 E108.89657
G0 F6000 X104.95 Y176.792
G1 F1200 X94.049 Y165.891 E109.40932
G0 F6000 X94.049 Y165.325
G1 F1200 X104.95 Y176.226 E109.92207
G0 F6000 X104.95 Y175.66
G1 F1200 X94.049 Y164.76 E110.4348
G0 F6000 X94.049 Y164.194
G1 F1200 X104.95 Y175.095 E110.94755
G0 F6000 X104.95 Y174.529
G1 F1200 X94.049 Y163.628 E111.4603
G0 F6000 X94.049 Y163.063
G1 F1200 X104.95 Y173.963 E111.97302
G0 F6000 X104.95 Y173.398
G1 F1200 X94.049 Y162.497 E112.48577
G0 F6000 X94.049 Y161.931
G1 F1200 X104.95 Y172.832 E112.99852
G0 F6000 X104.95 Y172.266
G1 F1200 X94.049 Y161.366 E113.51125
G0 F6000 X94.049 Y160.8
G1 F1200 X104.95 Y171.701 E114.024
G0 F6000 X104.95 Y171.135
G1 F1200 X94.049 Y160.234 E114.53675
G0 F6000 X94.049 Y159.668
G1 F1200 X104.95 Y170.569 E115.0495
G0 F6000 X104.95 Y170.004
G1 F1200 X94.049 Y159.103 E115.56225
G0 F6000 X94.049 Y158.537
G1 F1200 X104.95 Y169.438 E116.075
G0 F6000 X104.95 Y168.872
G1 F1200 X94.049 Y157.971 E116.58774
G0 F6000 X94.049 Y157.406
G1 F1200 X104.95 Y168.306 E117.10047
G0 F6000 X104.95 Y167.741
G1 F1200 X94.049 Y156.84 E117.61322
G0 F6000 X94.049 Y156.274
G1 F1200 X104.95 Y167.175 E118.12597
G0 F6000 X104.95 Y166.609
G1 F1200 X94.049 Y155.709 E118.6387
G0 F6000 X94.049 Y155.143
G1 F1200 X104.95 Y166.044 E119.15145
G0 F6000 X104.95 Y165.478
G1 F1200 X94.049 Y154.577 E119.6642
G0 F6000 X94.049 Y154.012
G1 F1200 X104.95 Y164.912 E120.17692
G0 F6000 X104.95 Y164.347
G1 F1200 X94.049 Y153.446 E120.68967
G0 F6000 X94.049 Y152.88
G1 F1200 X104.95 Y163.781 E121.20242
G0 F6000 X104.95 Y163.215
G1 F1200 X94.049 Y152.315 E121.71515
G0 F6000 X94.049 Y151.749
G1 F1200 X104.95 Y162.65 E122.2279
G0 F6000 X104.95 Y162.084
