;FLAVOR:Marlin
;TIME:1190
;Filament used: 0.775601m
;Layer height: 0.2
;MINX:101.5
;MINY:56.5
;MINZ:0.2
;MAXX:133.5
;MAXY:178.5
;MAXZ:2.8
;Generated with Cura_SteamEngine master
M140 S60
M105
M190 S60
M104 S200
M105
M109 S200
M82 ;absolute extrusion mode
; Ender 3 Custom Start G-code
G92 E0 ; Reset Extruder
G28 ; Home all axes
G1 Z2.0 F3000 ; Move Z Axis up little to prevent scratching of Heat Bed
G1 X0.1 Y20 Z0.3 F5000.0 ; Move to start position
G1 X0.1 Y200.0 Z0.3 F1500.0 E15 ; Draw the first line
G1 X0.4 Y200.0 Z0.3 F5000.0 ; Move to side a little
G1 X0.4 Y20 Z0.3 F1500.0 E30 ; Draw the second line
G92 E0 ; Reset Extruder
G1 Z2.0 F3000 ; Move Z Axis up little to prevent scratching of Heat Bed
G1 X5 Y20 Z0.3 F5000.0 ; Move over to prevent blob squish
G92 E0
G92 E0
G1 F1500 E-6.5
;LAYER_COUNT:14
;LAYER:0
M107
G0 F6000 X102.992 Y61.993 Z0.2
;TYPE:SKIRT
G1 F1500 E0
G1 F1200 X103.496 Y61.203 E0.03117
G1 X104.066 Y60.458 E0.06237
G1 X104.698 Y59.764 E0.09359
G1 X105.386 Y59.127 E0.12477
G1 X106.126 Y58.551 E0.15596
G1 X106.912 Y58.039 E0.18716
G1 X107.739 Y57.597 E0.21835
G1 X108.601 Y57.227 E0.24955
G1 X109.491 Y56.931 E0.28074
G1 X110.403 Y56.713 E0.31193
G1 X111.33 Y56.572 E0.34312
G1 X112.201 Y56.513 E0.37216
G1 X112.83 Y56.5 E0.39308
G1 X121.951 Y56.501 E0.69645
G1 X122.649 Y56.511 E0.71966
G1 X123.585 Y56.565 E0.75085
G1 X124.513 Y56.697 E0.78202
G1 X125.427 Y56.909 E0.81323
G1 X126.319 Y57.198 E0.84442
G1 X127.184 Y57.561 E0.87562
G1 X128.014 Y57.997 E0.9068
G1 X128.805 Y58.502 E0.93801
G1 X129.549 Y59.073 E0.96921
G1 X130.242 Y59.705 E1.0004
G1 X130.879 Y60.393 E1.03159
G1 X131.454 Y61.134 E1.06278
G1 X131.965 Y61.92 E1.09396
G1 X132.407 Y62.748 E1.12518
G1 X132.776 Y63.61 E1.15637
G1 X133.071 Y64.5 E1.18755
G1 X133.289 Y65.412 E1.21874
G1 X133.429 Y66.34 E1.24996
G1 X133.487 Y67.201 E1.27866
G1 X133.5 Y67.83 E1.29958
G1 X133.5 Y166.764 E4.59014
G1 X133.49 Y167.627 E4.61885
G1 X133.439 Y168.564 E4.65006
G1 X133.307 Y169.492 E4.68123
G1 X133.098 Y170.406 E4.71242
G1 X132.811 Y171.299 E4.74362
G1 X132.449 Y172.165 E4.77483
G1 X132.015 Y172.996 E4.80602
G1 X131.511 Y173.787 E4.83721
G1 X130.942 Y174.532 E4.86839
G1 X130.311 Y175.227 E4.89961
G1 X129.624 Y175.865 E4.93079
G1 X128.885 Y176.442 E4.96198
G1 X128.099 Y176.954 E4.99318
G1 X127.273 Y177.397 E5.02435
G1 X126.411 Y177.769 E5.05558
G1 X125.522 Y178.065 E5.08674
G1 X124.61 Y178.285 E5.11795
G1 X123.683 Y178.426 E5.14913
G1 X122.799 Y178.487 E5.17861
G1 X122.17 Y178.5 E5.19953
G1 X113.065 Y178.499 E5.50236
G1 X112.367 Y178.49 E5.52558
G1 X111.431 Y178.438 E5.55676
G1 X110.502 Y178.306 E5.58797
G1 X109.588 Y178.096 E5.61916
G1 X108.695 Y177.809 E5.65036
G1 X107.83 Y177.446 E5.68156
G1 X106.999 Y177.012 E5.71274
G1 X106.208 Y176.508 E5.74394
G1 X105.463 Y175.938 E5.77514
G1 X104.769 Y175.307 E5.80633
G1 X104.132 Y174.62 E5.83749
G1 X103.555 Y173.88 E5.8687
G1 X103.043 Y173.094 E5.8999
G1 X102.6 Y172.267 E5.93111
G1 X102.229 Y171.406 E5.96229
G1 X101.933 Y170.516 E5.99349
G1 X101.714 Y169.604 E6.02468
G1 X101.573 Y168.677 E6.05587
G1 X101.513 Y167.788 E6.0855
G1 X101.5 Y167.158 E6.10646
G1 X101.5 Y68.174 E9.39868
G1 X101.51 Y67.36 E9.42576
G1 X101.563 Y66.424 E9.45694
G1 X101.695 Y65.495 E9.48815
G1 X101.906 Y64.581 E9.51935
G1 X102.194 Y63.689 E9.55053
G1 X102.557 Y62.824 E9.58173
G1 X102.992 Y61.993 E9.61292
G0 F6000 X103.389 Y62.106
G1 F1200 X103.892 Y61.335 E9.64354
G1 X104.461 Y60.611 E9.67417
G1 X105.089 Y59.939 E9.70476
G1 X105.774 Y59.323 E9.7354
G1 X106.51 Y58.77 E9.76602
G1 X107.291 Y58.282 E9.79665
G1 X108.111 Y57.864 E9.82726
G1 X108.965 Y57.519 E9.8579
G1 X109.845 Y57.249 E9.88851
G1 X110.745 Y57.057 E9.91912
G1 X111.659 Y56.943 E9.94975
G1 X112.212 Y56.913 E9.96817
G1 X112.83 Y56.9 E9.98873
G1 X121.945 Y56.901 E10.2919
G1 X122.643 Y56.911 E10.31512
G1 X123.562 Y56.964 E10.34574
G1 X124.473 Y57.097 E10.37636
G1 X125.369 Y57.308 E10.40697
G1 X126.243 Y57.596 E10.43758
G1 X127.09 Y57.959 E10.46823
G1 X127.901 Y58.394 E10.49884
G1 X128.671 Y58.898 E10.52945
G1 X129.395 Y59.467 E10.56007
G1 X130.067 Y60.097 E10.59071
G1 X130.682 Y60.782 E10.62133
G1 X131.235 Y61.518 E10.65195
G1 X131.722 Y62.299 E10.68256
G1 X132.139 Y63.12 E10.71319
G1 X132.484 Y63.974 E10.74382
G1 X132.753 Y64.854 E10.77443
G1 X132.945 Y65.755 E10.80507
G1 X133.058 Y66.668 E10.83567
G1 X133.087 Y67.212 E10.85379
G1 X133.1 Y67.83 E10.87435
G1 X133.1 Y166.764 E14.1649
G1 X133.09 Y167.622 E14.19344
G1 X133.039 Y168.541 E14.22406
G1 X132.908 Y169.453 E14.2547
G1 X132.698 Y170.349 E14.28531
G1 X132.412 Y171.224 E14.31593
G1 X132.051 Y172.071 E14.34655
G1 X131.617 Y172.883 E14.37717
G1 X131.115 Y173.655 E14.4078
G1 X130.547 Y174.38 E14.43843
G1 X129.919 Y175.053 E14.46905
G1 X129.235 Y175.669 E14.49967
G1 X128.5 Y176.223 E14.53028
G1 X127.72 Y176.712 E14.5609
G1 X126.9 Y177.131 E14.59152
G1 X126.047 Y177.477 E14.62214
G1 X125.167 Y177.748 E14.65277
G1 X124.267 Y177.941 E14.68338
G1 X123.353 Y178.056 E14.71402
G1 X122.788 Y178.087 E14.73284
G1 X122.17 Y178.1 E14.7534
G1 X113.07 Y178.099 E15.05607
G1 X112.372 Y178.09 E15.07928
G1 X111.453 Y178.038 E15.1099
G1 X110.542 Y177.907 E15.14051
G1 X109.646 Y177.697 E15.17112
G1 X108.771 Y177.41 E15.20175
G1 X107.924 Y177.048 E15.23238
G1 X107.112 Y176.614 E15.26301
G1 X106.341 Y176.112 E15.29361
G1 X105.616 Y175.544 E15.32424
G1 X104.943 Y174.915 E15.35488
G1 X104.328 Y174.231 E15.38547
G1 X103.774 Y173.496 E15.41609
G1 X103.286 Y172.715 E15.44672
G1 X102.867 Y171.895 E15.47734
G1 X102.521 Y171.042 E15.50796
G1 X102.251 Y170.162 E15.53857
G1 X102.058 Y169.261 E15.56922
G1 X101.944 Y168.348 E15.59982
G1 X101.913 Y167.777 E15.61884
G1 X101.9 Y167.158 E15.63944
G1 X101.9 Y68.174 E18.93166
G1 X101.91 Y67.366 E18.95853
G1 X101.962 Y66.446 E18.98918
G1 X102.094 Y65.535 E19.0198
G1 X102.305 Y64.639 E19.05041
G1 X102.592 Y63.764 E19.08104
G1 X102.955 Y62.918 E19.11166
G1 X103.389 Y62.106 E19.14228
G0 F6000 X103.786 Y62.222
G1 F1200 X104.288 Y61.471 E19.17233
G1 X104.855 Y60.767 E19.20239
G1 X105.481 Y60.117 E19.23241
G1 X106.162 Y59.524 E19.26244
G1 X106.894 Y58.994 E19.2925
G1 X107.669 Y58.531 E19.32253
G1 X108.482 Y58.138 E19.35256
G1 X109.327 Y57.818 E19.38261
G1 X110.196 Y57.575 E19.41263
G1 X111.084 Y57.409 E19.44267
G1 X112.223 Y57.313 E19.48069
G1 X112.83 Y57.3 E19.50088
G1 X121.939 Y57.301 E19.80385
G1 X122.637 Y57.311 E19.82707
G1 X123.539 Y57.364 E19.85712
G1 X124.432 Y57.496 E19.88714
G1 X125.31 Y57.707 E19.91718
G1 X126.166 Y57.995 E19.94722
G1 X126.993 Y58.357 E19.97724
G1 X127.785 Y58.792 E20.0073
G1 X128.536 Y59.294 E20.03734
G1 X129.239 Y59.861 E20.06738
G1 X129.889 Y60.488 E20.09742
G1 X130.481 Y61.17 E20.12746
G1 X131.011 Y61.901 E20.15749
G1 X131.473 Y62.677 E20.18752
G1 X131.866 Y63.49 E20.21756
G1 X132.184 Y64.335 E20.24759
G1 X132.427 Y65.205 E20.27763
G1 X132.592 Y66.093 E20.30767
G1 X132.687 Y67.223 E20.34539
G1 X132.7 Y67.83 E20.36558
G1 X132.7 Y166.764 E23.65614
G1 X132.69 Y167.617 E23.68451
G1 X132.639 Y168.519 E23.71456
G1 X132.508 Y169.413 E23.74461
G1 X132.299 Y170.291 E23.77463
G1 X132.013 Y171.148 E23.80468
G1 X131.652 Y171.976 E23.83472
G1 X131.22 Y172.768 E23.86473
G1 X130.719 Y173.52 E23.89478
G1 X130.153 Y174.224 E23.92483
G1 X129.528 Y174.875 E23.95485
G1 X128.847 Y175.469 E23.9849
G1 X128.116 Y176 E24.01495
G1 X127.342 Y176.464 E24.04497
G1 X126.529 Y176.858 E24.07501
G1 X125.685 Y177.178 E24.10504
G1 X124.815 Y177.423 E24.1351
G1 X123.928 Y177.589 E24.16511
G1 X122.777 Y177.687 E24.20353
G1 X122.17 Y177.7 E24.22373
G1 X113.075 Y177.699 E24.52623
G1 X112.377 Y177.69 E24.54944
G1 X111.476 Y177.639 E24.57946
G1 X110.582 Y177.507 E24.60952
G1 X109.704 Y177.298 E24.63954
G1 X108.847 Y177.011 E24.6696
G1 X108.02 Y176.65 E24.69961
G1 X107.227 Y176.217 E24.72966
G1 X106.476 Y175.716 E24.75969
G1 X105.772 Y175.15 E24.78973
G1 X105.121 Y174.524 E24.81977
G1 X104.528 Y173.843 E24.8498
G1 X103.998 Y173.112 E24.87983
G1 X103.534 Y172.337 E24.90988
G1 X103.14 Y171.524 E24.93993
G1 X102.82 Y170.68 E24.96995
G1 X102.576 Y169.81 E25
G1 X102.41 Y168.922 E25.03005
G1 X102.313 Y167.767 E25.0686
G1 X102.3 Y167.158 E25.08886
G1 X102.3 Y68.174 E28.38108
G1 X102.31 Y67.371 E28.40779
G1 X102.362 Y66.469 E28.43784
G1 X102.494 Y65.576 E28.46786
G1 X102.704 Y64.698 E28.49789
G1 X102.991 Y63.841 E28.52795
G1 X103.353 Y63.014 E28.55797
G1 X103.786 Y62.222 E28.588
G1 F1500 E22.088
;MESH:4x100.stl
G0 F6000 X111.835 Y67.92
G0 X112.92 Y67.92
G0 X113.5 Y166.5
;TYPE:WALL-INNER
G1 F1500 E28.588
G1 F1200 X113.5 Y68.5 E31.84749
G1 X121.5 Y68.5 E32.11357
G1 X121.5 Y166.5 E35.37306
G1 X113.5 Y166.5 E35.63915
G0 F6000 X113.1 Y166.9
G1 F1200 X113.1 Y68.1 E38.92525
G1 X121.9 Y68.1 E39.21794
G1 X121.9 Y166.9 E42.50404
G1 X113.1 Y166.9 E42.79673
G0 F6000 X112.7 Y167.3
;TYPE:WALL-OUTER
G1 F1200 X112.7 Y67.7 E46.10944
G1 X122.3 Y67.7 E46.42873
G1 X122.3 Y167.3 E49.74144
G1 X112.7 Y167.3 E50.06074
G0 F6000 X112.97 Y167.03
G0 X113.61 Y166.11
G0 X113.89 Y166.11
;TYPE:SKIN
G1 F1200 X113.89 Y68.89 E53.29429
G1 X121.11 Y68.89 E53.53443
G1 X121.11 Y166.11 E56.76798
G1 X113.89 Y166.11 E57.00812
G0 F6000 X114.471 Y165.948
G1 F1200 X114.049 Y165.526 E57.02797
G0 F6000 X114.049 Y164.96
G1 F1200 X115.037 Y165.948 E57.07444
G0 F6000 X115.602 Y165.948
G1 F1200 X114.049 Y164.395 E57.14749
G0 F6000 X114.049 Y163.829
G1 F1200 X116.168 Y165.948 E57.24716
G0 F6000 X116.734 Y165.948
G1 F1200 X114.049 Y163.263 E57.37345
G0 F6000 X114.049 Y162.698
G1 F1200 X117.299 Y165.948 E57.52632
G0 F6000 X117.865 Y165.948
G1 F1200 X114.049 Y162.132 E57.70582
G0 F6000 X114.049 Y161.566
G1 F1200 X118.431 Y165.948 E57.91193
G0 F6000 X118.996 Y165.948
G1 F1200 X114.049 Y161.001 E58.14462
G0 F6000 X114.049 Y160.435
G1 F1200 X119.562 Y165.948 E58.40394
G0 F6000 X120.128 Y165.948
G1 F1200 X114.049 Y159.869 E58.68988
G0 F6000 X114.049 Y159.304
G1 F1200 X120.693 Y165.948 E59.00239
G0 F6000 X120.949 Y165.639
G1 F1200 X114.049 Y158.738 E59.32697
G0 F6000 X114.049 Y158.172
G1 F1200 X120.949 Y165.073 E59.65155
G0 F6000 X120.949 Y164.507
G1 F1200 X114.049 Y157.607 E59.9761
G0 F6000 X114.049 Y157.041
G1 F1200 X120.949 Y163.942 E60.30068
G0 F6000 X120.949 Y163.376
G1 F1200 X114.049 Y156.475 E60.62526
G0 F6000 X114.049 Y155.909
G1 F1200 X120.949 Y162.81 E60.94984
G0 F6000 X120.949 Y162.244
G1 F1200 X114.049 Y155.344 E61.27439
G0 F6000 X114.049 Y154.778
G1 F1200 X120.949 Y161.679 E61.59897
G0 F6000 X120.949 Y161.113
G1 F1200 X114.049 Y154.212 E61.92355
G0 F6000 X114.049 Y153.647
G1 F1200 X120.949 Y160.547 E62.2481
G0 F6000 X120.949 Y159.982
G1 F1200 X114.049 Y153.081 E62.57268
G0 F6000 X114.049 Y152.515
G1 F1200 X120.949 Y159.416 E62.89726
G0 F6000 X120.949 Y158.85
G1 F1200 X114.049 Y151.95 E63.22181
G0 F6000 X114.049 Y151.384
G1 F1200 X120.949 Y158.285 E63.54639
G0 F6000 X120.949 Y157.719
G1 F1200 X114.049 Y150.818 E63.87097
G0 F6000 X114.049 Y150.253
G1 F1200 X120.949 Y157.153 E64.19552
G0 F6000 X120.949 Y156.588
G1 F1200 X114.049 Y149.687 E64.5201
G0 F6000 X114.049 Y149.121
G1 F1200 X120.949 Y156.022 E64.84468
G0 F6000 X120.949 Y155.456
G1 F1200 X114.049 Y148.556 E65.16924
G0 F6000 X114.049 Y147.99
G1 F1200 X120.949 Y154.891 E65.49381
G0 F6000 X120.949 Y154.325
G1 F1200 X114.049 Y147.424 E65.81839
G0 F6000 X114.049 Y146.859
G1 F1200 X120.949 Y153.759 E66.14295
G0 F6000 X120.949 Y153.193
G1 F1200 X114.049 Y146.293 E66.4675
G0 F6000 X114.049 Y145.727
G1 F1200 X120.949 Y152.628 E66.79208
G0 F6000 X120.949 Y152.062
G1 F1200 X114.049 Y145.161 E67.11666
G0 F6000 X114.049 Y144.596
G1 F1200 X120.949 Y151.496 E67.44121
G0 F6000 X120.949 Y150.931
G1 F1200 X114.049 Y144.03 E67.76579
G0 F6000 X114.049 Y143.464
G1 F1200 X120.949 Y150.365 E68.09037
G0 F6000 X120.949 Y149.799
G1 F1200 X114.049 Y142.899 E68.41493
G0 F6000 X114.049 Y142.333
G1 F1200 X120.949 Y149.234 E68.7395
G0 F6000 X120.949 Y148.668
G1 F1200 X114.049 Y141.767 E69.06408
G0 F6000 X114.049 Y141.202
G1 F1200 X120.949 Y148.102 E69.38864
G0 F6000 X120.949 Y147.537
G1 F1200 X114.049 Y140.636 E69.71322
G0 F6000 X114.049 Y140.07
G1 F1200 X120.949 Y146.971 E70.03779
G0 F6000 X120.949 Y146.405
G1 F1200 X114.049 Y139.505 E70.36235
G0 F6000 X114.049 Y138.939
G1 F1200 X120.949 Y145.84 E70.68693
G0 F6000 X120.949 Y145.274
G1 F1200 X114.049 Y138.373 E71.01151
G0 F6000 X114.049 Y137.808
G1 F1200 X120.949 Y144.708 E71.33606
G0 F6000 X120.949 Y144.143
G1 F1200 X114.049 Y137.242 E71.66064
G0 F6000 X114.049 Y136.676
G1 F1200 X120.949 Y143.577 E71.98522
G0 F6000 X120.949 Y143.011
G1 F1200 X114.049 Y136.11 E72.3098
G0 F6000 X114.049 Y135.545
G1 F1200 X120.949 Y142.445 E72.63435
G0 F6000 X120.949 Y141.88
G1 F1200 X114.049 Y134.979 E72.95893
G0 F6000 X114.049 Y134.413
G1 F1200 X120.949 Y141.314 E73.28351
G0 F6000 X120.949 Y140.748
G1 F1200 X114.049 Y133.848 E73.60806
G0 F6000 X114.049 Y133.282
G1 F1200 X120.949 Y140.183 E73.93264
G0 F6000 X120.949 Y139.617
G1 F1200 X114.049 Y132.716 E74.25722
G0 F6000 X114.049 Y132.151
G1 F1200 X120.949 Y139.051 E74.58177
G0 F6000 X120.949 Y138.486
G1 F1200 X114.049 Y131.585 E74.90635
G0 F6000 X114.049 Y131.019
G1 F1200 X120.949 Y137.92 E75.23093
G0 F6000 X120.949 Y137.354
G1 F1200 X114.049 Y130.454 E75.55549
G0 F6000 X114.049 Y129.888
G1 F1200 X120.949 Y136.789 E75.88006
G0 F6000 X120.949 Y136.223
G1 F1200 X114.049 Y129.322 E76.20464
G0 F6000 X114.049 Y128.757
G1 F1200 X120.949 Y135.657 E76.5292
G0 F6000 X120.949 Y135.092
G1 F1200 X114.049 Y128.191 E76.85378
G0 F6000 X114.049 Y127.625
G1 F1200 X120.949 Y134.526 E77.17835
G0 F6000 X120.949 Y133.96
G1 F1200 X114.049 Y127.06 E77.50291
G0 F6000 X114.049 Y126.494
G1 F1200 X120.949 Y133.394 E77.82746
G0 F6000 X120.949 Y132.829
G1 F1200 X114.049 Y125.928 E78.15204
G0 F6000 X114.049 Y125.362
G1 F1200 X120.949 Y132.263 E78.47662
G0 F6000 X120.949 Y131.697
G1 F1200 X114.049 Y124.797 E78.80117
G0 F6000 X114.049 Y124.231
G1 F1200 X120.949 Y131.132 E79.12575
G0 F6000 X120.949 Y130.566
G1 F1200 X114.049 Y123.665 E79.45033
G0 F6000 X114.049 Y123.1
G1 F1200 X120.949 Y130 E79.77489
G0 F6000 X120.949 Y129.435
G1 F1200 X114.049 Y122.534 E80.09946
G0 F6000 X114.049 Y121.968
G1 F1200 X120.949 Y128.869 E80.42404
G0 F6000 X120.949 Y128.303
G1 F1200 X114.049 Y121.403 E80.7486
G0 F6000 X114.049 Y120.837
G1 F1200 X120.949 Y127.738 E81.07318
G0 F6000 X120.949 Y127.172
G1 F1200 X114.049 Y120.271 E81.39775
G0 F6000 X114.049 Y119.706
G1 F1200 X120.949 Y126.606 E81.72231
G0 F6000 X120.949 Y126.041
G1 F1200 X114.049 Y119.14 E82.04689
G0 F6000 X114.049 Y118.574
G1 F1200 X120.949 Y125.475 E82.37147
G0 F6000 X120.949 Y124.909
G1 F1200 X114.049 Y118.009 E82.69602
G0 F6000 X114.049 Y117.443
G1 F1200 X120.949 Y124.344 E83.0206
G0 F6000 X120.949 Y123.778
G1 F1200 X114.049 Y116.877 E83.34518
G0 F6000 X114.049 Y116.311
G1 F1200 X120.949 Y123.212 E83.66976
G0 F6000 X120.949 Y122.646
G1 F1200 X114.049 Y115.746 E83.99431
G0 F6000 X114.049 Y115.18
G1 F1200 X120.949 Y122.081 E84.31889
G0 F6000 X120.949 Y121.515
G1 F1200 X114.049 Y114.614 E84.64347
G0 F6000 X114.049 Y114.049
G1 F1200 X120.949 Y120.949 E84.96802
G0 F6000 X120.949 Y120.384
G1 F1200 X114.049 Y113.483 E85.2926
G0 F6000 X114.049 Y112.917
G1 F1200 X120.949 Y119.818 E85.61718
G0 F6000 X120.949 Y119.252
G1 F1200 X114.049 Y112.352 E85.94173
G0 F6000 X114.049 Y111.786
G1 F1200 X120.949 Y118.687 E86.26631
G0 F6000 X120.949 Y118.121
G1 F1200 X114.049 Y111.22 E86.59089
G0 F6000 X114.049 Y110.655
G1 F1200 X120.949 Y117.555 E86.91545
G0 F6000 X120.949 Y116.99
G1 F1200 X114.049 Y110.089 E87.24002
G0 F6000 X114.049 Y109.523
G1 F1200 X120.949 Y116.424 E87.5646
G0 F6000 X120.949 Y115.858
G1 F1200 X114.049 Y108.958 E87.88916
G0 F6000 X114.049 Y108.392
G1 F1200 X120.949 Y115.293 E88.21374
G0 F6000 X120.949 Y114.727
G1 F1200 X114.049 Y107.826 E88.53831
G0 F6000 X114.049 Y107.261
G1 F1200 X120.949 Y114.161 E88.86287
G0 F6000 X120.949 Y113.595
G1 F1200 X114.049 Y106.695 E89.18742
G0 F6000 X114.049 Y106.129
G1 F1200 X120.949 Y113.03 E89.512
G0 F6000 X120.949 Y112.464
G1 F1200 X114.049 Y105.563 E89.83658
G0 F6000 X114.049 Y104.998
G1 F1200 X120.949 Y111.898 E90.16114
G0 F6000 X120.949 Y111.333
G1 F1200 X114.049 Y104.432 E90.48571
G0 F6000 X114.049 Y103.866
